;FLAVOR:Marlin
;TIME:6987
;Filament used: 5.11843m
;Layer height: 0.2
;MINX:56.744
;MINY:47.999
;MINZ:0.2
;MAXX:197.024
;MAXY:158.279
;MAXZ:5.2
;Generated with Cura_SteamEngine 5.3.1
M140 S60
M105
M190 S60
M104 S200
M105
M109 S200
M82 ;absolute extrusion mode
G28 ; home all axes
M420 S1
 M117 Purge extruder
 G92 E0 ; reset extruder
 G1 Z1.0 F3000 ; move z up little to prevent scratching of surface
 G1 X2 Y20 Z0.3 F5000.0 ; move to start-line position
 G1 X2 Y200.0 Z0.3 F1500.0 E15 ; draw 1st line
 G1 X2 Y200.0 Z0.4 F5000.0 ; move to side a little
 G1 X2 Y20 Z0.4 F1500.0 E30 ; draw 2nd line
 G92 E0 ; reset extruder
 G1 Z1.0 F3000 ; move z up little to prevent scratching of surface
G92 E0
G92 E0
G1 F1500 E-2
;LAYER_COUNT:25
;LAYER:0
M107
G1 F300 Z0.4
G0 F6000 X58.605 Y50.933 Z0.4
;TYPE:SKIRT
G1 F300 Z0.2
G1 F1500 E0
G1 F1200 X57.534 Y52.496 E0.06932
G1 X57.098 Y53.743 E0.11765
G1 X56.744 Y55.261 E0.17468
G1 X56.744 Y71.397 E0.76503
G1 X57.428 Y73.483 E0.84535
G1 X58.488 Y75.249 E0.92071
G1 X59.646 Y76.388 E0.98013
G1 X59.796 Y76.499 E0.98696
G1 X59.069 Y77.928 E1.04562
G1 X58.603 Y79.868 E1.11862
G1 X58.603 Y89.77 E1.48089
G1 X58.995 Y91.539 E1.54718
G1 X59.372 Y92.422 E1.58231
G1 X60.452 Y94.061 E1.65412
G1 X61.891 Y95.445 E1.72717
G1 X70.589 Y100.446 E2.09424
G1 X71.271 Y100.731 E2.12129
G1 X73.213 Y101.041 E2.19324
G1 X75.118 Y100.943 E2.26303
G1 X77.021 Y100.393 E2.3355
G1 X83.747 Y96.511 E2.61962
G1 X83.747 Y111.168 E3.15587
G1 X77.592 Y107.619 E3.41581
G1 X75.756 Y107.041 E3.48623
G1 X75.239 Y106.948 E3.50545
G1 X72.935 Y107.069 E3.58986
G1 X71.04 Y107.617 E3.66203
G1 X62.5 Y112.546 E4.02278
G1 X60.884 Y114.029 E4.10303
G1 X60.614 Y114.424 E4.12053
G1 X59.648 Y116.321 E4.19842
G1 X59.182 Y118.261 E4.27141
G1 X59.182 Y128.163 E4.63369
G1 X59.577 Y129.948 E4.70057
G1 X58.603 Y130.937 E4.75136
G1 X57.535 Y132.496 E4.8205
G1 X57.098 Y133.743 E4.86884
G1 X56.744 Y135.261 E4.92587
G1 X56.744 Y151.397 E5.51622
G1 X57.429 Y153.485 E5.59662
G1 X58.485 Y155.244 E5.67168
G1 X59.678 Y156.418 E5.73292
G1 X61.241 Y157.489 E5.80224
G1 X62.488 Y157.925 E5.85057
G1 X64.006 Y158.279 E5.9076
G1 X190.142 Y158.279 E10.52243
G1 X192.23 Y157.594 E10.60283
G1 X193.989 Y156.538 E10.67789
G1 X195.163 Y155.345 E10.73913
G1 X196.234 Y153.782 E10.80845
G1 X196.67 Y152.535 E10.85678
G1 X197.024 Y151.017 E10.91381
G1 X197.024 Y134.881 E11.50416
G1 X196.34 Y132.795 E11.58448
G1 X195.281 Y131.032 E11.65972
G1 X194.597 Y130.359 E11.69483
G1 X195.541 Y128.506 E11.77091
G1 X196.007 Y126.566 E11.84391
G1 X196.006 Y116.664 E12.20618
G1 X195.614 Y114.89 E12.27265
G1 X195.238 Y114.009 E12.3077
G1 X194.153 Y112.362 E12.37986
G1 X192.723 Y110.988 E12.45241
G1 X184.142 Y106.041 E12.81479
G1 X182.306 Y105.463 E12.88521
G1 X181.789 Y105.37 E12.90443
G1 X179.485 Y105.491 E12.98884
G1 X177.59 Y106.039 E13.06102
G1 X169.05 Y110.968 E13.42177
G1 X167.472 Y112.416 E13.50012
G1 X167.34 Y112.586 E13.508
G1 X166.106 Y111.4 E13.57062
G1 X157.525 Y106.454 E13.93298
G1 X155.689 Y105.876 E14.0034
G1 X155.172 Y105.783 E14.02262
G1 X152.868 Y105.904 E14.10703
G1 X150.973 Y106.452 E14.1792
G1 X142.433 Y111.381 E14.53995
G1 X141.402 Y112.327 E14.59115
G1 X133.067 Y107.523 E14.94312
G1 X131.231 Y106.945 E15.01354
G1 X130.714 Y106.852 E15.03276
G1 X128.41 Y106.973 E15.11717
G1 X126.515 Y107.521 E15.18934
G1 X120.027 Y111.266 E15.46342
G1 X120.027 Y99.218 E15.90421
G1 X124.61 Y101.865 E16.09784
G1 X125.362 Y102.135 E16.12707
G1 X127.207 Y102.442 E16.1955
G1 X129.141 Y102.331 E16.26638
G1 X131.021 Y101.786 E16.33799
G1 X139.564 Y96.854 E16.69889
G1 X140.848 Y95.676 E16.76264
G1 X141.926 Y96.712 E16.81734
G1 X150.507 Y101.659 E17.17973
G1 X152.343 Y102.237 E17.25015
G1 X152.86 Y102.33 E17.26937
G1 X155.164 Y102.209 E17.35378
G1 X157.059 Y101.661 E17.42595
G1 X165.599 Y96.732 E17.7867
G1 X167.215 Y95.249 E17.86695
G1 X167.485 Y94.854 E17.88445
G1 X167.651 Y94.527 E17.89787
G1 X168.992 Y95.813 E17.96585
G1 X177.794 Y100.89 E18.33761
G1 X180.063 Y101.439 E18.42302
G1 X182.019 Y101.346 E18.49466
G1 X184.055 Y100.81 E18.57169
G1 X192.669 Y95.838 E18.93557
G1 X194.285 Y94.355 E19.01582
G1 X194.555 Y93.96 E19.03332
G1 X195.521 Y92.063 E19.11121
G1 X195.987 Y90.123 E19.1842
G1 X195.987 Y80.221 E19.54648
G1 X195.595 Y78.447 E19.61295
G1 X195.219 Y77.566 E19.64799
G1 X194.32 Y76.201 E19.70779
G1 X195.163 Y75.345 E19.75175
G1 X196.233 Y73.782 E19.82105
G1 X196.67 Y72.535 E19.86939
G1 X197.024 Y71.017 E19.92642
G1 X197.024 Y54.881 E20.51677
G1 X196.339 Y52.793 E20.59717
G1 X195.283 Y51.034 E20.67223
G1 X194.09 Y49.86 E20.73347
G1 X192.527 Y48.789 E20.80279
G1 X191.28 Y48.353 E20.85112
G1 X189.762 Y47.999 E20.90815
G1 X63.626 Y47.999 E25.52298
G1 X61.538 Y48.684 E25.60338
G1 X59.779 Y49.74 E25.67844
G1 X58.605 Y50.933 E25.73967
G0 F6000 X58.947 Y51.212
G1 F1200 X60.053 Y50.089 E25.79734
G1 X61.723 Y49.086 E25.86861
G1 X63.696 Y48.439 E25.94458
G1 X189.709 Y48.439 E30.55491
G1 X191.18 Y48.782 E30.61017
G1 X192.326 Y49.185 E30.65462
G1 X193.811 Y50.202 E30.72047
G1 X194.934 Y51.308 E30.77813
G1 X195.937 Y52.978 E30.8494
G1 X196.584 Y54.951 E30.92537
G1 X196.584 Y70.964 E31.51123
G1 X196.241 Y72.435 E31.56649
G1 X195.837 Y73.581 E31.61094
G1 X194.823 Y75.062 E31.67661
G1 X193.757 Y76.145 E31.73221
G1 X194.828 Y77.771 E31.80344
G1 X195.174 Y78.582 E31.8357
G1 X195.547 Y80.271 E31.89898
G1 X195.547 Y90.07 E32.25749
G1 X195.105 Y91.91 E32.32673
G1 X194.163 Y93.76 E32.40268
G1 X193.95 Y94.066 E32.41632
G1 X192.409 Y95.48 E32.49284
G1 X183.885 Y100.4 E32.85292
G1 X181.956 Y100.908 E32.9259
G1 X180.105 Y100.996 E32.9937
G1 X177.957 Y100.476 E33.07455
G1 X169.26 Y95.46 E33.44187
G1 X167.907 Y94.162 E33.51047
G1 X167.589 Y93.68 E33.5316
G1 X167.093 Y94.654 E33.57158
G1 X166.88 Y94.96 E33.58523
G1 X165.339 Y96.374 E33.66174
G1 X156.886 Y101.253 E34.01882
G1 X155.088 Y101.773 E34.0873
G1 X152.891 Y101.888 E34.16779
G1 X152.475 Y101.817 E34.18323
G1 X150.684 Y101.253 E34.25193
G1 X142.192 Y96.358 E34.61054
G1 X140.855 Y95.073 E34.67838
G1 X139.304 Y96.496 E34.75539
G1 X130.848 Y101.378 E35.11263
G1 X129.064 Y101.895 E35.18058
G1 X127.232 Y102 E35.24772
G1 X125.472 Y101.707 E35.31299
G1 X124.797 Y101.465 E35.33923
G1 X119.587 Y98.456 E35.55935
G1 X119.587 Y112.028 E36.0559
G1 X126.688 Y107.929 E36.35587
G1 X128.486 Y107.409 E36.42435
G1 X130.683 Y107.294 E36.50484
G1 X131.099 Y107.365 E36.52028
G1 X132.89 Y107.929 E36.58898
G1 X141.461 Y112.869 E36.95091
G1 X142.693 Y111.739 E37.01208
G1 X151.146 Y106.86 E37.36916
G1 X152.944 Y106.34 E37.43763
G1 X155.141 Y106.225 E37.51812
G1 X155.557 Y106.296 E37.53356
G1 X157.348 Y106.86 E37.60226
G1 X165.84 Y111.755 E37.96087
G1 X167.197 Y113.059 E38.02973
G1 X167.396 Y113.36 E38.04293
G1 X167.556 Y113.046 E38.05582
G1 X167.769 Y112.74 E38.06946
G1 X169.31 Y111.326 E38.14598
G1 X177.763 Y106.447 E38.50306
G1 X179.561 Y105.927 E38.57154
G1 X181.758 Y105.812 E38.65203
G1 X182.174 Y105.883 E38.66747
G1 X183.965 Y106.447 E38.73617
G1 X192.457 Y111.342 E39.09478
G1 X193.814 Y112.646 E39.16363
G1 X194.847 Y114.214 E39.23233
G1 X195.193 Y115.025 E39.26459
G1 X195.566 Y116.714 E39.32787
G1 X195.567 Y126.513 E39.68638
G1 X195.125 Y128.353 E39.75561
G1 X194.059 Y130.447 E39.84158
G1 X194.934 Y131.307 E39.88647
G1 X195.937 Y132.978 E39.95777
G1 X196.584 Y134.951 E40.03374
G1 X196.584 Y150.964 E40.61959
G1 X196.241 Y152.435 E40.67485
G1 X195.838 Y153.581 E40.7193
G1 X194.821 Y155.066 E40.78515
G1 X193.715 Y156.189 E40.84281
G1 X192.045 Y157.192 E40.91408
G1 X190.072 Y157.839 E40.99005
G1 X64.059 Y157.839 E45.60038
G1 X62.588 Y157.496 E45.65564
G1 X61.442 Y157.093 E45.70009
G1 X59.957 Y156.076 E45.76594
G1 X58.834 Y154.97 E45.8236
G1 X57.831 Y153.3 E45.89488
G1 X57.184 Y151.327 E45.97084
G1 X57.184 Y135.314 E46.5567
G1 X57.527 Y133.843 E46.61196
G1 X57.931 Y132.697 E46.65642
G1 X58.943 Y131.22 E46.72192
G1 X60.101 Y130.044 E46.7823
G1 X59.985 Y129.755 E46.7937
G1 X59.622 Y128.113 E46.85522
G1 X59.622 Y118.314 E47.21373
G1 X60.064 Y116.474 E47.28296
G1 X61.006 Y114.624 E47.35892
G1 X61.219 Y114.318 E47.37256
G1 X62.76 Y112.904 E47.44907
G1 X71.213 Y108.025 E47.80616
G1 X73.011 Y107.505 E47.87463
G1 X75.208 Y107.39 E47.95512
G1 X75.624 Y107.461 E47.97056
G1 X77.415 Y108.025 E48.03926
G1 X84.187 Y111.929 E48.32525
G1 X84.187 Y95.749 E48.91721
G1 X76.848 Y99.985 E49.22723
G1 X75.042 Y100.507 E49.29601
G1 X73.236 Y100.6 E49.36217
G1 X71.395 Y100.306 E49.43038
G1 X70.759 Y100.04 E49.4556
G1 X62.158 Y95.092 E49.81864
G1 X60.791 Y93.777 E49.88803
G1 X59.763 Y92.217 E49.95639
G1 X59.416 Y91.404 E49.98873
G1 X59.043 Y89.72 E50.05183
G1 X59.043 Y79.921 E50.41034
G1 X59.485 Y78.081 E50.47957
G1 X60.364 Y76.354 E50.55047
G1 X59.955 Y76.074 E50.5686
G1 X58.834 Y74.971 E50.62614
G1 X57.831 Y73.3 E50.69744
G1 X57.184 Y71.327 E50.77341
G1 X57.184 Y55.314 E51.35927
G1 X57.527 Y53.843 E51.41453
G1 X57.93 Y52.697 E51.45897
G1 X58.947 Y51.212 E51.52482
G0 F6000 X59.287 Y51.495
G1 F1200 X60.33 Y50.435 E51.57923
G1 X61.906 Y49.489 E51.64648
G1 X63.766 Y48.879 E51.7181
G1 X189.656 Y48.879 E56.32393
G1 X191.08 Y49.211 E56.37742
G1 X192.125 Y49.581 E56.41798
G1 X193.528 Y50.542 E56.4802
G1 X194.588 Y51.585 E56.5346
G1 X195.534 Y53.161 E56.60185
G1 X196.144 Y55.021 E56.67347
G1 X196.144 Y70.911 E57.25482
G1 X195.812 Y72.335 E57.30832
G1 X195.441 Y73.38 E57.34889
G1 X194.483 Y74.779 E57.41093
G1 X193.434 Y75.845 E57.46564
G1 X193.037 Y76.083 E57.48258
G1 X193.454 Y76.484 E57.50374
G1 X194.437 Y77.976 E57.56911
G1 X194.753 Y78.717 E57.59858
G1 X195.107 Y80.321 E57.65868
G1 X195.107 Y90.017 E58.01342
G1 X194.689 Y91.757 E58.07889
G1 X193.771 Y93.56 E58.15291
G1 X193.616 Y93.776 E58.16264
G1 X192.149 Y95.122 E58.23548
G1 X183.715 Y99.99 E58.59176
G1 X181.893 Y100.47 E58.66069
G1 X180.146 Y100.553 E58.72468
G1 X178.121 Y100.063 E58.80091
G1 X169.526 Y95.105 E59.16393
G1 X168.246 Y93.878 E59.2288
G1 X167.54 Y92.807 E59.27574
G1 X166.701 Y94.454 E59.34336
G1 X166.546 Y94.67 E59.35309
G1 X165.079 Y96.016 E59.42593
G1 X156.713 Y100.845 E59.77934
G1 X155.012 Y101.337 E59.84412
G1 X152.92 Y101.446 E59.92076
G1 X152.549 Y101.383 E59.93453
G1 X150.863 Y100.849 E59.99924
G1 X142.458 Y96.004 E60.35417
G1 X141.168 Y94.765 E60.41961
G1 X140.831 Y94.253 E60.44204
G1 X140.596 Y94.714 E60.46097
G1 X139.044 Y96.138 E60.53803
G1 X130.676 Y100.969 E60.89154
G1 X128.986 Y101.459 E60.95592
G1 X127.257 Y101.558 E61.01928
G1 X125.582 Y101.279 E61.08141
G1 X124.984 Y101.065 E61.10464
G1 X119.147 Y97.694 E61.35125
G1 X119.147 Y112.79 E61.90356
G1 X126.861 Y108.337 E62.22943
G1 X128.562 Y107.845 E62.29421
G1 X130.654 Y107.736 E62.37086
G1 X131.025 Y107.799 E62.38462
G1 X132.711 Y108.333 E62.44933
G1 X141.116 Y113.178 E62.80427
G1 X141.438 Y113.487 E62.82059
G1 X142.953 Y112.097 E62.89582
G1 X151.319 Y107.268 E63.24923
G1 X153.02 Y106.776 E63.31401
G1 X155.112 Y106.667 E63.39065
G1 X155.483 Y106.73 E63.40442
G1 X157.169 Y107.264 E63.46913
G1 X165.574 Y112.109 E63.82406
G1 X166.858 Y113.343 E63.88922
G1 X167.445 Y114.234 E63.92826
G1 X167.948 Y113.246 E63.96882
G1 X168.103 Y113.03 E63.97854
G1 X169.57 Y111.684 E64.05138
G1 X177.936 Y106.855 E64.40479
G1 X179.637 Y106.363 E64.46958
G1 X181.729 Y106.254 E64.54622
G1 X182.1 Y106.317 E64.55999
G1 X183.786 Y106.851 E64.62469
G1 X192.191 Y111.696 E64.97963
G1 X193.475 Y112.93 E65.04479
G1 X194.456 Y114.419 E65.11002
G1 X194.772 Y115.16 E65.1395
G1 X195.126 Y116.764 E65.19959
G1 X195.127 Y126.46 E65.55433
G1 X194.709 Y128.2 E65.6198
G1 X193.72 Y130.143 E65.69957
G1 X193.389 Y130.447 E65.71601
G1 X193.554 Y130.568 E65.7235
G1 X194.588 Y131.585 E65.77656
G1 X195.534 Y133.161 E65.84381
G1 X196.144 Y135.021 E65.91542
G1 X196.144 Y150.911 E66.49678
G1 X195.812 Y152.335 E66.55027
G1 X195.442 Y153.38 E66.59083
G1 X194.481 Y154.783 E66.65305
G1 X193.438 Y155.843 E66.70746
G1 X191.862 Y156.789 E66.77471
G1 X190.002 Y157.399 E66.84632
G1 X64.112 Y157.399 E71.45215
G1 X62.688 Y157.067 E71.50565
G1 X61.643 Y156.697 E71.54621
G1 X60.24 Y155.736 E71.60842
G1 X59.18 Y154.693 E71.66283
G1 X58.234 Y153.117 E71.73008
G1 X57.624 Y151.257 E71.8017
G1 X57.624 Y135.367 E72.38305
G1 X57.956 Y133.943 E72.43655
G1 X58.327 Y132.898 E72.47712
G1 X59.283 Y131.503 E72.53899
G1 X60.337 Y130.432 E72.59397
G1 X60.661 Y130.238 E72.60778
G1 X60.415 Y129.66 E72.63077
G1 X60.062 Y128.063 E72.6906
G1 X60.062 Y118.367 E73.04534
G1 X60.48 Y116.627 E73.11081
G1 X61.398 Y114.824 E73.18484
G1 X61.553 Y114.608 E73.19456
G1 X63.02 Y113.262 E73.2674
G1 X71.386 Y108.433 E73.62081
G1 X73.087 Y107.941 E73.6856
G1 X75.179 Y107.832 E73.76224
G1 X75.55 Y107.895 E73.77601
G1 X77.236 Y108.429 E73.84071
G1 X84.627 Y112.69 E74.15284
G1 X84.627 Y94.987 E74.80052
G1 X76.675 Y99.577 E75.13644
G1 X74.966 Y100.071 E75.20153
G1 X73.259 Y100.159 E75.26407
G1 X71.519 Y99.881 E75.32853
G1 X70.929 Y99.634 E75.35193
G1 X62.424 Y94.737 E75.71099
G1 X61.13 Y93.493 E75.77666
G1 X60.154 Y92.012 E75.84156
G1 X59.837 Y91.269 E75.87111
G1 X59.483 Y89.67 E75.93103
G1 X59.483 Y79.974 E76.28577
G1 X59.901 Y78.234 E76.35124
G1 X60.854 Y76.362 E76.42809
G1 X60.959 Y76.228 E76.43432
G1 X60.24 Y75.736 E76.46619
G1 X59.18 Y74.693 E76.5206
G1 X58.234 Y73.117 E76.58785
G1 X57.624 Y71.257 E76.65947
G1 X57.624 Y55.367 E77.24082
G1 X57.956 Y53.943 E77.29432
G1 X58.326 Y52.898 E77.33488
G1 X59.287 Y51.495 E77.39709
G0 F6000 X59.627 Y51.778
G1 F1200 X60.608 Y50.781 E77.44827
G1 X62.089 Y49.892 E77.51146
G1 X63.836 Y49.319 E77.57873
G1 X189.603 Y49.319 E82.18006
G1 X190.98 Y49.64 E82.23179
G1 X191.922 Y49.976 E82.26838
G1 X193.245 Y50.882 E82.32705
G1 X194.242 Y51.863 E82.37822
G1 X195.131 Y53.344 E82.44142
G1 X195.704 Y55.091 E82.50868
G1 X195.704 Y70.858 E83.08554
G1 X195.383 Y72.235 E83.13727
G1 X195.047 Y73.177 E83.17386
G1 X194.141 Y74.5 E83.23252
G1 X193.159 Y75.497 E83.28372
G1 X192.317 Y76.002 E83.31964
G1 X193.115 Y76.768 E83.36011
G1 X194.046 Y78.181 E83.42202
G1 X194.332 Y78.852 E83.44871
G1 X194.667 Y80.371 E83.50562
G1 X194.667 Y89.964 E83.85659
G1 X194.273 Y91.604 E83.9183
G1 X193.379 Y93.36 E83.99039
G1 X193.284 Y93.484 E83.9961
G1 X191.889 Y94.764 E84.06537
G1 X183.545 Y99.58 E84.41784
G1 X181.83 Y100.032 E84.48273
G1 X180.187 Y100.11 E84.54291
G1 X178.285 Y99.65 E84.6145
G1 X169.794 Y94.752 E84.97314
G1 X168.583 Y93.591 E85.03452
G1 X167.654 Y92.181 E85.09629
G1 X167.414 Y91.618 E85.11868
G1 X167.203 Y92.498 E85.15179
G1 X166.309 Y94.254 E85.22388
G1 X166.214 Y94.378 E85.2296
G1 X164.819 Y95.658 E85.29887
G1 X156.54 Y100.437 E85.64861
G1 X154.936 Y100.901 E85.7097
G1 X152.947 Y101.004 E85.78256
G1 X152.682 Y100.964 E85.79237
G1 X151.043 Y100.445 E85.85527
G1 X142.724 Y95.649 E86.20658
G1 X141.51 Y94.484 E86.26814
G1 X140.782 Y93.378 E86.31659
G1 X140.239 Y94.445 E86.36039
G1 X138.784 Y95.78 E86.43263
G1 X130.503 Y100.561 E86.78247
G1 X128.909 Y101.023 E86.84319
G1 X127.282 Y101.116 E86.90281
G1 X125.694 Y100.852 E86.96171
G1 X125.17 Y100.664 E86.98208
G1 X118.707 Y96.932 E87.25512
G1 X118.707 Y113.552 E87.86319
G1 X127.034 Y108.745 E88.21496
G1 X128.638 Y108.281 E88.27605
G1 X130.627 Y108.178 E88.34892
G1 X130.892 Y108.218 E88.35872
G1 X132.531 Y108.737 E88.42162
G1 X140.85 Y113.533 E88.77294
G1 X141.548 Y114.203 E88.80833
G1 X141.758 Y113.79 E88.82529
G1 X143.213 Y112.455 E88.89753
G1 X151.492 Y107.676 E89.24727
G1 X153.096 Y107.212 E89.30836
G1 X155.085 Y107.109 E89.38123
G1 X155.35 Y107.149 E89.39103
G1 X156.989 Y107.668 E89.45393
G1 X165.308 Y112.464 E89.80525
G1 X166.519 Y113.627 E89.86668
G1 X167.494 Y115.107 E89.93152
G1 X168.34 Y113.446 E89.99972
G1 X168.435 Y113.322 E90.00543
G1 X169.83 Y112.042 E90.0747
G1 X178.109 Y107.263 E90.42444
G1 X179.713 Y106.799 E90.48553
G1 X181.702 Y106.696 E90.5584
G1 X181.967 Y106.736 E90.5682
G1 X183.606 Y107.255 E90.6311
G1 X191.925 Y112.051 E90.98242
G1 X193.136 Y113.214 E91.04385
G1 X194.065 Y114.624 E91.10562
G1 X194.351 Y115.295 E91.13231
G1 X194.686 Y116.814 E91.18922
G1 X194.687 Y126.407 E91.54019
G1 X194.293 Y128.047 E91.6019
G1 X193.364 Y129.872 E91.67682
G1 X192.683 Y130.497 E91.71064
G1 X193.245 Y130.882 E91.73556
G1 X194.242 Y131.863 E91.78674
G1 X195.131 Y133.344 E91.84993
