;FLAVOR:Marlin
;TIME:3145
;Filament used: 2.10626m
;Layer height: 0.2
;MINX:131.004
;MINY:131.689
;MINZ:0.2
;MAXX:168.513
;MAXY:169.923
;MAXZ:34.8
;Generated with Cura_SteamEngine 5.3.1
M140 S60
M105
M190 S60
M104 S200
M105
M109 S200
M82 ;absolute extrusion mode
G28 ; home all axes
M420 S1
 M117 Purge extruder
 G92 E0 ; reset extruder
 G1 Z1.0 F3000 ; move z up little to prevent scratching of surface
 G1 X2 Y20 Z0.3 F5000.0 ; move to start-line position
 G1 X2 Y200.0 Z0.3 F1500.0 E15 ; draw 1st line
 G1 X2 Y200.0 Z0.4 F5000.0 ; move to side a little
 G1 X2 Y20 Z0.4 F1500.0 E30 ; draw 2nd line
 G92 E0 ; reset extruder
 G1 Z1.0 F3000 ; move z up little to prevent scratching of surface
G92 E0
G92 E0
G1 F1500 E-2
;LAYER_COUNT:175
;LAYER:0
M107
G1 F300 Z0.4
G0 F6000 X134.914 Y134.36 Z0.4
;TYPE:SKIRT
G1 F300 Z0.2
G1 F1500 E0
G1 F1200 X136.802 Y133.129 E0.08246
G1 X139.032 Y132.454 E0.1677
G1 X139.96 Y132.454 E0.20165
G1 X141.18 Y132.307 E0.24661
G1 X142.719 Y132.492 E0.30332
G1 X144.443 Y132.825 E0.36756
G1 X145.943 Y132.034 E0.42961
G1 X147.853 Y131.689 E0.50062
G1 X149.896 Y131.689 E0.57536
G1 X151.984 Y132.049 E0.65288
G1 X154.458 Y133.453 E0.75696
G1 X156.476 Y135.636 E0.86572
G1 X157.631 Y136.336 E0.91513
G1 X157.912 Y136.651 E0.93058
G1 X158.026 Y136.704 E0.93518
G1 X159.941 Y137.799 E1.01588
G1 X160.508 Y138.409 E1.04635
G1 X163.133 Y139.879 E1.15643
G1 X164.258 Y141.007 E1.21471
G1 X165.342 Y142.356 E1.27803
G1 X165.699 Y143.189 E1.31118
G1 X166.137 Y143.646 E1.33434
G1 X167.268 Y145.611 E1.41729
G1 X167.573 Y146.959 E1.46786
G1 X167.676 Y147.157 E1.47602
G1 X168.056 Y148.092 E1.51295
G1 X168.513 Y149.678 E1.57333
G1 X168.513 Y152.145 E1.66359
G1 X167.596 Y154.944 E1.77135
G1 X166.207 Y157.056 E1.86384
G1 X165.88 Y157.309 E1.87896
G1 X165.754 Y157.647 E1.89216
G1 X164.353 Y159.366 E1.97329
G1 X162.263 Y161.095 E2.07253
G1 X161.709 Y161.364 E2.09506
G1 X161.635 Y161.572 E2.10314
G1 X161.006 Y162.923 E2.15766
G1 X159.577 Y164.59 E2.23799
G1 X157.389 Y166.177 E2.33688
G1 X156.031 Y166.728 E2.3905
G1 X154.396 Y167.193 E2.45269
G1 X153.447 Y167.193 E2.48741
G1 X151.452 Y168.751 E2.58002
G1 X149.485 Y169.624 E2.65876
G1 X147.802 Y169.923 E2.7213
G1 X145.605 Y169.923 E2.80168
G1 X143.667 Y169.468 E2.87451
G1 X141.682 Y168.488 E2.9555
G1 X140.801 Y167.642 E3.00019
G1 X140.1 Y167.68 E3.02587
G1 X137.916 Y167.583 E3.10585
G1 X135.988 Y167.012 E3.17942
G1 X133.994 Y165.852 E3.26382
G1 X132.669 Y164.375 E3.33642
G1 X131.801 Y162.934 E3.39796
G1 X131.142 Y161.049 E3.47102
G1 X131.004 Y158.73 E3.55601
G1 X131.382 Y156.794 E3.62818
G1 X131.669 Y155.885 E3.66306
G1 X132.631 Y154.328 E3.73002
G1 X132.742 Y154.193 E3.73641
G1 X132.585 Y153.707 E3.7551
G1 X132.476 Y152.028 E3.81665
G1 X132.545 Y150.56 E3.87042
G1 X133.705 Y147.065 E4.00515
G1 X134.039 Y146.338 E4.03442
G1 X133.671 Y145.924 E4.05469
G1 X132.585 Y144.079 E4.13301
G1 X132.113 Y141.999 E4.21105
G1 X132.04 Y140.07 E4.28167
G1 X132.449 Y138.119 E4.3546
G1 X132.757 Y137.192 E4.39034
G1 X133.742 Y135.64 E4.45759
G1 X134.914 Y134.36 E4.52109
G0 F6000 X135.201 Y134.698
G1 F1200 X136.99 Y133.532 E4.59922
G1 X139.097 Y132.894 E4.67976
G1 X139.988 Y132.894 E4.71236
G1 X141.18 Y132.75 E4.75629
G1 X142.666 Y132.929 E4.81105
G1 X144.189 Y133.224 E4.8678
G1 X144.476 Y133.305 E4.87871
G1 X146.087 Y132.455 E4.94535
G1 X147.892 Y132.129 E5.01246
G1 X149.856 Y132.129 E5.08432
G1 X151.834 Y132.47 E5.15775
G1 X154.181 Y133.802 E5.25648
G1 X156.194 Y135.979 E5.36496
G1 X157.344 Y136.676 E5.41416
G1 X157.645 Y137.014 E5.43072
G1 X157.808 Y137.086 E5.43724
G1 X159.664 Y138.147 E5.51546
G1 X160.233 Y138.759 E5.54603
G1 X162.863 Y140.232 E5.65631
G1 X163.946 Y141.318 E5.71243
G1 X164.962 Y142.585 E5.77185
G1 X165.327 Y143.436 E5.80572
G1 X165.782 Y143.912 E5.82981
G1 X166.854 Y145.773 E5.90839
G1 X167.157 Y147.112 E5.95862
G1 X167.268 Y147.323 E5.96734
G1 X167.648 Y148.258 E6.00427
G1 X168.073 Y149.74 E6.06067
G1 X168.073 Y152.075 E6.1461
G1 X167.197 Y154.749 E6.24905
G1 X165.878 Y156.754 E6.33685
G1 X165.512 Y157.037 E6.35378
G1 X165.368 Y157.424 E6.36889
G1 X164.038 Y159.056 E6.44591
G1 X162.026 Y160.72 E6.54144
G1 X161.353 Y161.048 E6.56883
G1 X161.236 Y161.386 E6.58191
G1 X160.633 Y162.682 E6.63421
G1 X159.274 Y164.266 E6.71057
G1 X157.176 Y165.789 E6.80542
G1 X155.866 Y166.32 E6.85713
G1 X154.336 Y166.753 E6.91531
G1 X153.295 Y166.753 E6.9534
G1 X151.222 Y168.372 E7.04963
G1 X149.356 Y169.2 E7.12432
G1 X147.764 Y169.483 E7.18348
G1 X145.654 Y169.483 E7.26067
G1 X143.821 Y169.053 E7.32956
G1 X141.936 Y168.122 E7.40647
G1 X140.968 Y167.192 E7.45558
G1 X140.12 Y167.24 E7.48666
G1 X137.988 Y167.145 E7.56474
G1 X136.161 Y166.604 E7.63445
G1 X134.277 Y165.508 E7.71419
G1 X133.023 Y164.11 E7.7829
G1 X132.2 Y162.744 E7.84125
G1 X131.577 Y160.962 E7.91032
G1 X131.446 Y158.761 E7.99098
G1 X131.802 Y156.927 E8.05934
G1 X132.074 Y156.066 E8.09237
G1 X133.005 Y154.559 E8.15718
G1 X133.238 Y154.297 E8.17001
G1 X133.02 Y153.623 E8.19592
G1 X132.916 Y152.049 E8.25364
G1 X132.982 Y150.641 E8.30521
G1 X134.123 Y147.204 E8.4377
G1 X134.56 Y146.26 E8.47576
G1 X134.026 Y145.66 E8.50514
G1 X132.999 Y143.915 E8.57922
G1 X132.552 Y141.944 E8.65317
G1 X132.482 Y140.107 E8.72042
G1 X132.867 Y138.258 E8.78952
G1 X133.159 Y137.379 E8.82341
G1 X134.091 Y135.911 E8.88703
G1 X135.201 Y134.698 E8.94718
G0 F6000 X135.488 Y135.036
G1 F1200 X134.44 Y136.182 E9.004
G1 X133.561 Y137.566 E9.06398
G1 X133.285 Y138.397 E9.09602
G1 X132.924 Y140.143 E9.16125
G1 X132.991 Y141.889 E9.22518
G1 X133.413 Y143.751 E9.29503
G1 X134.381 Y145.396 E9.36486
G1 X135.082 Y146.183 E9.40342
G1 X134.541 Y147.343 E9.45025
G1 X133.419 Y150.722 E9.58051
G1 X133.356 Y152.07 E9.62988
G1 X133.455 Y153.539 E9.68375
G1 X133.734 Y154.401 E9.7169
G1 X133.358 Y154.824 E9.7376
G1 X132.478 Y156.248 E9.79885
G1 X132.222 Y157.059 E9.82996
G1 X131.888 Y158.791 E9.8945
G1 X132.012 Y160.875 E9.97088
G1 X132.599 Y162.554 E10.03595
G1 X133.379 Y163.849 E10.09126
G1 X134.558 Y165.163 E10.15585
G1 X136.334 Y166.196 E10.23102
G1 X138.06 Y166.707 E10.29688
G1 X140.14 Y166.8 E10.37305
G1 X141.134 Y166.742 E10.40948
G1 X142.19 Y167.756 E10.46304
G1 X143.974 Y168.637 E10.53584
G1 X145.704 Y169.043 E10.60085
G1 X147.726 Y169.043 E10.67483
G1 X149.227 Y168.776 E10.7306
G1 X150.992 Y167.993 E10.80125
G1 X153.143 Y166.313 E10.9011
G1 X154.276 Y166.313 E10.94256
G1 X155.746 Y165.897 E10.99845
G1 X156.961 Y165.402 E11.04645
G1 X158.974 Y163.941 E11.13745
G1 X160.259 Y162.443 E11.20966
G1 X160.837 Y161.2 E11.25981
G1 X160.995 Y160.734 E11.27781
G1 X161.786 Y160.348 E11.31001
G1 X163.723 Y158.746 E11.40198
G1 X164.982 Y157.201 E11.4749
G1 X165.144 Y156.765 E11.49191
G1 X165.549 Y156.452 E11.51064
G1 X166.798 Y154.554 E11.59377
G1 X167.633 Y152.005 E11.6919
G1 X167.633 Y149.802 E11.7725
G1 X167.24 Y148.424 E11.82493
G1 X166.86 Y147.489 E11.86185
G1 X166.742 Y147.269 E11.87099
G1 X166.439 Y145.934 E11.92107
G1 X165.429 Y144.179 E11.99515
G1 X164.955 Y143.684 E12.02023
G1 X164.583 Y142.816 E12.05478
G1 X163.634 Y141.629 E12.11038
G1 X162.593 Y140.585 E12.16432
G1 X159.959 Y139.11 E12.27477
G1 X159.389 Y138.496 E12.30542
G1 X157.59 Y137.468 E12.38122
G1 X157.382 Y137.381 E12.38947
G1 X157.057 Y137.016 E12.40735
G1 X155.912 Y136.322 E12.45634
G1 X153.904 Y134.151 E12.56453
G1 X151.684 Y132.891 E12.65792
G1 X149.816 Y132.569 E12.72728
G1 X147.931 Y132.569 E12.79624
G1 X146.231 Y132.876 E12.85944
G1 X144.525 Y133.776 E12.93001
G1 X144.07 Y133.648 E12.9473
G1 X142.613 Y133.366 E13.0016
G1 X141.18 Y133.193 E13.05441
G1 X140.016 Y133.334 E13.09731
G1 X139.161 Y133.334 E13.12859
G1 X137.179 Y133.934 E13.20435
G1 X135.488 Y135.036 E13.2782
G0 F6000 X135.775 Y135.374
G1 F1200 X137.368 Y134.336 E13.34776
G1 X139.225 Y133.774 E13.41874
G1 X140.044 Y133.774 E13.44871
G1 X141.18 Y133.636 E13.49057
G1 X142.56 Y133.803 E13.54143
G1 X143.951 Y134.072 E13.59327
G1 X144.609 Y134.257 E13.61827
G1 X144.741 Y134.158 E13.62431
G1 X146.375 Y133.297 E13.69188
G1 X147.97 Y133.009 E13.75118
G1 X149.776 Y133.009 E13.81726
G1 X151.534 Y133.312 E13.88252
G1 X153.627 Y134.5 E13.97057
G1 X155.63 Y136.665 E14.07848
G1 X156.772 Y137.357 E14.12734
G1 X157.124 Y137.753 E14.14672
G1 X157.372 Y137.85 E14.15646
G1 X159.114 Y138.845 E14.22986
G1 X159.686 Y139.461 E14.26061
G1 X162.323 Y140.938 E14.37119
G1 X163.322 Y141.94 E14.42296
G1 X164.203 Y143.045 E14.47467
G1 X164.583 Y143.931 E14.50994
G1 X165.074 Y144.445 E14.53594
G1 X166.025 Y146.096 E14.60565
G1 X166.327 Y147.43 E14.65569
G1 X166.452 Y147.655 E14.66511
G1 X166.832 Y148.59 E14.70203
G1 X167.193 Y149.862 E14.75041
G1 X167.193 Y151.935 E14.82625
G1 X166.399 Y154.359 E14.91957
G1 X165.22 Y156.15 E14.99802
G1 X164.776 Y156.494 E15.01857
G1 X164.596 Y156.978 E15.03746
G1 X163.408 Y158.436 E15.10627
G1 X161.546 Y159.976 E15.19468
G1 X160.637 Y160.42 E15.23169
G1 X160.42 Y161.058 E15.25634
G1 X159.885 Y162.204 E15.30262
G1 X158.674 Y163.616 E15.37067
G1 X156.749 Y165.013 E15.45769
G1 X155.58 Y165.489 E15.50387
G1 X154.214 Y165.873 E15.55579
G1 X152.991 Y165.873 E15.60053
G1 X150.763 Y167.613 E15.70396
G1 X149.096 Y168.353 E15.77069
G1 X147.688 Y168.603 E15.823
G1 X145.753 Y168.603 E15.8938
G1 X144.124 Y168.221 E15.95501
G1 X142.446 Y167.392 E16.02349
G1 X141.3 Y166.292 E16.08161
G1 X140.16 Y166.36 E16.12339
G1 X138.132 Y166.269 E16.19766
G1 X136.507 Y165.788 E16.25966
G1 X134.841 Y164.819 E16.33017
G1 X133.733 Y163.584 E16.39088
G1 X132.998 Y162.364 E16.44299
G1 X132.447 Y160.788 E16.50407
G1 X132.33 Y158.821 E16.57616
G1 X132.642 Y157.192 E16.63684
G1 X132.883 Y156.429 E16.66612
G1 X133.711 Y155.089 E16.72375
G1 X134.23 Y154.505 E16.75233
G1 X133.89 Y153.454 E16.79275
G1 X133.796 Y152.09 E16.84277
G1 X133.856 Y150.802 E16.88994
G1 X134.94 Y147.529 E17.01609
G1 X135.454 Y146.427 E17.06057
G1 X135.666 Y146.178 E17.07254
G1 X134.738 Y145.135 E17.12362
G1 X133.827 Y143.587 E17.18933
G1 X133.43 Y141.834 E17.25509
G1 X133.366 Y140.178 E17.31572
G1 X133.703 Y138.536 E17.37705
G1 X133.962 Y137.757 E17.40708
G1 X134.792 Y136.449 E17.46376
G1 X135.775 Y135.374 E17.51705
G0 F6000 X136.062 Y135.712
G1 F1200 X137.556 Y134.739 E17.58228
G1 X139.29 Y134.214 E17.64857
G1 X140.072 Y134.214 E17.67718
G1 X141.18 Y134.079 E17.71802
G1 X142.507 Y134.24 E17.76692
G1 X143.832 Y134.496 E17.81629
G1 X144.716 Y134.744 E17.84989
G1 X144.946 Y134.547 E17.86096
G1 X146.519 Y133.718 E17.92602
G1 X148.009 Y133.449 E17.98141
G1 X149.736 Y133.449 E18.0446
G1 X151.384 Y133.733 E18.10578
G1 X153.35 Y134.849 E18.18849
G1 X155.348 Y137.008 E18.29611
G1 X156.487 Y137.698 E18.34483
G1 X156.869 Y138.128 E18.36588
G1 X157.154 Y138.232 E18.37698
G1 X158.839 Y139.194 E18.44796
G1 X159.413 Y139.812 E18.47882
G1 X162.053 Y141.291 E18.58953
G1 X163.01 Y142.251 E18.63913
G1 X163.823 Y143.274 E18.68694
G1 X164.211 Y144.179 E18.72296
G1 X164.721 Y144.712 E18.74995
G1 X165.61 Y146.257 E18.81516
G1 X165.913 Y147.591 E18.86521
G1 X166.044 Y147.821 E18.8749
G1 X166.424 Y148.756 E18.91182
G1 X166.753 Y149.925 E18.95625
G1 X166.753 Y151.865 E19.02723
G1 X165.999 Y154.167 E19.11586
G1 X164.894 Y155.845 E19.18936
G1 X164.408 Y156.222 E19.21187
G1 X164.21 Y156.755 E19.23267
G1 X163.093 Y158.126 E19.29737
G1 X161.306 Y159.604 E19.38221
G1 X160.278 Y160.106 E19.42407
G1 X160.021 Y160.872 E19.45363
G1 X159.511 Y161.965 E19.49776
G1 X158.374 Y163.291 E19.56166
G1 X156.537 Y164.624 E19.6447
G1 X155.414 Y165.081 E19.68906
G1 X154.153 Y165.433 E19.73696
G1 X152.839 Y165.433 E19.78503
G1 X150.533 Y167.234 E19.89208
G1 X148.967 Y167.929 E19.95476
G1 X147.65 Y168.163 E20.0037
G1 X145.803 Y168.163 E20.07128
G1 X144.273 Y167.804 E20.12877
G1 X142.702 Y167.028 E20.19288
G1 X141.649 Y166.024 E20.24611
G1 X141.506 Y165.839 E20.25467
G1 X140.18 Y165.92 E20.30327
G1 X138.204 Y165.831 E20.37564
G1 X136.68 Y165.38 E20.43378
G1 X135.124 Y164.475 E20.49964
G1 X134.087 Y163.319 E20.55646
G1 X133.397 Y162.174 E20.60537
G1 X132.882 Y160.701 E20.66246
G1 X132.772 Y158.85 E20.7303
G1 X133.062 Y157.325 E20.78709
G1 X133.288 Y156.61 E20.81453
G1 X134.064 Y155.354 E20.86854
G1 X134.727 Y154.608 E20.90506
G1 X134.325 Y153.368 E20.95275
G1 X134.236 Y152.11 E20.99889
G1 X134.293 Y150.882 E21.04386
G1 X135.339 Y147.715 E21.16589
G1 X135.829 Y146.665 E21.20828
G1 X136.282 Y146.135 E21.23379
G1 X136.099 Y146.003 E21.24205
G1 X135.095 Y144.874 E21.29732
G1 X134.241 Y143.423 E21.35892
G1 X133.869 Y141.779 E21.42059
G1 X133.808 Y140.212 E21.47796
G1 X134.121 Y138.675 E21.53535
G1 X134.363 Y137.947 E21.56342
G1 X135.144 Y136.716 E21.61675
G1 X136.062 Y135.712 E21.66653
G0 F6000 X136.349 Y136.05
G1 F1200 X137.745 Y135.141 E21.72747
G1 X139.354 Y134.654 E21.78898
G1 X140.1 Y134.654 E21.81627
G1 X141.18 Y134.522 E21.85608
G1 X142.454 Y134.677 E21.90303
G1 X143.713 Y134.92 E21.94995
G1 X144.824 Y135.232 E21.99217
G1 X145.194 Y134.913 E22.01004
G1 X146.663 Y134.139 E22.07079
G1 X148.048 Y133.889 E22.12228
G1 X149.696 Y133.889 E22.18257
G1 X151.234 Y134.154 E22.23967
G1 X153.073 Y135.198 E22.31704
G1 X155.066 Y137.351 E22.42438
G1 X156.202 Y138.039 E22.47297
G1 X156.618 Y138.508 E22.4959
G1 X156.936 Y138.614 E22.50817
G1 X158.564 Y139.543 E22.57674
G1 X159.14 Y140.163 E22.60771
G1 X161.783 Y141.644 E22.71855
G1 X162.698 Y142.562 E22.76597
G1 X163.443 Y143.503 E22.80988
G1 X163.839 Y144.427 E22.84666
G1 X164.368 Y144.979 E22.87463
G1 X165.195 Y146.417 E22.93532
G1 X165.477 Y147.648 E22.98153
G1 X165.491 Y147.744 E22.98508
G1 X165.637 Y147.988 E22.99548
G1 X166 Y148.875 E23.03054
G1 X166.313 Y149.987 E23.07281
G1 X166.313 Y151.795 E23.13896
G1 X165.599 Y153.975 E23.22288
G1 X164.567 Y155.542 E23.29153
G1 X164.038 Y155.953 E23.31604
G1 X163.822 Y156.535 E23.33875
G1 X162.778 Y157.816 E23.39921
G1 X161.066 Y159.232 E23.4805
G1 X159.918 Y159.793 E23.52724
G1 X159.622 Y160.686 E23.56166
G1 X159.137 Y161.726 E23.60365
G1 X158.074 Y162.966 E23.6634
G1 X156.325 Y164.235 E23.74246
G1 X155.248 Y164.673 E23.785
G1 X154.093 Y164.993 E23.82885
G1 X152.687 Y164.993 E23.88029
G1 X150.303 Y166.855 E23.99096
G1 X148.838 Y167.505 E24.0496
G1 X147.612 Y167.723 E24.09515
G1 X145.853 Y167.723 E24.15951
G1 X144.426 Y167.388 E24.21314
G1 X142.956 Y166.662 E24.27312
G1 X141.953 Y165.706 E24.32381
G1 X141.72 Y165.385 E24.33833
G1 X140.2 Y165.48 E24.39405
G1 X138.276 Y165.393 E24.46451
G1 X136.853 Y164.972 E24.5188
G1 X135.407 Y164.131 E24.58
G1 X134.441 Y163.054 E24.63293
G1 X133.796 Y161.984 E24.67864
G1 X133.317 Y160.614 E24.73174
G1 X133.214 Y158.878 E24.79537
G1 X133.482 Y157.457 E24.84827
G1 X133.692 Y156.792 E24.87379
G1 X134.417 Y155.619 E24.92424
G1 X135.223 Y154.712 E24.96863
G1 X134.76 Y153.286 E25.02348
G1 X134.676 Y152.13 E25.06589
G1 X134.73 Y150.962 E25.10867
G1 X135.738 Y147.901 E25.22657
G1 X136.203 Y146.904 E25.26682
G1 X136.958 Y146.021 E25.30933
G1 X136.428 Y145.711 E25.33179
G1 X135.452 Y144.613 E25.38554
G1 X134.655 Y143.259 E25.44302
G1 X134.308 Y141.724 E25.5006
G1 X134.25 Y140.245 E25.55475
G1 X134.539 Y138.814 E25.60816
G1 X134.765 Y138.134 E25.63438
G1 X135.493 Y136.987 E25.68408
G1 X136.349 Y136.05 E25.73051
G0 F6000 X136.636 Y136.388
G1 F1200 X137.933 Y135.544 E25.78713
G1 X139.419 Y135.094 E25.84393
G1 X140.139 Y135.094 E25.87028
G1 X140.233 Y135.077 E25.87377
G1 X141.18 Y134.965 E25.90866
G1 X142.401 Y135.114 E25.95366
G1 X143.594 Y135.344 E25.99811
G1 X144.933 Y135.72 E26.049
G1 X145.445 Y135.278 E26.07374
G1 X146.807 Y134.56 E26.13007
G1 X148.087 Y134.329 E26.17766
G1 X149.656 Y134.329 E26.23506
G1 X151.084 Y134.575 E26.28808
G1 X152.796 Y135.547 E26.36011
G1 X154.786 Y137.697 E26.46729
G1 X155.919 Y138.382 E26.51573
G1 X156.373 Y138.894 E26.54076
G1 X156.718 Y138.996 E26.55393
G1 X158.287 Y139.891 E26.62001
G1 X158.865 Y140.513 E26.65108
G1 X161.513 Y141.997 E26.76213
G1 X162.386 Y142.873 E26.80738
G1 X163.063 Y143.732 E26.8474
G1 X163.467 Y144.675 E26.88493
G1 X164.013 Y145.245 E26.91381
G1 X164.781 Y146.579 E26.97012
G1 X165.048 Y147.746 E27.01392
G1 X165.066 Y147.893 E27.01934
G1 X165.23 Y148.156 E27.03068
G1 X165.576 Y148.994 E27.06385
G1 X165.873 Y150.049 E27.10395
G1 X165.873 Y151.725 E27.16527
G1 X165.199 Y153.783 E27.2445
