;FLAVOR:Marlin
;TIME:3101
;Filament used: 2.51429m
;Layer height: 0.2
;MINX:56.506
;MINY:127.595
;MINZ:0.2
;MAXX:196.972
;MAXY:174.264
;MAXZ:2.2
;Generated with Cura_SteamEngine 5.3.1
M140 S60
M105
M190 S60
M104 S200
M105
M109 S200
M82 ;absolute extrusion mode
G28 ; home all axes
M420 S1
M117 Purge extruder
G92 E0 ; reset extruder
G1 Z1.0 F3000 ; move z up little to prevent scratching of surface
G1 X2 Y20 Z0.3 F5000.0 ; move to start-line position
G1 X2 Y200.0 Z0.3 F1500.0 E15 ; draw 1st line
G1 X2 Y200.0 Z0.4 F5000.0 ; move to side a little
G1 X2 Y20 Z0.4 F1500.0 E30 ; draw 2nd line
G92 E0 ; reset extruder
G1 Z1.0 F3000 ; move z up little to prevent scratching of surface
G92 E0
G92 E0
G1 F1500 E-2
;LAYER_COUNT:10
;LAYER:0
M107
G1 F300 Z0.4
G0 F6000 X61.486 Y128.42 Z0.4
;TYPE:SKIRT
G1 F300 Z0.2
G1 F1500 E0
G1 F1200 X63.574 Y127.735 E0.0804
G1 X90.387 Y127.735 E1.06138
G1 X90.507 Y127.71 E1.06587
G1 X91.35 Y127.619 E1.09689
G1 X112.692 Y127.595 E1.87771
G1 X113.285 Y127.735 E1.9
G1 X189.71 Y127.735 E4.6961
G1 X191.228 Y128.089 E4.75313
G1 X192.475 Y128.525 E4.80146
G1 X194.038 Y129.596 E4.87078
G1 X195.231 Y130.77 E4.93202
G1 X196.287 Y132.529 E5.00708
G1 X196.972 Y134.617 E5.08747
G1 X196.972 Y150.732 E5.67706
G1 X196.782 Y151.539 E5.70739
G1 X196.786 Y166.98 E6.27232
G1 X196.327 Y168.917 E6.34515
G1 X195.291 Y170.988 E6.42987
G1 X193.45 Y172.777 E6.52379
G1 X191.356 Y173.887 E6.6105
G1 X189.393 Y174.264 E6.68363
G1 X63.768 Y174.264 E11.27977
G1 X62.25 Y173.91 E11.33679
G1 X61.003 Y173.474 E11.38512
G1 X59.44 Y172.403 E11.45445
G1 X58.247 Y171.229 E11.51568
G1 X57.191 Y169.47 E11.59074
G1 X56.506 Y167.382 E11.67114
G1 X56.506 Y151.272 E12.26054
G1 X56.698 Y150.433 E12.29203
G1 X56.692 Y134.997 E12.85678
G1 X57.046 Y133.479 E12.91381
G1 X57.482 Y132.232 E12.96214
G1 X58.553 Y130.669 E13.03146
G1 X59.727 Y129.476 E13.09269
G1 X61.486 Y128.42 E13.16776
G0 F6000 X61.671 Y128.822
G1 F1200 X63.644 Y128.175 E13.24372
G1 X90.434 Y128.175 E14.22387
G1 X90.597 Y128.141 E14.22996
G1 X91.35 Y128.059 E14.25767
G1 X112.642 Y128.035 E15.03666
G1 X113.235 Y128.175 E15.05895
G1 X189.657 Y128.175 E17.85494
G1 X191.128 Y128.518 E17.9102
G1 X192.274 Y128.921 E17.95465
G1 X193.759 Y129.938 E18.0205
G1 X194.882 Y131.044 E18.07816
G1 X195.885 Y132.714 E18.14944
G1 X196.532 Y134.687 E18.2254
G1 X196.532 Y150.682 E18.8106
G1 X196.338 Y151.504 E18.8415
G1 X196.344 Y151.59 E18.84465
G1 X196.346 Y166.93 E19.40588
G1 X195.912 Y168.763 E19.4748
G1 X194.931 Y170.724 E19.55502
G1 X193.187 Y172.418 E19.64397
G1 X191.207 Y173.468 E19.72597
G1 X189.352 Y173.824 E19.79508
G1 X63.821 Y173.824 E24.38777
G1 X62.35 Y173.481 E24.44303
G1 X61.204 Y173.078 E24.48748
G1 X59.719 Y172.061 E24.55333
G1 X58.596 Y170.955 E24.611
G1 X57.593 Y169.285 E24.68227
G1 X56.946 Y167.312 E24.75823
G1 X56.946 Y151.322 E25.34325
G1 X57.138 Y150.483 E25.37474
G1 X57.132 Y135.05 E25.93937
G1 X57.475 Y133.579 E25.99463
G1 X57.878 Y132.433 E26.03908
G1 X58.895 Y130.948 E26.10493
G1 X60.001 Y129.825 E26.16259
G1 X61.671 Y128.822 E26.23386
G0 F6000 X61.854 Y129.225
G1 F1200 X63.714 Y128.615 E26.30548
G1 X90.481 Y128.615 E27.28478
G1 X90.687 Y128.572 E27.29248
G1 X91.35 Y128.499 E27.31688
G1 X112.592 Y128.475 E28.09405
G1 X113.185 Y128.615 E28.11634
G1 X189.604 Y128.615 E30.91222
G1 X191.028 Y128.947 E30.96571
G1 X192.073 Y129.317 E31.00627
G1 X193.476 Y130.278 E31.06849
G1 X194.536 Y131.321 E31.1229
G1 X195.482 Y132.897 E31.19015
G1 X196.092 Y134.757 E31.26176
G1 X196.092 Y150.632 E31.84257
G1 X195.894 Y151.47 E31.87407
G1 X195.904 Y151.59 E31.87848
G1 X195.906 Y166.88 E32.43788
G1 X195.497 Y168.609 E32.50288
G1 X194.57 Y170.462 E32.57869
G1 X192.926 Y172.058 E32.66251
G1 X191.058 Y173.049 E32.73988
G1 X189.311 Y173.384 E32.80496
G1 X63.874 Y173.384 E37.39422
G1 X62.45 Y173.052 E37.44771
G1 X61.405 Y172.682 E37.48827
G1 X60.002 Y171.721 E37.55049
G1 X58.942 Y170.678 E37.6049
G1 X57.996 Y169.102 E37.67215
G1 X57.386 Y167.242 E37.74376
G1 X57.386 Y151.372 E38.32438
G1 X57.582 Y150.516 E38.35651
G1 X57.574 Y150.408 E38.36047
G1 X57.572 Y135.103 E38.92042
G1 X57.904 Y133.679 E38.97392
G1 X58.274 Y132.634 E39.01448
G1 X59.235 Y131.231 E39.0767
G1 X60.278 Y130.171 E39.1311
G1 X61.854 Y129.225 E39.19835
G0 F6000 X62.037 Y129.628
G1 F1200 X63.784 Y129.055 E39.26562
G1 X90.528 Y129.055 E40.24408
G1 X90.777 Y129.003 E40.25339
G1 X91.35 Y128.939 E40.27448
G1 X112.542 Y128.915 E41.04981
G1 X113.135 Y129.055 E41.07211
G1 X189.551 Y129.055 E43.86787
G1 X190.928 Y129.376 E43.9196
G1 X191.87 Y129.712 E43.95619
G1 X193.193 Y130.618 E44.01486
G1 X194.19 Y131.599 E44.06603
G1 X195.079 Y133.08 E44.12923
G1 X195.652 Y134.827 E44.1965
G1 X195.652 Y150.582 E44.77291
G1 X195.449 Y151.443 E44.80527
G1 X195.464 Y151.59 E44.81068
G1 X195.466 Y166.83 E45.36825
G1 X195.082 Y168.455 E45.42934
G1 X194.209 Y170.2 E45.50073
G1 X192.665 Y171.698 E45.57944
G1 X190.909 Y172.63 E45.65217
G1 X189.27 Y172.944 E45.71323
G1 X63.927 Y172.944 E50.29904
G1 X62.55 Y172.623 E50.35077
G1 X61.608 Y172.287 E50.38736
G1 X60.285 Y171.381 E50.44603
G1 X59.288 Y170.4 E50.4972
G1 X58.399 Y168.919 E50.5604
G1 X57.826 Y167.172 E50.62766
G1 X57.826 Y151.422 E51.2039
G1 X58.028 Y150.542 E51.23693
G1 X58.014 Y150.408 E51.24186
G1 X58.012 Y135.156 E51.79987
G1 X58.333 Y133.779 E51.8516
G1 X58.669 Y132.837 E51.88819
G1 X59.575 Y131.514 E51.94686
G1 X60.556 Y130.517 E51.99803
G1 X62.037 Y129.628 E52.06123
G0 F6000 X62.22 Y130.031
G1 F1200 X63.854 Y129.495 E52.12414
G1 X90.575 Y129.495 E53.10176
G1 X90.867 Y129.434 E53.11267
G1 X91.35 Y129.379 E53.13046
G1 X112.492 Y129.355 E53.90397
G1 X113.085 Y129.495 E53.92626
G1 X189.498 Y129.495 E56.72191
G1 X190.828 Y129.805 E56.77188
G1 X191.668 Y130.107 E56.80454
G1 X192.91 Y130.958 E56.85962
G1 X193.844 Y131.877 E56.90756
G1 X194.676 Y133.263 E56.9667
G1 X195.212 Y134.897 E57.02962
G1 X195.212 Y150.532 E57.60164
G1 X195.003 Y151.416 E57.63488
G1 X195.026 Y151.636 E57.64297
G1 X195.026 Y166.78 E58.19703
G1 X194.666 Y168.305 E58.25436
G1 X193.85 Y169.936 E58.32108
G1 X192.404 Y171.338 E58.39477
G1 X190.76 Y172.211 E58.46287
G1 X189.229 Y172.504 E58.5199
G1 X63.98 Y172.504 E63.10228
G1 X62.65 Y172.194 E63.15224
G1 X61.81 Y171.892 E63.1849
G1 X60.568 Y171.041 E63.23998
G1 X59.634 Y170.122 E63.28792
G1 X58.802 Y168.736 E63.34707
G1 X58.266 Y167.102 E63.40998
G1 X58.266 Y151.472 E63.98182
G1 X58.473 Y150.569 E64.01572
G1 X58.452 Y150.363 E64.02329
G1 X58.452 Y135.209 E64.57772
G1 X58.762 Y133.879 E64.62768
G1 X59.064 Y133.039 E64.66034
G1 X59.915 Y131.797 E64.71543
G1 X60.834 Y130.863 E64.76337
G1 X62.22 Y130.031 E64.82251
G0 F6000 X62.405 Y130.433
G1 F1200 X63.924 Y129.935 E64.88099
G1 X90.62 Y129.935 E65.8577
G1 X90.92 Y129.871 E65.86892
G1 X91.351 Y129.819 E65.8848
G1 X112.442 Y129.795 E66.65644
G1 X113.035 Y129.935 E66.67873
G1 X189.445 Y129.935 E69.47428
G1 X190.728 Y130.234 E69.52248
G1 X191.466 Y130.502 E69.55121
G1 X192.631 Y131.3 E69.60287
G1 X193.495 Y132.151 E69.64724
G1 X194.274 Y133.448 E69.70259
G1 X194.772 Y134.967 E69.76108
G1 X194.772 Y150.482 E70.32871
G1 X194.557 Y151.392 E70.36292
G1 X194.586 Y151.636 E70.37191
G1 X194.586 Y166.73 E70.92414
G1 X194.25 Y168.155 E70.97771
G1 X193.491 Y169.672 E71.03977
G1 X192.143 Y170.978 E71.10843
G1 X190.611 Y171.792 E71.17191
G1 X189.188 Y172.064 E71.22491
G1 X64.033 Y172.064 E75.80385
G1 X62.75 Y171.765 E75.85205
G1 X62.012 Y171.497 E75.88077
G1 X60.847 Y170.699 E75.93244
G1 X59.983 Y169.848 E75.9768
G1 X59.204 Y168.551 E76.03216
G1 X58.706 Y167.032 E76.09064
G1 X58.706 Y151.522 E76.65809
G1 X58.919 Y150.593 E76.69296
G1 X58.892 Y150.363 E76.70144
G1 X58.892 Y135.262 E77.25392
G1 X59.191 Y133.979 E77.30212
G1 X59.459 Y133.241 E77.33085
G1 X60.257 Y132.076 E77.38251
G1 X61.108 Y131.212 E77.42688
G1 X62.405 Y130.433 E77.48223
G0 F6000 X62.588 Y130.836
G1 F1200 X63.994 Y130.375 E77.53637
G1 X90.67 Y130.375 E78.51234
G1 X90.973 Y130.308 E78.52369
G1 X91.404 Y130.256 E78.53958
G1 X112.392 Y130.235 E79.30745
G1 X112.985 Y130.375 E79.32974
G1 X189.393 Y130.375 E82.12521
G1 X190.578 Y130.648 E82.1697
G1 X191.264 Y130.897 E82.1964
G1 X192.348 Y131.64 E82.24449
G1 X193.149 Y132.428 E82.2856
G1 X193.871 Y133.631 E82.33693
G1 X194.332 Y135.037 E82.39106
G1 X194.332 Y150.432 E82.95431
G1 X194.11 Y151.371 E82.98961
G1 X194.146 Y151.636 E82.99939
G1 X194.146 Y166.68 E83.54979
G1 X193.834 Y168.005 E83.5996
G1 X193.132 Y169.408 E83.65699
G1 X191.881 Y170.619 E83.72069
G1 X190.463 Y171.373 E83.77945
G1 X189.148 Y171.624 E83.82843
G1 X64.085 Y171.624 E88.404
G1 X62.9 Y171.351 E88.44849
G1 X62.214 Y171.102 E88.47519
G1 X61.13 Y170.359 E88.52328
G1 X60.329 Y169.571 E88.56439
G1 X59.607 Y168.368 E88.61572
G1 X59.146 Y166.962 E88.66985
G1 X59.146 Y151.572 E89.23291
G1 X59.365 Y150.615 E89.26883
G1 X59.332 Y150.363 E89.27813
G1 X59.332 Y135.314 E89.82871
G1 X59.605 Y134.129 E89.8732
G1 X59.854 Y133.443 E89.8999
G1 X60.597 Y132.359 E89.94799
G1 X61.385 Y131.558 E89.98909
G1 X62.588 Y130.836 E90.04043
G0 F6000 X62.771 Y131.239
G1 F1200 X64.064 Y130.815 E90.09021
G1 X90.72 Y130.815 E91.06545
G1 X91.026 Y130.745 E91.07694
G1 X91.457 Y130.693 E91.09282
G1 X112.342 Y130.675 E91.85692
G1 X112.935 Y130.815 E91.87921
G1 X189.342 Y130.815 E94.67465
G1 X190.479 Y131.077 E94.71734
G1 X191.061 Y131.291 E94.74003
G1 X192.065 Y131.98 E94.78458
G1 X192.803 Y132.706 E94.82245
G1 X193.468 Y133.814 E94.86973
G1 X193.892 Y135.107 E94.91951
G1 X193.892 Y150.382 E95.47837
G1 X193.662 Y151.355 E95.51495
G1 X193.706 Y151.636 E95.52535
G1 X193.706 Y166.63 E96.07393
G1 X193.418 Y167.855 E96.11997
G1 X192.773 Y169.144 E96.1727
G1 X191.619 Y170.26 E96.23143
G1 X190.316 Y170.953 E96.28543
G1 X189.107 Y171.184 E96.33046
G1 X64.136 Y171.184 E100.90267
G1 X62.999 Y170.922 E100.94536
G1 X62.417 Y170.708 E100.96804
G1 X61.413 Y170.019 E101.01259
G1 X60.675 Y169.293 E101.05047
G1 X60.01 Y168.185 E101.09775
G1 X59.586 Y166.892 E101.14753
G1 X59.586 Y151.622 E101.7062
G1 X59.812 Y150.634 E101.74328
G1 X59.772 Y150.363 E101.75331
G1 X59.772 Y135.365 E102.30202
G1 X60.034 Y134.228 E102.34471
G1 X60.248 Y133.646 E102.3674
G1 X60.937 Y132.642 E102.41195
G1 X61.663 Y131.904 E102.44983
G1 X62.771 Y131.239 E102.4971
G0 F6000 X62.954 Y131.642
G1 F1200 X64.134 Y131.255 E102.54254
G1 X90.77 Y131.255 E103.51705
G1 X91.079 Y131.182 E103.52866
G1 X91.51 Y131.13 E103.54455
G1 X112.292 Y131.115 E104.30488
G1 X112.885 Y131.255 E104.32717
G1 X189.291 Y131.255 E107.12257
G1 X190.38 Y131.506 E107.16346
G1 X190.856 Y131.684 E107.18205
G1 X191.782 Y132.32 E107.22315
G1 X192.457 Y132.984 E107.25779
G1 X193.065 Y133.997 E107.30102
G1 X193.452 Y135.177 E107.34645
G1 X193.452 Y150.332 E107.90092
G1 X193.212 Y151.345 E107.939
G1 X193.266 Y151.636 E107.94983
G1 X193.266 Y166.58 E108.49658
G1 X193.002 Y167.701 E108.53871
G1 X192.412 Y168.881 E108.58698
G1 X191.357 Y169.901 E108.64067
G1 X190.168 Y170.534 E108.68995
G1 X189.067 Y170.744 E108.73096
G1 X64.187 Y170.744 E113.29983
G1 X63.098 Y170.493 E113.34072
G1 X62.622 Y170.315 E113.35931
G1 X61.696 Y169.679 E113.40041
G1 X61.021 Y169.015 E113.43505
G1 X60.413 Y168.002 E113.47828
G1 X60.026 Y166.822 E113.52371
G1 X60.026 Y151.672 E114.07799
G1 X60.261 Y150.645 E114.11654
G1 X60.212 Y150.363 E114.12701
G1 X60.212 Y135.416 E114.67386
G1 X60.463 Y134.327 E114.71475
G1 X60.641 Y133.851 E114.73334
G1 X61.277 Y132.925 E114.77444
G1 X61.941 Y132.25 E114.80909
G1 X62.954 Y131.642 E114.85231
G0 F6000 X63.137 Y132.045
G1 F1200 X64.204 Y131.695 E114.89339
G1 X90.821 Y131.695 E115.86721
G1 X91.132 Y131.619 E115.87892
G1 X91.563 Y131.567 E115.8948
G1 X112.242 Y131.555 E116.65137
G1 X112.835 Y131.695 E116.67366
G1 X189.24 Y131.695 E119.46903
G1 X190.281 Y131.935 E119.50811
G1 X190.652 Y132.078 E119.52266
G1 X191.499 Y132.66 E119.56026
G1 X192.111 Y133.262 E119.59166
G1 X192.662 Y134.18 E119.63084
G1 X193.012 Y135.247 E119.67192
G1 X193.012 Y150.282 E120.22199
G1 X192.806 Y151.152 E120.2547
G1 X192.752 Y151.299 E120.26043
G1 X192.826 Y151.636 E120.27306
G1 X192.826 Y166.53 E120.81797
G1 X192.586 Y167.551 E120.85634
G1 X192.053 Y168.616 E120.89991
G1 X191.095 Y169.542 E120.94866
G1 X190.021 Y170.114 E120.99318
G1 X189.026 Y170.304 E121.03024
G1 X64.238 Y170.304 E125.59575
G1 X63.197 Y170.064 E125.63484
G1 X62.826 Y169.921 E125.64938
G1 X61.979 Y169.339 E125.68698
G1 X61.367 Y168.737 E125.71839
G1 X60.816 Y167.819 E125.75756
G1 X60.466 Y166.752 E125.79865
G1 X60.466 Y151.722 E126.34854
G1 X60.712 Y150.649 E126.38881
G1 X60.652 Y150.363 E126.3995
G1 X60.652 Y135.467 E126.94449
G1 X60.892 Y134.426 E126.98358
G1 X61.035 Y134.055 E126.99812
G1 X61.617 Y133.208 E127.03572
G1 X62.219 Y132.596 E127.06713
G1 X63.137 Y132.045 E127.1063
G0 F6000 X63.32 Y132.448
G1 F1200 X64.274 Y132.135 E127.14303
G1 X90.875 Y132.135 E128.11626
G1 X91.185 Y132.056 E128.12797
G1 X91.616 Y132.004 E128.14385
G1 X112.192 Y131.995 E128.89665
G1 X112.785 Y132.135 E128.91894
G1 X189.189 Y132.135 E131.71427
G1 X190.182 Y132.364 E131.75155
G1 X190.443 Y132.469 E131.76184
G1 X191.216 Y133 E131.79615
G1 X191.765 Y133.54 E131.82433
G1 X192.259 Y134.363 E131.85945
G1 X192.572 Y135.317 E131.89618
G1 X192.572 Y150.232 E132.44186
G1 X192.378 Y151.051 E132.47266
G1 X192.289 Y151.269 E132.48127
G1 X192.386 Y151.636 E132.49516
G1 X192.386 Y166.48 E133.03824
G1 X192.17 Y167.397 E133.07271
G1 X191.692 Y168.353 E133.11182
G1 X190.833 Y169.183 E133.15552
G1 X189.873 Y169.695 E133.19532
G1 X188.986 Y169.864 E133.22836
G1 X64.289 Y169.864 E137.79054
G1 X63.296 Y169.635 E137.82783
G1 X63.035 Y169.53 E137.83812
G1 X62.262 Y168.999 E137.87243
G1 X61.713 Y168.459 E137.9006
G1 X61.219 Y167.636 E137.93572
G1 X60.906 Y166.682 E137.97245
G1 X60.906 Y151.772 E138.51795
G1 X61.116 Y150.856 E138.55234
G1 X61.179 Y150.698 E138.55856
G1 X61.092 Y150.363 E138.57122
G1 X61.092 Y135.518 E139.11434
G1 X61.321 Y134.525 E139.15163
G1 X61.426 Y134.264 E139.16192
G1 X61.957 Y133.491 E139.19623
G1 X62.497 Y132.942 E139.2244
G1 X63.32 Y132.448 E139.25952
G0 F6000 X63.503 Y132.851
G1 F1200 X64.344 Y132.575 E139.29191
G1 X90.933 Y132.575 E140.2647
G1 X91.238 Y132.493 E140.27625
G1 X91.669 Y132.441 E140.29213
G1 X112.142 Y132.435 E141.04116
G1 X112.735 Y132.575 E141.06345
G1 X189.138 Y132.575 E143.85875
G1 X190.083 Y132.793 E143.89423
G1 X190.233 Y132.859 E143.90022
G1 X190.933 Y133.34 E143.9313
G1 X191.419 Y133.818 E143.95624
G1 X191.856 Y134.546 E143.9873
G1 X192.132 Y135.387 E144.01968
G1 X192.132 Y150.182 E144.56098
G1 X191.95 Y150.95 E144.58985
G1 X191.817 Y151.243 E144.60163
G1 X191.946 Y151.636 E144.61676
G1 X191.946 Y166.43 E145.15801
G1 X191.754 Y167.247 E145.18872
G1 X191.333 Y168.088 E145.22313
G1 X190.571 Y168.824 E145.26189
G1 X189.725 Y169.275 E145.29696
G1 X188.945 Y169.424 E145.32602
G1 X64.34 Y169.424 E149.88483
G1 X63.395 Y169.206 E149.92032
G1 X63.245 Y169.14 E149.92631
G1 X62.545 Y168.659 E149.95739
G1 X62.059 Y168.181 E149.98232
G1 X61.622 Y167.453 E150.01339
G1 X61.346 Y166.612 E150.04577
G1 X61.346 Y151.822 E150.58688
G1 X61.545 Y150.954 E150.61946
G1 X61.651 Y150.726 E150.62866
G1 X61.532 Y150.363 E150.64264
G1 X61.532 Y135.569 E151.18389
G1 X61.75 Y134.624 E151.21938
G1 X61.816 Y134.474 E151.22537
G1 X62.297 Y133.774 E151.25645
G1 X62.775 Y133.288 E151.28139
G1 X63.503 Y132.851 E151.31245
G0 F6000 X63.686 Y133.254
G1 F1200 X64.414 Y133.015 E151.34048
G1 X90.995 Y133.015 E152.31298
G1 X91.291 Y132.93 E152.32425
G1 X91.722 Y132.878 E152.34013
G1 X112.09 Y132.875 E153.08532
G1 X112.586 Y132.989 E153.10394
G1 X112.67 Y133.015 E153.10715
G1 X189.087 Y133.015 E155.90296
G1 X189.984 Y133.222 E155.93664
G1 X190.65 Y133.68 E155.96621
G1 X191.073 Y134.096 E155.98792
G1 X191.453 Y134.729 E156.01493
G1 X191.692 Y135.457 E156.04296
G1 X191.692 Y150.131 E156.57983
G1 X191.522 Y150.848 E156.60678
G1 X191.343 Y151.208 E156.62149
G1 X191.506 Y151.706 E156.64067
G1 X191.506 Y166.38 E157.17753
G1 X191.338 Y167.093 E157.20433
G1 X190.973 Y167.823 E157.23419
G1 X190.307 Y168.466 E157.26806
G1 X189.577 Y168.856 E157.29834
G1 X188.905 Y168.984 E157.32337
G1 X64.391 Y168.984 E161.87886
G1 X63.494 Y168.777 E161.91254
G1 X62.828 Y168.319 E161.94211
