;FLAVOR:Marlin
;TIME:2004
;Filament used: 1.43814m
;Layer height: 0.2
;MINX:130.81
;MINY:131.33
;MINZ:0.2
;MAXX:168.97
;MAXY:168.671
;MAXZ:23
;Generated with Cura_SteamEngine 5.3.1
M140 S60
M105
M190 S60
M104 S200
M105
M109 S200
M82 ;absolute extrusion mode
G28 ; home all axes
M420 S1
 M117 Purge extruder
 G92 E0 ; reset extruder
 G1 Z1.0 F3000 ; move z up little to prevent scratching of surface
 G1 X2 Y20 Z0.3 F5000.0 ; move to start-line position
 G1 X2 Y200.0 Z0.3 F1500.0 E15 ; draw 1st line
 G1 X2 Y200.0 Z0.4 F5000.0 ; move to side a little
 G1 X2 Y20 Z0.4 F1500.0 E30 ; draw 2nd line
 G92 E0 ; reset extruder
 G1 Z1.0 F3000 ; move z up little to prevent scratching of surface
G92 E0
G92 E0
G1 F1500 E-2
;LAYER_COUNT:114
;LAYER:0
M107
G1 F300 Z0.4
G0 F6000 X133.948 Y134.29 Z0.4
;TYPE:SKIRT
G1 F300 Z0.2
G1 F1500 E0
G1 F1200 X135.176 Y133.061 E0.06356
G1 X137.283 Y131.807 E0.15327
G1 X139.58 Y131.33 E0.2391
G1 X142.506 Y131.44 E0.34623
G1 X145.647 Y131.806 E0.46192
G1 X148.194 Y132.305 E0.55688
G1 X150.132 Y132.833 E0.63037
G1 X153.079 Y133.878 E0.74476
G1 X154.948 Y134.703 E0.81951
G1 X157.516 Y136.08 E0.92612
G1 X159.588 Y137.401 E1.01602
G1 X161.889 Y139.129 E1.1213
G1 X164.038 Y141.001 E1.22557
G1 X165.042 Y142.451 E1.2901
G1 X165.609 Y143.494 E1.33353
G1 X165.694 Y143.773 E1.3442
G1 X166.604 Y144.659 E1.39067
G1 X167.371 Y145.771 E1.44009
G1 X168.672 Y148.683 E1.55678
G1 X168.97 Y150.474 E1.62321
G1 X168.93 Y152.445 E1.69533
G1 X168.011 Y155.547 E1.8137
G1 X167.037 Y157.36 E1.889
G1 X166.268 Y158.143 E1.92915
G1 X165.902 Y158.677 E1.95283
G1 X165.886 Y159.768 E1.99275
G1 X165.152 Y161.81 E2.07214
G1 X164.054 Y163.681 E2.15151
G1 X162.375 Y165.557 E2.24362
G1 X160.303 Y167.062 E2.33731
G1 X158.049 Y168.067 E2.42761
G1 X155.467 Y168.622 E2.52423
G1 X152.999 Y168.626 E2.61452
G1 X150.473 Y168.101 E2.70892
G1 X149.037 Y167.464 E2.76639
G1 X148.322 Y167.672 E2.79363
G1 X146.201 Y168.12 E2.87294
G1 X143.447 Y168.489 E2.9746
G1 X140.913 Y168.671 E3.06755
G1 X139.479 Y168.426 E3.12078
G1 X139.015 Y168.322 E3.13817
G1 X137.925 Y168.107 E3.17882
G1 X136.833 Y167.762 E3.22072
G1 X136.474 Y167.533 E3.2363
G1 X135.906 Y167.403 E3.25762
G1 X133.847 Y165.994 E3.3489
G1 X132.445 Y164.45 E3.4252
G1 X131.743 Y163.039 E3.48286
G1 X131.166 Y161.479 E3.54371
G1 X131.011 Y158.729 E3.64448
G1 X131.265 Y157.334 E3.69636
G1 X131.084 Y156.924 E3.71276
G1 X130.871 Y155.401 E3.76902
G1 X130.81 Y153.811 E3.82724
G1 X131.314 Y151.4 E3.91735
G1 X132.33 Y149.529 E3.99525
G1 X132.888 Y148.726 E4.03102
G1 X134.138 Y147.651 E4.09134
G1 X134.806 Y147.185 E4.12114
G1 X133.678 Y145.927 E4.18296
G1 X132.608 Y144.134 E4.25935
G1 X132.134 Y142.049 E4.33758
G1 X132.075 Y140.746 E4.3853
G1 X132.094 Y140.344 E4.40002
G1 X132.084 Y140.179 E4.40607
G1 X132.074 Y138.653 E4.4619
G1 X132.548 Y136.718 E4.53479
G1 X132.876 Y135.85 E4.56874
G1 X133.948 Y134.29 E4.63799
G0 F6000 X134.289 Y134.571
G1 F1200 X135.448 Y133.411 E4.69798
G1 X137.444 Y132.223 E4.78296
G1 X139.616 Y131.772 E4.86412
G1 X142.489 Y131.88 E4.96931
G1 X145.563 Y132.238 E5.08254
G1 X148.078 Y132.73 E5.17629
G1 X150.016 Y133.258 E5.24978
G1 X152.901 Y134.281 E5.36177
G1 X154.77 Y135.106 E5.43652
G1 X157.279 Y136.451 E5.54067
G1 X159.351 Y137.772 E5.63057
G1 X161.6 Y139.461 E5.73347
G1 X163.708 Y141.297 E5.83575
G1 X164.68 Y142.701 E5.89822
G1 X165.222 Y143.703 E5.9399
G1 X165.297 Y144.001 E5.95115
G1 X166.266 Y144.944 E6.00061
G1 X166.986 Y145.987 E6.04698
G1 X168.247 Y148.811 E6.16014
G1 X168.529 Y150.505 E6.22297
G1 X168.491 Y152.377 E6.29147
G1 X167.602 Y155.378 E6.40598
G1 X166.678 Y157.098 E6.47741
G1 X165.925 Y157.865 E6.51674
G1 X165.575 Y158.383 E6.53961
G1 X165.464 Y158.502 E6.54556
G1 X165.447 Y159.688 E6.58896
G1 X164.751 Y161.624 E6.66423
G1 X163.697 Y163.42 E6.74042
G1 X162.08 Y165.227 E6.82913
G1 X160.081 Y166.679 E6.91953
G1 X157.91 Y167.647 E7.00649
G1 X155.421 Y168.182 E7.09964
G1 X153.045 Y168.186 E7.18656
G1 X150.606 Y167.679 E7.27771
G1 X149.069 Y166.997 E7.33923
G1 X148.231 Y167.241 E7.37116
G1 X146.11 Y167.689 E7.45047
G1 X143.416 Y168.05 E7.54991
G1 X140.935 Y168.228 E7.64092
G1 X139.553 Y167.992 E7.69221
G1 X139.099 Y167.89 E7.70923
G1 X138.058 Y167.687 E7.74804
G1 X137.02 Y167.359 E7.78787
G1 X136.647 Y167.121 E7.80405
G1 X136.086 Y166.993 E7.82511
G1 X134.139 Y165.66 E7.91143
G1 X132.812 Y164.2 E7.98362
G1 X132.156 Y162.886 E8.03735
G1 X131.601 Y161.386 E8.09586
G1 X131.453 Y158.758 E8.19217
G1 X131.722 Y157.279 E8.24716
G1 X131.511 Y156.801 E8.26628
G1 X131.311 Y155.384 E8.31864
G1 X131.252 Y153.848 E8.37487
G1 X131.732 Y151.553 E8.46066
G1 X132.717 Y149.739 E8.53618
G1 X133.217 Y149.024 E8.5681
G1 X134.425 Y147.985 E8.62639
G1 X135.522 Y147.223 E8.67526
G1 X135.288 Y147.063 E8.68563
G1 X134.034 Y145.664 E8.75437
G1 X133.021 Y143.967 E8.82667
G1 X132.572 Y141.992 E8.90078
G1 X132.515 Y140.767 E8.94564
G1 X132.535 Y140.346 E8.96106
G1 X132.524 Y140.176 E8.9673
G1 X132.514 Y138.703 E9.02119
G1 X132.96 Y136.873 E9.0901
G1 X133.269 Y136.055 E9.12209
G1 X134.289 Y134.571 E9.18797
G0 F6000 X134.63 Y134.852
G1 F1200 X135.72 Y133.761 E9.2444
G1 X137.605 Y132.639 E9.32465
G1 X139.652 Y132.214 E9.40114
G1 X142.472 Y132.32 E9.50439
G1 X145.479 Y132.67 E9.61515
G1 X147.962 Y133.155 E9.70771
G1 X149.9 Y133.683 E9.78119
G1 X152.723 Y134.684 E9.89078
G1 X154.592 Y135.509 E9.96552
G1 X157.042 Y136.822 E10.06722
G1 X159.114 Y138.143 E10.15712
G1 X161.311 Y139.793 E10.25765
G1 X163.376 Y141.592 E10.35785
G1 X164.318 Y142.952 E10.41837
G1 X164.809 Y143.863 E10.45624
G1 X164.9 Y144.229 E10.47003
G1 X165.928 Y145.229 E10.5225
G1 X166.6 Y146.203 E10.5658
G1 X167.822 Y148.939 E10.67543
G1 X168.088 Y150.536 E10.73466
G1 X168.052 Y152.309 E10.79954
G1 X167.193 Y155.209 E10.9102
G1 X166.319 Y156.836 E10.97777
G1 X165.583 Y157.586 E11.01621
G1 X165.211 Y158.136 E11.04051
G1 X165.027 Y158.31 E11.04977
G1 X165.008 Y159.608 E11.09727
G1 X164.35 Y161.438 E11.16841
G1 X163.34 Y163.159 E11.24142
G1 X161.785 Y164.897 E11.32674
G1 X159.859 Y166.296 E11.41384
G1 X157.771 Y167.227 E11.49748
G1 X155.375 Y167.742 E11.58714
G1 X153.09 Y167.746 E11.67074
G1 X150.741 Y167.258 E11.75852
G1 X149.101 Y166.53 E11.82416
G1 X148.14 Y166.81 E11.86078
G1 X146.019 Y167.258 E11.9401
G1 X143.385 Y167.611 E12.03733
G1 X140.957 Y167.785 E12.12638
G1 X139.627 Y167.558 E12.17575
G1 X139.182 Y167.458 E12.19243
G1 X138.191 Y167.267 E12.22936
G1 X137.207 Y166.956 E12.26711
G1 X136.82 Y166.709 E12.28391
G1 X136.265 Y166.582 E12.30474
G1 X134.432 Y165.328 E12.386
G1 X133.179 Y163.949 E12.45416
G1 X132.55 Y162.689 E12.50569
G1 X132.036 Y161.294 E12.56008
G1 X131.895 Y158.787 E12.65195
G1 X132.179 Y157.225 E12.71003
G1 X131.939 Y156.68 E12.73182
G1 X131.747 Y155.322 E12.782
G1 X131.694 Y153.885 E12.83461
G1 X132.15 Y151.706 E12.91605
G1 X133.104 Y149.949 E12.9892
G1 X133.545 Y149.323 E13.01722
G1 X134.712 Y148.319 E13.07354
G1 X135.941 Y147.468 E13.12823
G1 X136.448 Y147.253 E13.14838
G1 X135.616 Y146.769 E13.18359
G1 X134.39 Y145.401 E13.2508
G1 X133.434 Y143.8 E13.31902
G1 X133.01 Y141.935 E13.389
G1 X132.955 Y140.747 E13.43251
G1 X132.975 Y140.338 E13.44749
G1 X132.964 Y140.173 E13.45354
G1 X132.954 Y138.756 E13.50539
G1 X133.372 Y137.029 E13.57039
G1 X133.663 Y136.259 E13.60051
G1 X134.63 Y134.852 E13.66297
G0 F6000 X134.971 Y135.133
G1 F1200 X135.992 Y134.111 E13.71583
G1 X137.766 Y133.055 E13.79136
G1 X139.688 Y132.656 E13.86318
G1 X142.455 Y132.76 E13.96448
G1 X145.395 Y133.102 E14.07277
G1 X147.846 Y133.58 E14.16413
G1 X149.784 Y134.108 E14.23762
G1 X152.545 Y135.087 E14.3448
G1 X154.414 Y135.912 E14.41954
G1 X156.805 Y137.193 E14.51878
G1 X158.877 Y138.514 E14.60868
G1 X161.022 Y140.125 E14.70683
G1 X163.044 Y141.887 E14.80495
G1 X163.956 Y143.203 E14.86353
G1 X164.396 Y144.024 E14.89761
G1 X164.503 Y144.457 E14.91393
G1 X165.59 Y145.514 E14.9694
G1 X166.213 Y146.417 E15.00954
G1 X167.398 Y149.069 E15.11581
G1 X167.647 Y150.567 E15.17137
G1 X167.613 Y152.241 E15.23263
G1 X166.784 Y155.04 E15.33943
G1 X165.96 Y156.574 E15.40314
G1 X165.241 Y157.307 E15.4407
G1 X164.847 Y157.889 E15.46642
G1 X164.59 Y158.098 E15.47854
G1 X164.569 Y159.528 E15.53086
G1 X163.949 Y161.252 E15.59789
G1 X162.983 Y162.898 E15.66771
G1 X161.49 Y164.567 E15.74964
G1 X159.637 Y165.913 E15.83343
G1 X157.632 Y166.807 E15.91375
G1 X155.329 Y167.302 E15.99993
G1 X153.136 Y167.306 E16.08017
G1 X150.874 Y166.836 E16.16469
G1 X149.132 Y166.063 E16.23442
G1 X148.049 Y166.379 E16.27569
G1 X145.928 Y166.827 E16.35501
G1 X143.354 Y167.172 E16.45002
G1 X140.979 Y167.342 E16.53713
G1 X139.701 Y167.124 E16.58457
G1 X139.268 Y167.027 E16.6008
G1 X138.324 Y166.847 E16.63596
G1 X137.394 Y166.553 E16.67165
G1 X136.993 Y166.297 E16.68905
G1 X136.445 Y166.172 E16.70962
G1 X134.724 Y164.994 E16.78592
G1 X133.544 Y163.696 E16.8501
G1 X132.963 Y162.537 E16.89753
G1 X132.471 Y161.202 E16.94958
G1 X132.337 Y158.816 E17.03702
G1 X132.581 Y157.473 E17.08696
G1 X132.655 Y157.214 E17.09681
G1 X132.367 Y156.559 E17.12299
G1 X132.183 Y155.26 E17.17099
G1 X132.136 Y153.923 E17.21993
G1 X132.568 Y151.858 E17.29712
G1 X133.464 Y150.202 E17.36601
G1 X133.874 Y149.62 E17.39205
G1 X134.962 Y148.681 E17.44463
G1 X136.154 Y147.856 E17.49767
G1 X137.427 Y147.314 E17.54829
G1 X135.9 Y146.425 E17.61294
G1 X134.746 Y145.138 E17.67618
G1 X133.847 Y143.633 E17.74032
G1 X133.448 Y141.878 E17.80616
G1 X133.395 Y140.727 E17.84832
G1 X133.416 Y140.328 E17.86294
G1 X133.404 Y140.17 E17.86874
G1 X133.394 Y138.808 E17.91857
G1 X133.784 Y137.184 E17.97967
G1 X134.056 Y136.464 E18.00783
G1 X134.971 Y135.133 E18.06692
G0 F6000 X135.312 Y135.414
G1 F1200 X136.264 Y134.461 E18.11621
G1 X137.927 Y133.471 E18.18701
G1 X139.724 Y133.098 E18.25416
G1 X142.438 Y133.2 E18.35353
G1 X145.311 Y133.534 E18.45935
G1 X147.73 Y134.005 E18.54951
G1 X149.668 Y134.533 E18.623
G1 X152.367 Y135.49 E18.72777
G1 X154.236 Y136.315 E18.80251
G1 X156.568 Y137.564 E18.8993
G1 X158.64 Y138.885 E18.9892
G1 X160.733 Y140.457 E19.08497
G1 X162.715 Y142.184 E19.18115
G1 X163.568 Y143.411 E19.23582
G1 X163.982 Y144.184 E19.2679
G1 X164.113 Y144.714 E19.28788
G1 X164.232 Y144.803 E19.29331
G1 X165.252 Y145.799 E19.34547
G1 X165.826 Y146.631 E19.38245
G1 X166.974 Y149.199 E19.48537
G1 X167.206 Y150.598 E19.53725
G1 X167.174 Y152.173 E19.59489
G1 X166.375 Y154.871 E19.69783
G1 X165.601 Y156.312 E19.75768
G1 X164.899 Y157.028 E19.79436
G1 X164.52 Y157.588 E19.8191
G1 X164.153 Y157.886 E19.8364
G1 X164.13 Y159.448 E19.89355
G1 X163.548 Y161.066 E19.95646
G1 X162.626 Y162.637 E20.02311
G1 X161.195 Y164.237 E20.10164
G1 X159.415 Y165.53 E20.18213
G1 X157.493 Y166.387 E20.25912
G1 X155.283 Y166.862 E20.34183
G1 X153.181 Y166.866 E20.41873
G1 X151.009 Y166.415 E20.49989
G1 X149.164 Y165.596 E20.57374
G1 X147.958 Y165.948 E20.61971
G1 X145.837 Y166.396 E20.69902
G1 X143.323 Y166.733 E20.79182
G1 X141.001 Y166.899 E20.87699
G1 X139.775 Y166.69 E20.92249
G1 X139.359 Y166.597 E20.93809
G1 X138.457 Y166.427 E20.97167
G1 X137.581 Y166.15 E21.00528
G1 X137.166 Y165.885 E21.0233
G1 X136.623 Y165.761 E21.04367
G1 X135.017 Y164.662 E21.11487
G1 X133.91 Y163.444 E21.17509
G1 X133.376 Y162.385 E21.21848
G1 X132.906 Y161.11 E21.2682
G1 X132.779 Y158.845 E21.35119
G1 X133.014 Y157.552 E21.39928
G1 X133.122 Y157.184 E21.41331
G1 X132.795 Y156.438 E21.44311
G1 X132.619 Y155.198 E21.48893
G1 X132.578 Y153.961 E21.53421
G1 X132.986 Y152.009 E21.60717
G1 X133.824 Y150.456 E21.67173
G1 X134.204 Y149.917 E21.69586
G1 X135.25 Y149.014 E21.74642
G1 X136.367 Y148.243 E21.79607
G1 X137.701 Y147.675 E21.84912
G1 X138.16 Y147.609 E21.86609
G1 X138.553 Y147.461 E21.88145
G1 X138.797 Y147.297 E21.89221
G1 X137.698 Y146.963 E21.93423
G1 X136.184 Y146.081 E21.99834
G1 X135.102 Y144.875 E22.05761
G1 X134.26 Y143.466 E22.11767
G1 X133.885 Y141.816 E22.17957
G1 X133.834 Y140.751 E22.21858
G1 X133.857 Y140.322 E22.2343
G1 X133.844 Y140.167 E22.23999
G1 X133.834 Y138.858 E22.28788
G1 X134.196 Y137.339 E22.34501
G1 X134.449 Y136.669 E22.37122
G1 X135.312 Y135.414 E22.42694
G0 F6000 X135.653 Y135.695
G1 F1200 X136.536 Y134.811 E22.47265
G1 X138.088 Y133.887 E22.53874
G1 X139.76 Y133.54 E22.60121
G1 X142.421 Y133.64 E22.69864
G1 X145.227 Y133.966 E22.80199
G1 X147.614 Y134.43 E22.89095
G1 X149.552 Y134.958 E22.96444
G1 X152.189 Y135.893 E23.0668
G1 X154.058 Y136.718 E23.14155
G1 X156.331 Y137.935 E23.23588
G1 X158.403 Y139.256 E23.32578
G1 X160.444 Y140.789 E23.41917
G1 X162.384 Y142.48 E23.51333
G1 X163.18 Y143.619 E23.56417
G1 X163.568 Y144.344 E23.59425
G1 X163.726 Y144.983 E23.61833
G1 X163.925 Y145.118 E23.62713
G1 X164.914 Y146.084 E23.67771
G1 X165.441 Y146.847 E23.71164
G1 X166.549 Y149.327 E23.81102
G1 X166.765 Y150.629 E23.8593
G1 X166.735 Y152.105 E23.91331
G1 X165.966 Y154.702 E24.01241
G1 X165.242 Y156.05 E24.06839
G1 X164.556 Y156.75 E24.10425
G1 X164.191 Y157.289 E24.12806
G1 X163.716 Y157.675 E24.15045
G1 X163.691 Y159.368 E24.2124
G1 X163.147 Y160.88 E24.27119
G1 X162.269 Y162.376 E24.33465
G1 X160.9 Y163.907 E24.4098
G1 X159.193 Y165.147 E24.48699
G1 X157.354 Y165.967 E24.56065
G1 X155.237 Y166.422 E24.63988
G1 X153.227 Y166.426 E24.71341
G1 X151.143 Y165.993 E24.79129
G1 X149.196 Y165.128 E24.86923
G1 X147.867 Y165.517 E24.9199
G1 X145.746 Y165.965 E24.99921
G1 X143.292 Y166.294 E25.08979
G1 X141.023 Y166.456 E25.17302
G1 X139.849 Y166.256 E25.21659
G1 X139.439 Y166.164 E25.23196
G1 X138.59 Y166.007 E25.26355
G1 X137.768 Y165.747 E25.2951
G1 X137.339 Y165.473 E25.31372
G1 X136.801 Y165.35 E25.33391
G1 X135.31 Y164.33 E25.4
G1 X134.274 Y163.19 E25.45636
G1 X133.789 Y162.233 E25.49561
G1 X133.341 Y161.018 E25.54299
G1 X133.221 Y158.874 E25.62156
G1 X133.447 Y157.631 E25.66778
G1 X133.59 Y157.154 E25.686
G1 X133.223 Y156.317 E25.71943
G1 X133.055 Y155.136 E25.76308
G1 X133.02 Y154 E25.80466
G1 X133.404 Y152.162 E25.87336
G1 X134.184 Y150.71 E25.93366
G1 X134.534 Y150.214 E25.95587
G1 X135.538 Y149.347 E26.0044
G1 X136.577 Y148.632 E26.05054
G1 X137.819 Y148.103 E26.09993
G1 X138.277 Y148.037 E26.11686
G1 X138.546 Y147.924 E26.12754
G1 X138.744 Y147.862 E26.13513
G1 X139.159 Y147.583 E26.15343
G1 X140.421 Y147.052 E26.20352
G1 X139.247 Y146.974 E26.24656
G1 X137.873 Y146.556 E26.29911
G1 X136.465 Y145.736 E26.35872
G1 X135.46 Y144.616 E26.41378
G1 X134.673 Y143.299 E26.46991
G1 X134.323 Y141.759 E26.52769
G1 X134.274 Y140.73 E26.56538
G1 X134.298 Y140.322 E26.58033
G1 X134.284 Y140.163 E26.58617
G1 X134.274 Y138.907 E26.63212
G1 X134.608 Y137.495 E26.68521
G1 X134.843 Y136.873 E26.70954
G1 X135.653 Y135.695 E26.76184
G0 F6000 X135.994 Y135.976
G1 F1200 X136.808 Y135.161 E26.80398
G1 X138.249 Y134.303 E26.86534
G1 X139.796 Y133.982 E26.92314
G1 X142.404 Y134.08 E27.01863
G1 X145.143 Y134.398 E27.11951
G1 X147.498 Y134.855 E27.20728
G1 X149.436 Y135.383 E27.28077
G1 X152.011 Y136.296 E27.38072
G1 X153.88 Y137.121 E27.45547
G1 X156.094 Y138.306 E27.54734
G1 X158.166 Y139.627 E27.63725
G1 X160.155 Y141.121 E27.72826
G1 X162.054 Y142.776 E27.82042
G1 X162.819 Y143.871 E27.86929
G1 X163.154 Y144.504 E27.89549
G1 X163.342 Y145.264 E27.92413
G1 X163.618 Y145.433 E27.93597
G1 X164.576 Y146.369 E27.98497
G1 X165.054 Y147.061 E28.01574
G1 X166.125 Y149.457 E28.11176
G1 X166.324 Y150.66 E28.15638
G1 X166.296 Y152.037 E28.20676
G1 X165.557 Y154.533 E28.302
G1 X164.883 Y155.788 E28.35412
G1 X164.216 Y156.468 E28.38897
G1 X163.865 Y156.987 E28.41189
G1 X163.279 Y157.463 E28.43951
G1 X163.252 Y159.288 E28.50629
G1 X162.746 Y160.694 E28.56096
G1 X161.912 Y162.115 E28.62124
G1 X160.605 Y163.577 E28.69299
G1 X158.971 Y164.764 E28.76688
G1 X157.215 Y165.547 E28.83722
G1 X155.191 Y165.982 E28.91296
G1 X153.272 Y165.986 E28.98317
G1 X151.278 Y165.572 E29.05768
G1 X149.483 Y164.774 E29.12955
G1 X149.288 Y164.643 E29.13815
G1 X147.776 Y165.086 E29.19579
G1 X145.655 Y165.534 E29.2751
G1 X143.261 Y165.855 E29.36347
G1 X141.045 Y166.013 E29.44475
G1 X139.923 Y165.822 E29.48639
G1 X139.519 Y165.731 E29.50154
G1 X138.67 Y165.574 E29.53313
G1 X137.954 Y165.344 E29.56065
G1 X137.51 Y165.061 E29.57991
G1 X136.981 Y164.94 E29.59976
G1 X135.602 Y163.996 E29.66091
