;FLAVOR:Marlin
;TIME:1943
;Filament used: 1.46956m
;Layer height: 0.2
;MINX:126.842
;MINY:131.326
;MINZ:0.2
;MAXX:171.23
;MAXY:168.696
;MAXZ:22.8
;Generated with Cura_SteamEngine 5.3.1
M140 S60
M105
M190 S60
M104 S200
M105
M109 S200
M82 ;absolute extrusion mode
G28 ; home all axes
M420 S1
 M117 Purge extruder
 G92 E0 ; reset extruder
 G1 Z1.0 F3000 ; move z up little to prevent scratching of surface
 G1 X2 Y20 Z0.3 F5000.0 ; move to start-line position
 G1 X2 Y200.0 Z0.3 F1500.0 E15 ; draw 1st line
 G1 X2 Y200.0 Z0.4 F5000.0 ; move to side a little
 G1 X2 Y20 Z0.4 F1500.0 E30 ; draw 2nd line
 G92 E0 ; reset extruder
 G1 Z1.0 F3000 ; move z up little to prevent scratching of surface
G92 E0
G92 E0
G1 F1500 E-2
;LAYER_COUNT:114
;LAYER:0
M107
G1 F300 Z0.4
G0 F6000 X132.028 Y140.951 Z0.4
;TYPE:SKIRT
G1 F300 Z0.2
G1 F1500 E0
G1 F1200 X134.486 Y138.838 E0.11859
G1 X136.996 Y137.019 E0.232
G1 X139.638 Y135.432 E0.34476
G1 X141.771 Y134.379 E0.43179
G1 X144.786 Y133.194 E0.55031
G1 X147.01 Y132.52 E0.63533
G1 X150.493 Y131.78 E0.76561
G1 X153.298 Y131.451 E0.86893
G1 X156.266 Y131.326 E0.97762
G1 X158.896 Y131.819 E1.07551
G1 X159.287 Y132.077 E1.09265
G1 X159.649 Y132.174 E1.10636
G1 X160.366 Y132.444 E1.1344
G1 X161.992 Y133.556 E1.20647
G1 X163.209 Y134.761 E1.26912
G1 X164.417 Y136.768 E1.35483
G1 X164.999 Y139.151 E1.44457
G1 X164.798 Y142.004 E1.54921
G1 X164.542 Y142.84 E1.5812
G1 X166.169 Y143.564 E1.64635
G1 X167.966 Y144.896 E1.72819
G1 X169.202 Y146.038 E1.78976
G1 X170.3 Y147.845 E1.86712
G1 X171.092 Y150.279 E1.96077
G1 X171.23 Y152.048 E2.02568
G1 X171.064 Y153.684 E2.08584
G1 X170.176 Y156.223 E2.18425
G1 X169.041 Y158.011 E2.26174
G1 X167.998 Y158.977 E2.31375
G1 X166.471 Y160.108 E2.38327
G1 X164.966 Y160.816 E2.44412
G1 X164.955 Y161.206 E2.4584
G1 X164.593 Y162.818 E2.51884
G1 X164.129 Y164.158 E2.57072
G1 X163.102 Y165.669 E2.63757
G1 X161.861 Y166.914 E2.70188
G1 X160.159 Y167.942 E2.77463
G1 X158.042 Y168.621 E2.85597
G1 X154.502 Y168.61 E2.98548
G1 X150.843 Y168.275 E3.11991
G1 X148.144 Y167.772 E3.22036
G1 X147.053 Y167.477 E3.2617
G1 X146.839 Y167.594 E3.27063
G1 X144.49 Y168.389 E3.36136
G1 X141.721 Y168.696 E3.46328
G1 X139.139 Y168.391 E3.55841
G1 X136.552 Y167.505 E3.65845
G1 X134.253 Y166.074 E3.75753
G1 X132.324 Y164.152 E3.85715
G1 X130.92 Y161.977 E3.95187
G1 X130.44 Y160.643 E4.00374
G1 X130.064 Y159.097 E4.06195
G1 X130.08 Y158.644 E4.07853
G1 X129.726 Y158.387 E4.09454
G1 X128.538 Y157.01 E4.16107
G1 X127.74 Y155.686 E4.21763
G1 X126.951 Y153.251 E4.31128
G1 X126.842 Y151.543 E4.3739
G1 X126.911 Y150.074 E4.4277
G1 X127.657 Y147.85 E4.51352
G1 X128.292 Y146.471 E4.56907
G1 X129.709 Y144.821 E4.64864
G1 X130.155 Y144.497 E4.66881
G1 X130.329 Y143.853 E4.69321
G1 X130.782 Y142.677 E4.73932
G1 X132.028 Y140.951 E4.8172
G0 F6000 X132.353 Y141.252
G1 F1200 X134.773 Y139.172 E4.93395
G1 X137.254 Y137.375 E5.04603
G1 X139.833 Y135.827 E5.15608
G1 X141.966 Y134.774 E5.24311
G1 X144.914 Y133.615 E5.359
G1 X147.138 Y132.941 E5.44402
G1 X150.544 Y132.217 E5.57142
G1 X153.317 Y131.891 E5.67357
G1 X156.238 Y131.768 E5.78054
G1 X158.728 Y132.235 E5.87322
G1 X159.107 Y132.485 E5.88983
G1 X159.494 Y132.586 E5.90447
G1 X160.163 Y132.838 E5.93062
G1 X161.71 Y133.896 E5.99919
G1 X162.86 Y135.034 E6.05838
G1 X164.006 Y136.939 E6.13972
G1 X164.555 Y139.187 E6.22438
G1 X164.362 Y141.923 E6.32473
G1 X164.008 Y143.084 E6.36914
G1 X165.944 Y143.946 E6.44667
G1 X167.704 Y145.25 E6.52681
G1 X168.858 Y146.319 E6.58436
G1 X169.899 Y148.032 E6.6577
G1 X170.657 Y150.362 E6.74734
G1 X170.788 Y152.043 E6.80903
G1 X170.631 Y153.59 E6.86592
G1 X169.778 Y156.03 E6.96049
G1 X168.7 Y157.728 E7.03408
G1 X167.736 Y158.623 E7.0822
G1 X166.241 Y159.73 E7.15026
G1 X164.652 Y160.478 E7.21451
G1 X164.525 Y160.769 E7.22613
G1 X164.526 Y161.11 E7.23861
G1 X164.177 Y162.674 E7.29723
G1 X163.732 Y163.96 E7.34702
G1 X162.763 Y165.385 E7.41007
G1 X161.586 Y166.566 E7.47107
G1 X159.975 Y167.539 E7.53993
G1 X157.974 Y168.181 E7.61681
G1 X154.503 Y168.17 E7.7438
G1 X150.924 Y167.842 E7.87529
G1 X148.225 Y167.339 E7.97574
G1 X146.986 Y167.003 E8.02271
G1 X146.698 Y167.177 E8.03502
G1 X144.392 Y167.957 E8.12408
G1 X141.724 Y168.253 E8.22229
G1 X139.236 Y167.959 E8.31395
G1 X136.745 Y167.106 E8.41028
G1 X134.528 Y165.726 E8.50582
G1 X132.668 Y163.873 E8.60188
G1 X131.317 Y161.78 E8.69302
G1 X130.868 Y160.539 E8.74131
G1 X130.506 Y159.051 E8.79734
G1 X130.529 Y158.426 E8.82022
G1 X130.026 Y158.061 E8.84295
G1 X128.897 Y156.753 E8.90617
G1 X128.144 Y155.504 E8.95953
G1 X127.386 Y153.166 E9.04945
G1 X127.282 Y151.564 E9.10818
G1 X127.348 Y150.154 E9.15983
G1 X128.057 Y148.034 E9.24161
G1 X128.666 Y146.711 E9.2949
G1 X130.011 Y145.145 E9.37042
G1 X130.54 Y144.761 E9.39434
G1 X130.74 Y144.011 E9.42274
G1 X131.173 Y142.887 E9.46681
G1 X132.353 Y141.252 E9.54058
G0 F6000 X132.678 Y141.553
G1 F1200 X135.06 Y139.506 E9.65548
G1 X137.481 Y137.752 E9.76486
G1 X140.028 Y136.222 E9.87357
G1 X142.161 Y135.169 E9.9606
G1 X145.042 Y134.036 E10.07386
G1 X147.266 Y133.362 E10.15888
G1 X150.595 Y132.654 E10.2834
G1 X153.336 Y132.331 E10.38438
G1 X156.21 Y132.21 E10.48962
G1 X158.56 Y132.651 E10.5771
G1 X158.927 Y132.893 E10.59318
G1 X159.339 Y132.998 E10.60874
G1 X159.96 Y133.232 E10.63301
G1 X161.425 Y134.234 E10.69795
G1 X162.512 Y135.31 E10.75391
G1 X163.595 Y137.11 E10.83077
G1 X164.111 Y139.223 E10.91034
G1 X163.926 Y141.843 E11.00644
G1 X163.423 Y143.493 E11.06955
G1 X163.961 Y143.545 E11.08932
G1 X165.719 Y144.328 E11.15973
G1 X167.442 Y145.604 E11.23817
G1 X168.515 Y146.601 E11.29176
G1 X169.497 Y148.217 E11.36095
G1 X170.222 Y150.445 E11.44667
G1 X170.346 Y152.038 E11.50512
G1 X170.198 Y153.496 E11.55874
G1 X169.38 Y155.837 E11.64947
G1 X168.36 Y157.443 E11.71907
G1 X167.474 Y158.269 E11.76339
G1 X166.011 Y159.352 E11.82999
G1 X164.439 Y160.092 E11.89355
G1 X164.275 Y160.139 E11.8998
G1 X164.228 Y160.367 E11.90831
G1 X164.08 Y160.68 E11.92098
G1 X164.097 Y161.014 E11.93322
G1 X163.748 Y162.578 E11.99184
G1 X163.336 Y163.76 E12.03764
G1 X162.424 Y165.101 E12.09697
G1 X161.312 Y166.217 E12.15461
G1 X159.789 Y167.137 E12.21971
G1 X157.906 Y167.741 E12.29206
G1 X154.504 Y167.73 E12.41653
G1 X151.005 Y167.409 E12.54508
G1 X148.306 Y166.906 E12.64552
G1 X146.92 Y166.529 E12.69808
G1 X146.512 Y166.775 E12.71551
G1 X144.294 Y167.525 E12.80117
G1 X141.727 Y167.81 E12.89566
G1 X139.333 Y167.527 E12.98386
G1 X136.938 Y166.707 E13.07648
G1 X134.803 Y165.378 E13.16848
G1 X133.012 Y163.594 E13.26097
G1 X131.714 Y161.583 E13.34854
G1 X131.282 Y160.389 E13.395
G1 X130.948 Y159.007 E13.44701
G1 X130.978 Y158.208 E13.47627
G1 X130.328 Y157.737 E13.50563
G1 X129.254 Y156.493 E13.56576
G1 X128.548 Y155.322 E13.61579
G1 X127.821 Y153.08 E13.70202
G1 X127.722 Y151.584 E13.75687
G1 X127.785 Y150.232 E13.80639
G1 X128.457 Y148.218 E13.88407
G1 X129.04 Y146.951 E13.9351
G1 X130.313 Y145.469 E14.00657
G1 X130.925 Y145.025 E14.03424
G1 X131.151 Y144.169 E14.06663
G1 X131.564 Y143.097 E14.10866
G1 X132.678 Y141.553 E14.17831
G0 F6000 X133.005 Y141.853
G1 F1200 X135.347 Y139.84 E14.2913
G1 X137.739 Y138.108 E14.39935
G1 X140.223 Y136.617 E14.50534
G1 X142.356 Y135.564 E14.59237
G1 X145.17 Y134.457 E14.70301
G1 X147.394 Y133.783 E14.78803
G1 X150.647 Y133.091 E14.9097
G1 X153.355 Y132.771 E15.00947
G1 X156.182 Y132.652 E15.11299
G1 X158.39 Y133.066 E15.19518
G1 X158.747 Y133.302 E15.21084
G1 X159.184 Y133.41 E15.22731
G1 X159.757 Y133.626 E15.24971
G1 X161.14 Y134.572 E15.31101
G1 X162.164 Y135.586 E15.36374
G1 X163.184 Y137.281 E15.43611
G1 X163.667 Y139.259 E15.51061
G1 X163.491 Y141.761 E15.60237
G1 X163.018 Y143.31 E15.66163
G1 X162.701 Y143.864 E15.68498
G1 X163.848 Y143.976 E15.72714
G1 X165.494 Y144.71 E15.79308
G1 X167.18 Y145.958 E15.86983
G1 X168.17 Y146.881 E15.91935
G1 X169.096 Y148.404 E15.98456
G1 X169.787 Y150.528 E16.06628
G1 X169.904 Y152.033 E16.1215
G1 X169.765 Y153.402 E16.17185
G1 X168.982 Y155.644 E16.25873
G1 X168.02 Y157.159 E16.32439
G1 X167.212 Y157.915 E16.36487
G1 X165.781 Y158.974 E16.43001
G1 X164.252 Y159.694 E16.49184
G1 X163.903 Y159.767 E16.50488
G1 X163.797 Y160.277 E16.52394
G1 X163.635 Y160.579 E16.53648
G1 X163.655 Y160.974 E16.55095
G1 X163.332 Y162.433 E16.60562
G1 X162.939 Y163.561 E16.64932
G1 X162.083 Y164.819 E16.70499
G1 X161.038 Y165.868 E16.75917
G1 X159.603 Y166.735 E16.82051
G1 X157.838 Y167.301 E16.88832
G1 X154.505 Y167.29 E17.01026
G1 X151.085 Y166.976 E17.13591
G1 X148.421 Y166.481 E17.23505
G1 X146.855 Y166.055 E17.29442
G1 X146.326 Y166.373 E17.317
G1 X144.196 Y167.093 E17.39926
G1 X141.73 Y167.367 E17.49004
G1 X139.43 Y167.095 E17.57478
G1 X137.129 Y166.307 E17.66376
G1 X135.077 Y165.03 E17.75218
G1 X133.358 Y163.318 E17.84095
G1 X132.111 Y161.386 E17.92508
G1 X131.696 Y160.239 E17.9697
G1 X131.39 Y158.963 E18.01771
G1 X131.425 Y158.039 E18.05154
G1 X131.259 Y157.865 E18.06034
G1 X130.629 Y157.412 E18.08873
G1 X129.611 Y156.233 E18.14572
G1 X128.952 Y155.14 E18.19241
G1 X128.256 Y152.994 E18.27495
G1 X128.162 Y151.604 E18.32592
G1 X128.222 Y150.31 E18.37332
G1 X128.857 Y148.402 E18.44689
G1 X129.414 Y147.191 E18.49565
G1 X130.615 Y145.793 E18.56308
G1 X131.311 Y145.288 E18.59454
G1 X131.562 Y144.327 E18.63088
G1 X131.954 Y143.309 E18.67079
G1 X133.005 Y141.853 E18.73649
G0 F6000 X133.33 Y142.154
G1 F1200 X135.634 Y140.174 E18.84764
G1 X137.966 Y138.485 E18.95298
G1 X140.418 Y137.012 E19.05763
G1 X142.551 Y135.959 E19.14466
G1 X145.298 Y134.878 E19.25267
G1 X147.522 Y134.204 E19.33769
G1 X150.699 Y133.528 E19.45653
G1 X153.373 Y133.211 E19.55504
G1 X156.154 Y133.094 E19.65688
G1 X158.222 Y133.482 E19.73386
G1 X158.571 Y133.712 E19.74915
G1 X159.029 Y133.822 E19.76638
G1 X159.554 Y134.02 E19.78691
G1 X160.858 Y134.912 E19.84472
G1 X161.815 Y135.859 E19.89397
G1 X162.773 Y137.452 E19.96198
G1 X163.223 Y139.295 E20.03139
G1 X163.055 Y141.681 E20.1189
G1 X162.612 Y143.133 E20.17444
G1 X161.98 Y144.236 E20.22095
G1 X163.734 Y144.407 E20.28543
G1 X165.269 Y145.092 E20.34693
G1 X166.918 Y146.312 E20.42197
G1 X167.825 Y147.161 E20.46743
G1 X168.695 Y148.591 E20.52867
G1 X169.352 Y150.611 E20.60638
G1 X169.462 Y152.028 E20.65838
G1 X169.332 Y153.308 E20.70545
G1 X168.584 Y155.451 E20.78849
G1 X167.68 Y156.875 E20.8502
G1 X166.911 Y157.594 E20.88872
G1 X165.554 Y158.595 E20.95041
G1 X164.065 Y159.296 E21.01063
G1 X163.533 Y159.381 E21.03034
G1 X163.379 Y160.126 E21.05817
G1 X163.189 Y160.478 E21.0728
G1 X163.213 Y160.934 E21.08951
G1 X162.902 Y162.338 E21.14212
G1 X162.543 Y163.36 E21.18175
G1 X161.74 Y164.54 E21.23397
G1 X160.765 Y165.519 E21.28452
G1 X159.419 Y166.332 E21.34205
G1 X157.77 Y166.861 E21.40541
G1 X154.506 Y166.85 E21.52483
G1 X151.165 Y166.543 E21.64758
G1 X148.537 Y166.056 E21.74537
G1 X146.791 Y165.581 E21.81157
G1 X146.143 Y165.97 E21.83922
G1 X144.098 Y166.662 E21.91821
G1 X141.734 Y166.924 E22.00522
G1 X139.527 Y166.663 E22.08653
G1 X137.322 Y165.908 E22.1718
G1 X135.349 Y164.68 E22.25683
G1 X133.704 Y163.042 E22.34176
G1 X132.508 Y161.189 E22.42245
G1 X132.11 Y160.089 E22.46525
G1 X131.832 Y158.92 E22.50921
G1 X131.873 Y157.842 E22.54868
G1 X131.753 Y157.746 E22.5543
G1 X131.549 Y157.532 E22.56512
G1 X130.929 Y157.086 E22.59306
G1 X129.968 Y155.973 E22.64686
G1 X129.356 Y154.958 E22.69022
G1 X128.691 Y152.908 E22.76907
G1 X128.602 Y151.624 E22.81616
G1 X128.659 Y150.39 E22.86136
G1 X129.257 Y148.586 E22.93089
G1 X129.788 Y147.431 E22.9774
G1 X130.917 Y146.117 E23.04078
G1 X131.697 Y145.551 E23.07604
G1 X131.988 Y144.438 E23.11813
G1 X132.344 Y143.521 E23.15412
G1 X133.33 Y142.154 E23.21578
G0 F6000 X133.657 Y142.454
G1 F1200 X135.921 Y140.508 E23.32501
G1 X138.224 Y138.841 E23.42902
G1 X140.613 Y137.407 E23.53096
G1 X142.746 Y136.354 E23.61799
G1 X145.426 Y135.299 E23.72337
G1 X147.65 Y134.625 E23.80839
G1 X150.751 Y133.965 E23.92438
G1 X153.391 Y133.651 E24.02165
G1 X156.126 Y133.536 E24.1218
G1 X158.054 Y133.898 E24.19357
G1 X158.397 Y134.124 E24.2086
G1 X158.874 Y134.234 E24.22651
G1 X159.351 Y134.414 E24.24516
G1 X160.573 Y135.25 E24.29933
G1 X161.467 Y136.135 E24.34536
G1 X162.362 Y137.623 E24.40889
G1 X162.779 Y139.331 E24.47321
G1 X162.62 Y141.599 E24.55639
G1 X162.205 Y142.957 E24.60834
G1 X161.373 Y144.41 E24.6696
G1 X160.906 Y144.811 E24.69212
G1 X161.926 Y144.673 E24.72978
G1 X163.62 Y144.838 E24.79205
G1 X165.044 Y145.474 E24.84911
G1 X166.656 Y146.666 E24.92246
G1 X167.48 Y147.441 E24.96385
G1 X168.294 Y148.779 E25.02114
G1 X168.917 Y150.694 E25.09482
G1 X169.02 Y152.023 E25.14359
G1 X168.899 Y153.214 E25.18739
G1 X168.186 Y155.258 E25.26659
G1 X167.34 Y156.591 E25.32435
G1 X166.611 Y157.272 E25.36085
G1 X165.326 Y158.216 E25.41919
G1 X163.933 Y158.872 E25.47552
G1 X163.163 Y158.995 E25.50405
G1 X162.961 Y159.975 E25.54066
G1 X162.744 Y160.377 E25.55737
G1 X162.771 Y160.895 E25.57635
G1 X162.472 Y162.243 E25.62686
G1 X162.147 Y163.159 E25.66242
G1 X161.397 Y164.261 E25.71119
G1 X160.492 Y165.17 E25.75812
G1 X159.235 Y165.929 E25.81184
G1 X157.702 Y166.421 E25.87075
G1 X154.508 Y166.41 E25.98761
G1 X151.245 Y166.11 E26.10749
G1 X148.617 Y165.623 E26.20527
G1 X146.725 Y165.107 E26.27702
G1 X145.958 Y165.568 E26.30976
G1 X144 Y166.23 E26.38538
G1 X141.737 Y166.481 E26.46869
G1 X139.624 Y166.231 E26.54653
G1 X137.513 Y165.508 E26.62817
G1 X135.623 Y164.332 E26.70961
G1 X134.05 Y162.766 E26.79082
G1 X132.905 Y160.992 E26.86807
G1 X132.524 Y159.939 E26.90904
G1 X132.274 Y158.879 E26.94888
G1 X132.322 Y157.627 E26.99472
G1 X132.071 Y157.442 E27.00613
G1 X131.839 Y157.199 E27.01842
G1 X131.229 Y156.76 E27.04592
G1 X130.325 Y155.713 E27.09652
G1 X129.76 Y154.776 E27.13656
G1 X129.126 Y152.822 E27.21171
G1 X129.042 Y151.644 E27.25492
G1 X129.096 Y150.47 E27.29792
G1 X129.675 Y148.724 E27.36522
G1 X130.161 Y147.673 E27.40758
G1 X131.219 Y146.441 E27.467
G1 X132.108 Y145.796 E27.50718
G1 X132.124 Y145.657 E27.5123
G1 X132.414 Y144.55 E27.55417
G1 X132.733 Y143.734 E27.58622
G1 X133.657 Y142.454 E27.64398
G0 F6000 X133.984 Y142.754
G1 F1200 X136.208 Y140.842 E27.75128
G1 X138.451 Y139.218 E27.8526
G1 X140.808 Y137.802 E27.9532
G1 X142.941 Y136.749 E28.04023
G1 X145.554 Y135.72 E28.14297
G1 X147.778 Y135.046 E28.22799
G1 X150.803 Y134.402 E28.34115
G1 X153.409 Y134.091 E28.43717
G1 X156.098 Y133.978 E28.53563
G1 X157.885 Y134.314 E28.60216
G1 X158.223 Y134.535 E28.61693
G1 X158.775 Y134.663 E28.63766
G1 X159.145 Y134.806 E28.65218
G1 X160.29 Y135.59 E28.70295
G1 X161.119 Y136.411 E28.74563
G1 X161.951 Y137.794 E28.80468
G1 X162.335 Y139.367 E28.86392
G1 X162.184 Y141.519 E28.94285
G1 X161.799 Y142.78 E28.99109
G1 X161.029 Y144.125 E29.04779
G1 X159.938 Y145.063 E29.10043
G1 X159.074 Y145.539 E29.13652
G1 X158.935 Y145.599 E29.14206
G1 X158.524 Y145.901 E29.16072
G1 X157.107 Y146.479 E29.21671
G1 X157.558 Y146.479 E29.23321
G1 X160.553 Y145.303 E29.35093
G1 X161.934 Y145.116 E29.40191
G1 X163.506 Y145.269 E29.4597
G1 X164.822 Y145.857 E29.51243
G1 X166.354 Y146.986 E29.58206
G1 X167.134 Y147.72 E29.62125
G1 X167.893 Y148.967 E29.67466
G1 X168.482 Y150.777 E29.74429
G1 X168.578 Y152.018 E29.78983
G1 X168.466 Y153.121 E29.8304
G1 X167.788 Y155.065 E29.90572
G1 X166.999 Y156.307 E29.95955
G1 X166.351 Y156.917 E29.99211
G1 X165.1 Y157.836 E30.04891
G1 X163.803 Y158.447 E30.10136
G1 X162.794 Y158.608 E30.13874
G1 X162.543 Y159.822 E30.1841
G1 X162.299 Y160.276 E30.20295
G1 X162.329 Y160.856 E30.2242
G1 X162.057 Y162.096 E30.27065
G1 X161.751 Y162.958 E30.30411
G1 X161.054 Y163.982 E30.34943
G1 X160.221 Y164.819 E30.39264
G1 X159.049 Y165.527 E30.44273
G1 X157.634 Y165.981 E30.4971
G1 X154.51 Y165.97 E30.6114
G1 X151.325 Y165.677 E30.72842
G1 X148.733 Y165.198 E30.82485
G1 X146.66 Y164.633 E30.90346
G1 X145.773 Y165.166 E30.94132
G1 X143.902 Y165.798 E31.01358
G1 X141.74 Y166.038 E31.09316
G1 X139.72 Y165.799 E31.16758
G1 X137.707 Y165.11 E31.24542
G1 X135.895 Y163.982 E31.32351
G1 X134.396 Y162.49 E31.40089
G1 X133.302 Y160.795 E31.4747
G1 X132.938 Y159.789 E31.51384
G1 X132.716 Y158.839 E31.54953
G1 X132.771 Y157.412 E31.60178
G1 X132.363 Y157.111 E31.62033
G1 X132.13 Y156.866 E31.6327
