;FLAVOR:Marlin
;TIME:3468
;Filament used: 2.46734m
;Layer height: 0.2
;MINX:127.716
;MINY:131.918
;MINZ:0.2
;MAXX:172.33
;MAXY:169.025
;MAXZ:37.2
;Generated with Cura_SteamEngine 5.3.1
M140 S60
M105
M190 S60
M104 S200
M105
M109 S200
M82 ;absolute extrusion mode
G28 ; home all axes
M420 S1
 M117 Purge extruder
 G92 E0 ; reset extruder
 G1 Z1.0 F3000 ; move z up little to prevent scratching of surface
 G1 X2 Y20 Z0.3 F5000.0 ; move to start-line position
 G1 X2 Y200.0 Z0.3 F1500.0 E15 ; draw 1st line
 G1 X2 Y200.0 Z0.4 F5000.0 ; move to side a little
 G1 X2 Y20 Z0.4 F1500.0 E30 ; draw 2nd line
 G92 E0 ; reset extruder
 G1 Z1.0 F3000 ; move z up little to prevent scratching of surface
G92 E0
G92 E0
G1 F1500 E-2
;LAYER_COUNT:186
;LAYER:0
M107
G1 F300 Z0.4
G0 F6000 X131.762 Y141.142 Z0.4
;TYPE:SKIRT
G1 F300 Z0.2
G1 F1500 E0
G1 F1200 X136.4 Y137.429 E0.21736
G1 X137.102 Y137.183 E0.24458
G1 X137.32 Y136.969 E0.25576
G1 X139.957 Y135.175 E0.37244
G1 X141.426 Y133.619 E0.45073
G1 X143.868 Y132.269 E0.55282
G1 X145.913 Y131.918 E0.62873
G1 X148.081 Y131.918 E0.70805
G1 X150.007 Y132.37 E0.78043
G1 X151.198 Y132.959 E0.82904
G1 X152.274 Y132.682 E0.86969
G1 X153.277 Y132.508 E0.90694
G1 X155.093 Y132.34 E0.97366
G1 X156.09 Y132.324 E1.01014
G1 X157.983 Y132.408 E1.07947
G1 X159.634 Y132.907 E1.14257
G1 X160.823 Y133.407 E1.18976
G1 X162.59 Y134.769 E1.27138
G1 X163.381 Y135.805 E1.31907
G1 X164.182 Y137.122 E1.37547
G1 X164.918 Y139.387 E1.4626
G1 X164.869 Y140.646 E1.5087
G1 X165.214 Y140.67 E1.52135
G1 X167.605 Y141.699 E1.61659
G1 X169.758 Y143.439 E1.71786
G1 X170.802 Y144.753 E1.77926
G1 X171.359 Y145.637 E1.81749
G1 X172.225 Y148.293 E1.9197
G1 X172.33 Y149.972 E1.98125
G1 X172.261 Y151.42 E2.03428
G1 X171.427 Y153.993 E2.13324
G1 X170.69 Y155.183 E2.18445
G1 X169.612 Y156.572 E2.24878
G1 X167.1 Y158.399 E2.36242
G1 X164.716 Y159.319 E2.45591
G1 X163.936 Y159.354 E2.48448
G1 X163.903 Y160.265 E2.51783
G1 X163.348 Y162.299 E2.59497
G1 X162.261 Y164.285 E2.6778
G1 X160.368 Y166.013 E2.77157
G1 X158.356 Y166.986 E2.85334
G1 X157.666 Y167.11 E2.87899
G1 X157.277 Y167.277 E2.89448
G1 X155.208 Y167.715 E2.97185
G1 X153.058 Y167.483 E3.05097
G1 X152.842 Y167.655 E3.06107
G1 X150.894 Y168.68 E3.1416
G1 X148.984 Y169.025 E3.21261
G1 X146.575 Y169.025 E3.30075
G1 X144.073 Y168.336 E3.3957
G1 X142.383 Y167.148 E3.47127
G1 X142.151 Y166.951 E3.48241
G1 X141.515 Y166.961 E3.50568
G1 X139.68 Y166.526 E3.57468
G1 X138.26 Y165.923 E3.63112
G1 X136.449 Y164.583 E3.71354
G1 X135.247 Y163.48 E3.77323
G1 X134.108 Y161.583 E3.85418
G1 X133.768 Y160.478 E3.89648
G1 X133.602 Y160.369 E3.90375
G1 X129.946 Y157.062 E4.08411
G1 X128.879 Y155.165 E4.16374
G1 X127.844 Y152.039 E4.28421
G1 X127.716 Y150.451 E4.3425
G1 X127.749 Y148.988 E4.39604
G1 X128.929 Y145.067 E4.54585
G1 X131.762 Y141.142 E4.72295
G0 F6000 X132.086 Y141.446
G1 F1200 X136.616 Y137.819 E4.93526
G1 X137.347 Y137.563 E4.9636
G1 X137.567 Y137.333 E4.97524
G1 X140.244 Y135.512 E5.09369
G1 X141.699 Y133.971 E5.17123
G1 X144.015 Y132.691 E5.26805
G1 X145.953 Y132.358 E5.33999
G1 X148.032 Y132.358 E5.41605
G1 X149.857 Y132.786 E5.48463
G1 X151.15 Y133.426 E5.53742
G1 X152.349 Y133.116 E5.58273
G1 X153.352 Y132.942 E5.61997
G1 X155.1 Y132.78 E5.6842
G1 X156.07 Y132.764 E5.71969
G1 X157.911 Y132.846 E5.78711
G1 X159.463 Y133.313 E5.84641
G1 X160.599 Y133.791 E5.8915
G1 X162.277 Y135.084 E5.969
G1 X163.005 Y136.034 E6.01279
G1 X163.781 Y137.309 E6.0674
G1 X164.475 Y139.446 E6.1496
G1 X164.413 Y141.056 E6.20855
G1 X165.109 Y141.104 E6.23408
G1 X167.375 Y142.079 E6.32433
G1 X169.442 Y143.749 E6.42155
G1 X170.457 Y145.027 E6.48126
G1 X170.959 Y145.828 E6.51584
G1 X171.789 Y148.375 E6.61385
G1 X171.89 Y149.951 E6.67163
G1 X171.824 Y151.34 E6.72251
G1 X171.024 Y153.807 E6.81739
G1 X170.342 Y154.913 E6.86493
G1 X169.302 Y156.253 E6.92699
G1 X166.885 Y158.011 E7.03633
G1 X164.628 Y158.882 E7.12484
G1 X163.51 Y158.932 E7.16579
G1 X163.465 Y160.201 E7.21225
G1 X162.938 Y162.132 E7.28548
G1 X161.911 Y164.009 E7.36376
G1 X160.117 Y165.646 E7.45261
G1 X158.22 Y166.563 E7.5297
G1 X157.541 Y166.686 E7.55494
G1 X157.144 Y166.856 E7.57075
G1 X155.188 Y167.27 E7.64389
G1 X153.164 Y167.055 E7.71836
G1 X152.933 Y167.009 E7.72698
G1 X152.637 Y167.266 E7.74132
G1 X150.75 Y168.259 E7.81933
G1 X148.945 Y168.585 E7.88644
G1 X146.634 Y168.585 E7.97099
G1 X144.264 Y167.932 E8.06093
G1 X142.636 Y166.788 E8.13373
G1 X142.31 Y166.509 E8.14943
G1 X141.562 Y166.52 E8.1768
G1 X139.819 Y166.107 E8.24233
G1 X138.481 Y165.539 E8.29551
G1 X136.711 Y164.229 E8.37608
G1 X135.591 Y163.198 E8.43177
G1 X134.513 Y161.403 E8.50838
G1 X134.139 Y160.188 E8.55489
G1 X133.897 Y160.043 E8.56521
G1 X130.294 Y156.784 E8.74295
G1 X129.284 Y154.989 E8.81831
G1 X128.279 Y151.952 E8.93534
G1 X128.155 Y150.416 E8.99172
G1 X128.188 Y149.056 E9.0415
G1 X129.328 Y145.267 E9.18626
G1 X132.086 Y141.446 E9.35867
G0 F6000 X132.41 Y141.75
G1 F1200 X136.832 Y138.209 E9.56593
G1 X137.603 Y137.939 E9.59582
G1 X137.814 Y137.697 E9.60756
G1 X140.531 Y135.849 E9.72778
G1 X141.972 Y134.323 E9.80457
G1 X144.162 Y133.113 E9.89611
G1 X145.993 Y132.798 E9.96408
G1 X147.982 Y132.798 E10.03685
G1 X149.708 Y133.203 E10.10172
G1 X151.103 Y133.893 E10.15866
G1 X152.424 Y133.55 E10.20859
G1 X153.427 Y133.376 E10.24583
G1 X155.107 Y133.22 E10.30756
G1 X156.05 Y133.204 E10.34207
G1 X157.841 Y133.284 E10.40766
G1 X159.292 Y133.719 E10.46308
G1 X160.378 Y134.176 E10.50619
G1 X161.962 Y135.397 E10.57936
G1 X162.629 Y136.263 E10.61935
G1 X163.378 Y137.493 E10.67204
G1 X164.032 Y139.508 E10.74955
G1 X163.956 Y141.465 E10.8212
G1 X165.005 Y141.538 E10.85967
G1 X167.147 Y142.46 E10.94499
G1 X169.124 Y144.057 E11.03797
G1 X170.112 Y145.301 E11.09609
G1 X170.558 Y146.016 E11.12692
G1 X171.353 Y148.457 E11.22085
G1 X171.45 Y149.93 E11.27486
G1 X171.387 Y151.26 E11.32357
G1 X170.621 Y153.621 E11.41438
G1 X169.967 Y154.682 E11.45998
G1 X168.994 Y155.932 E11.51794
G1 X166.67 Y157.623 E11.62309
G1 X164.54 Y158.445 E11.70662
G1 X163.03 Y158.513 E11.76192
G1 X163.072 Y158.871 E11.77511
G1 X163.027 Y160.137 E11.82146
G1 X162.528 Y161.965 E11.89078
G1 X161.561 Y163.733 E11.96451
G1 X159.867 Y165.278 E12.04839
G1 X158.082 Y166.141 E12.12093
G1 X157.414 Y166.262 E12.14577
G1 X157.008 Y166.435 E12.16191
G1 X155.168 Y166.825 E12.23073
G1 X153.211 Y166.617 E12.30273
G1 X152.809 Y166.535 E12.31774
G1 X152.388 Y166.9 E12.33813
G1 X150.606 Y167.838 E12.4118
G1 X148.906 Y168.145 E12.47501
G1 X146.693 Y168.145 E12.55597
G1 X144.455 Y167.528 E12.64091
G1 X142.923 Y166.454 E12.70936
G1 X142.471 Y166.066 E12.73115
G1 X141.609 Y166.079 E12.76269
G1 X139.958 Y165.688 E12.82477
G1 X138.702 Y165.155 E12.87468
G1 X136.973 Y163.875 E12.95339
G1 X135.937 Y162.919 E13.00497
G1 X134.917 Y161.221 E13.07744
G1 X134.506 Y159.887 E13.12851
G1 X134.192 Y159.717 E13.14157
G1 X130.644 Y156.508 E13.31659
G1 X129.688 Y154.808 E13.38795
G1 X128.714 Y151.865 E13.50137
G1 X128.594 Y150.381 E13.55584
G1 X128.627 Y149.124 E13.60184
G1 X129.727 Y145.467 E13.74156
G1 X132.41 Y141.75 E13.90928
G0 F6000 X132.734 Y142.054
G1 F1200 X137.048 Y138.6 E14.11147
G1 X137.858 Y138.316 E14.14287
G1 X138.109 Y138.029 E14.15682
G1 X140.818 Y136.186 E14.27669
G1 X142.245 Y134.675 E14.35273
G1 X144.309 Y133.534 E14.43901
G1 X146.032 Y133.238 E14.50298
G1 X147.932 Y133.238 E14.57249
G1 X149.559 Y133.62 E14.63363
G1 X151.056 Y134.36 E14.69473
G1 X152.499 Y133.984 E14.74929
G1 X153.502 Y133.81 E14.78653
G1 X155.115 Y133.66 E14.8458
G1 X156.03 Y133.644 E14.87928
G1 X157.767 Y133.722 E14.94289
G1 X159.121 Y134.125 E14.99458
G1 X160.157 Y134.561 E15.0357
G1 X161.648 Y135.711 E15.10459
G1 X162.253 Y136.492 E15.14074
G1 X162.975 Y137.677 E15.19151
G1 X163.589 Y139.57 E15.26432
G1 X163.512 Y141.547 E15.3367
G1 X163.435 Y141.87 E15.34885
G1 X164.9 Y141.972 E15.40258
G1 X166.919 Y142.841 E15.483
G1 X168.806 Y144.365 E15.57174
G1 X169.767 Y145.575 E15.62827
G1 X170.157 Y146.205 E15.65538
G1 X170.917 Y148.539 E15.74518
G1 X171.01 Y149.909 E15.79542
G1 X170.95 Y151.18 E15.84198
G1 X170.218 Y153.435 E15.92872
G1 X169.592 Y154.451 E15.97238
G1 X168.685 Y155.613 E16.02631
G1 X166.455 Y157.235 E16.12719
G1 X164.452 Y158.008 E16.20574
G1 X163.005 Y158.073 E16.25874
G1 X162.525 Y158.046 E16.27633
G1 X162.632 Y158.855 E16.30618
G1 X162.589 Y160.073 E16.35077
G1 X162.118 Y161.798 E16.41619
G1 X161.21 Y163.458 E16.48542
G1 X159.619 Y164.909 E16.5642
G1 X157.944 Y165.719 E16.63227
G1 X157.287 Y165.838 E16.6567
G1 X156.873 Y166.014 E16.67316
G1 X155.148 Y166.38 E16.73767
G1 X153.258 Y166.179 E16.80721
G1 X152.686 Y166.059 E16.82859
G1 X152.139 Y166.534 E16.8551
G1 X150.462 Y167.417 E16.92444
G1 X148.867 Y167.705 E16.98374
G1 X146.752 Y167.705 E17.06112
G1 X144.644 Y167.124 E17.14112
G1 X143.21 Y166.12 E17.20516
G1 X142.632 Y165.623 E17.23305
G1 X141.656 Y165.638 E17.26876
G1 X140.097 Y165.269 E17.32738
G1 X138.923 Y164.771 E17.37403
G1 X137.235 Y163.521 E17.45088
G1 X136.282 Y162.638 E17.49841
G1 X135.321 Y161.039 E17.56667
G1 X134.873 Y159.585 E17.62233
G1 X134.447 Y159.355 E17.64004
G1 X130.992 Y156.23 E17.81048
G1 X130.093 Y154.632 E17.87756
G1 X129.149 Y151.778 E17.98755
G1 X129.033 Y150.345 E18.04014
G1 X129.066 Y149.193 E18.08231
G1 X130.126 Y145.667 E18.21702
G1 X132.734 Y142.054 E18.38004
G0 F6000 X133.058 Y142.358
G1 F1200 X137.264 Y138.99 E18.57718
G1 X138.126 Y138.688 E18.6106
G1 X138.356 Y138.393 E18.62428
G1 X141.105 Y136.523 E18.74592
G1 X142.518 Y135.027 E18.82121
G1 X144.456 Y133.956 E18.90222
G1 X146.072 Y133.678 E18.96221
G1 X147.883 Y133.678 E19.02847
G1 X149.409 Y134.036 E19.08581
G1 X150.862 Y134.754 E19.14511
G1 X150.979 Y134.835 E19.15032
G1 X152.574 Y134.418 E19.21063
G1 X153.577 Y134.244 E19.24788
G1 X155.123 Y134.1 E19.30468
G1 X156.01 Y134.084 E19.33714
G1 X157.695 Y134.16 E19.39885
G1 X158.95 Y134.531 E19.44673
G1 X159.936 Y134.946 E19.48587
G1 X161.335 Y136.025 E19.55051
G1 X161.877 Y136.721 E19.58278
G1 X162.572 Y137.861 E19.63163
G1 X163.146 Y139.632 E19.69974
G1 X163.072 Y141.53 E19.76924
G1 X162.849 Y142.348 E19.80026
G1 X163.516 Y142.317 E19.82469
G1 X164.795 Y142.406 E19.87159
G1 X166.691 Y143.222 E19.94711
G1 X168.488 Y144.673 E20.03161
G1 X169.422 Y145.849 E20.08656
G1 X169.756 Y146.393 E20.10991
G1 X170.481 Y148.621 E20.19563
G1 X170.57 Y149.888 E20.2421
G1 X170.513 Y151.1 E20.28649
G1 X169.815 Y153.251 E20.36923
G1 X169.245 Y154.18 E20.40911
G1 X168.376 Y155.293 E20.46077
G1 X166.24 Y156.847 E20.55741
G1 X164.364 Y157.571 E20.63098
G1 X162.985 Y157.633 E20.68148
G1 X162.019 Y157.574 E20.71689
G1 X162.191 Y158.874 E20.76487
G1 X162.151 Y160.009 E20.80642
G1 X161.708 Y161.631 E20.86793
G1 X160.859 Y163.183 E20.93266
G1 X159.371 Y164.54 E21.00634
G1 X157.806 Y165.297 E21.06994
G1 X157.158 Y165.414 E21.09403
G1 X156.736 Y165.594 E21.11082
G1 X155.128 Y165.935 E21.17096
G1 X153.349 Y165.748 E21.2364
G1 X152.564 Y165.583 E21.26575
G1 X151.89 Y166.168 E21.2984
G1 X150.318 Y166.996 E21.3634
G1 X148.828 Y167.265 E21.4188
G1 X146.811 Y167.265 E21.49259
G1 X144.835 Y166.72 E21.56759
G1 X143.497 Y165.786 E21.62729
G1 X142.793 Y165.181 E21.66125
G1 X141.703 Y165.197 E21.70113
G1 X140.236 Y164.85 E21.75628
G1 X139.142 Y164.386 E21.79976
G1 X137.534 Y163.198 E21.8729
G1 X136.627 Y162.357 E21.91816
G1 X135.726 Y160.859 E21.98211
G1 X135.241 Y159.284 E22.04241
G1 X134.702 Y158.993 E22.06482
G1 X131.34 Y155.952 E22.23067
G1 X130.498 Y154.456 E22.29348
G1 X129.584 Y151.691 E22.40002
G1 X129.472 Y150.309 E22.45075
G1 X129.504 Y149.262 E22.48908
G1 X130.525 Y145.867 E22.61878
G1 X133.058 Y142.358 E22.77712
G0 F6000 X133.382 Y142.662
G1 F1200 X130.924 Y146.067 E22.93076
G1 X129.942 Y149.331 E23.05546
G1 X129.911 Y150.273 E23.08995
G1 X130.019 Y151.604 E23.1388
G1 X130.902 Y154.275 E23.24173
G1 X131.69 Y155.676 E23.30053
G1 X134.957 Y158.631 E23.4617
G1 X135.608 Y158.983 E23.48878
G1 X136.13 Y160.677 E23.55363
G1 X136.972 Y162.077 E23.6134
G1 X137.796 Y162.844 E23.65459
G1 X139.363 Y164.002 E23.72587
G1 X140.375 Y164.431 E23.76609
G1 X141.75 Y164.756 E23.81778
G1 X142.954 Y164.738 E23.86184
G1 X143.749 Y165.425 E23.90028
G1 X145.026 Y166.316 E23.95725
G1 X146.87 Y166.825 E24.02723
G1 X148.789 Y166.825 E24.09744
G1 X150.174 Y166.575 E24.14893
G1 X151.641 Y165.802 E24.2096
G1 X152.442 Y165.107 E24.2484
G1 X153.44 Y165.317 E24.28571
G1 X155.107 Y165.49 E24.34703
G1 X156.601 Y165.173 E24.4029
G1 X157.031 Y164.99 E24.42
G1 X157.668 Y164.875 E24.44368
G1 X159.123 Y164.171 E24.50282
G1 X160.508 Y162.908 E24.5714
G1 X161.298 Y161.464 E24.63162
G1 X161.713 Y159.945 E24.68923
G1 X161.75 Y158.893 E24.72774
G1 X161.563 Y157.48 E24.77989
G1 X161.404 Y157.095 E24.79513
G1 X162.965 Y157.193 E24.85235
G1 X164.276 Y157.134 E24.90036
G1 X166.025 Y156.459 E24.96895
G1 X168.067 Y154.973 E25.06135
G1 X168.898 Y153.909 E25.11074
G1 X169.414 Y153.063 E25.147
G1 X170.076 Y151.024 E25.22543
G1 X170.13 Y149.867 E25.26781
G1 X170.046 Y148.703 E25.3105
G1 X169.355 Y146.58 E25.39219
G1 X169.047 Y146.079 E25.4137
G1 X168.173 Y144.984 E25.46496
G1 X166.463 Y143.603 E25.54538
G1 X164.691 Y142.84 E25.61596
G1 X163.536 Y142.757 E25.65833
G1 X162.265 Y142.816 E25.70488
G1 X162.634 Y141.466 E25.75609
G1 X162.703 Y139.694 E25.82096
G1 X162.169 Y138.045 E25.88438
G1 X161.501 Y136.95 E25.93131
G1 X161.021 Y136.339 E25.95974
G1 X159.715 Y135.331 E26.02009
G1 X158.779 Y134.937 E26.05725
G1 X157.624 Y134.598 E26.10129
G1 X155.99 Y134.524 E26.16113
G1 X155.131 Y134.54 E26.19256
G1 X153.652 Y134.678 E26.24691
G1 X152.649 Y134.852 E26.28415
G1 X151.141 Y135.245 E26.34117
G1 X150.888 Y135.331 E26.35094
G1 X150.667 Y135.148 E26.36144
G1 X149.26 Y134.453 E26.41886
G1 X147.833 Y134.118 E26.47248
G1 X146.111 Y134.118 E26.53549
G1 X144.603 Y134.377 E26.59147
G1 X142.791 Y135.379 E26.66722
G1 X141.392 Y136.86 E26.74176
G1 X138.66 Y138.718 E26.86264
G1 X138.394 Y139.06 E26.87849
G1 X137.48 Y139.38 E26.91392
G1 X133.382 Y142.662 E27.106
G0 F6000 X133.706 Y142.966
G1 F1200 X131.323 Y146.267 E27.25496
G1 X130.38 Y149.401 E27.3747
G1 X130.35 Y150.237 E27.4053
G1 X130.454 Y151.517 E27.45229
G1 X131.307 Y154.099 E27.55177
G1 X132.038 Y155.398 E27.60631
G1 X135.212 Y158.269 E27.76289
G1 X135.975 Y158.682 E27.79463
G1 X136.534 Y160.495 E27.86404
G1 X137.317 Y161.797 E27.91963
G1 X138.096 Y162.522 E27.95856
G1 X139.582 Y163.617 E28.0261
G1 X140.514 Y164.012 E28.06313
G1 X141.797 Y164.315 E28.11136
G1 X143.115 Y164.295 E28.15959
G1 X144.001 Y165.064 E28.20251
G1 X145.217 Y165.912 E28.25675
G1 X146.929 Y166.385 E28.32173
G1 X148.75 Y166.385 E28.38835
G1 X150.03 Y166.154 E28.43594
G1 X151.392 Y165.436 E28.49227
G1 X152.32 Y164.631 E28.53722
G1 X153.531 Y164.886 E28.58249
G1 X155.086 Y165.045 E28.63968
G1 X156.464 Y164.753 E28.69122
G1 X156.902 Y164.566 E28.70864
G1 X157.53 Y164.453 E28.73199
G1 X158.873 Y163.803 E28.78657
G1 X160.158 Y162.631 E28.8502
G1 X160.888 Y161.297 E28.90584
G1 X161.275 Y159.881 E28.95955
G1 X161.309 Y158.912 E28.99502
G1 X161.135 Y157.597 E29.04355
G1 X160.833 Y156.864 E29.07255
G1 X160.689 Y156.608 E29.0833
G1 X162.945 Y156.753 E29.16601
G1 X164.188 Y156.697 E29.21153
G1 X165.81 Y156.071 E29.27514
G1 X167.76 Y154.652 E29.36337
G1 X168.522 Y153.68 E29.40856
G1 X169.013 Y152.875 E29.44306
G1 X169.639 Y150.948 E29.51719
G1 X169.69 Y149.847 E29.55751
G1 X169.611 Y148.785 E29.59647
G1 X168.953 Y146.766 E29.67417
G1 X168.703 Y146.354 E29.6918
G1 X167.856 Y145.293 E29.74147
G1 X166.235 Y143.984 E29.8177
G1 X164.586 Y143.274 E29.88338
G1 X163.504 Y143.196 E29.92307
G1 X162.006 Y143.268 E29.97794
G1 X161.729 Y142.907 E29.99459
G1 X161.854 Y142.664 E30.00458
G1 X162.196 Y141.399 E30.05253
G1 X162.26 Y139.756 E30.11268
G1 X161.765 Y138.227 E30.17148
G1 X161.155 Y137.222 E30.21449
G1 X160.708 Y136.653 E30.24097
G1 X159.494 Y135.716 E30.29707
G1 X158.608 Y135.343 E30.33225
G1 X157.555 Y135.036 E30.37237
G1 X155.97 Y134.964 E30.43042
G1 X155.139 Y134.98 E30.46083
G1 X153.727 Y135.112 E30.51272
G1 X152.724 Y135.286 E30.54996
G1 X151.283 Y135.662 E30.60445
G1 X150.777 Y135.834 E30.624
G1 X150.472 Y135.542 E30.63945
G1 X149.11 Y134.869 E30.69503
G1 X147.784 Y134.558 E30.74486
