;FLAVOR:Marlin
;TIME:689
;Filament used: 0.425366m
;Layer height: 0.2
;MINX:6.763
;MINY:16.571
;MINZ:0.2
;MAXX:229.036
;MAXY:218.982
;MAXZ:0.4
;Generated with Cura_SteamEngine 5.3.1
M140 S60
M105
M190 S60
M104 S210
M105
M109 S210
M82 ;absolute extrusion mode
; Ender 3 Custom Start G-code
G92 E0 ; Reset Extruder
G28 ; Home all axes
G1 Z2.0 F3000 ; Move Z Axis up little to prevent scratching of Heat Bed
G1 X0.1 Y20 Z0.3 F5000.0 ; Move to start position
G1 X0.1 Y200.0 Z0.3 F1500.0 E15 ; Draw the first line
G1 X0.4 Y200.0 Z0.3 F5000.0 ; Move to side a little
G1 X0.4 Y20 Z0.3 F1500.0 E30 ; Draw the second line
G92 E0 ; Reset Extruder
G1 Z2.0 F3000 ; Move Z Axis up little to prevent scratching of Heat Bed
G1 X5 Y20 Z0.3 F5000.0 ; Move over to prevent blob squish
G92 E0
G92 E0
G1 F2100 E-5
;LAYER_COUNT:2
;LAYER:0
M107
G0 F6000 X12.157 Y19.065 Z0.2
;TYPE:SKIRT
G1 F2100 E0
G1 F1200 X12.932 Y18.602 E0.03003
G1 X13.745 Y18.209 E0.06006
G1 X14.59 Y17.889 E0.09011
G1 X15.459 Y17.646 E0.12012
G1 X16.347 Y17.48 E0.15017
G1 X17.486 Y17.384 E0.18819
G1 X18.093 Y17.371 E0.20838
G1 X37.056 Y17.371 E0.83909
G1 X37.903 Y17.382 E0.86727
G1 X38.805 Y17.435 E0.89732
G1 X39.698 Y17.567 E0.92734
G1 X40.576 Y17.778 E0.95738
G1 X41.432 Y18.066 E0.98742
G1 X42.26 Y18.428 E1.01747
G1 X43.052 Y18.862 E1.04751
G1 X43.802 Y19.365 E1.07755
G1 X44.505 Y19.931 E1.10757
G1 X45.155 Y20.558 E1.1376
G1 X45.87 Y21.397 E1.17427
G1 X46.325 Y21.994 E1.19923
G1 X47.908 Y24.012 E1.28454
G1 X49.546 Y25.98 E1.3697
G1 X51.218 Y27.878 E1.45383
G1 X52.96 Y29.748 E1.53883
G1 X54.715 Y31.524 E1.62188
G1 X56.573 Y33.305 E1.70748
G1 X58.451 Y35.003 E1.79169
G1 X60.401 Y36.67 E1.87701
G1 X62.352 Y38.245 E1.96041
G1 X64.388 Y39.794 E2.0455
G1 X66.432 Y41.261 E2.12918
G1 X68.56 Y42.698 E2.21458
G1 X70.682 Y44.045 E2.29818
G1 X72.875 Y45.353 E2.38311
G1 X75.093 Y46.591 E2.46759
G1 X77.36 Y47.774 E2.55264
G1 X79.626 Y48.876 E2.63645
G1 X81.939 Y49.922 E2.72088
G1 X84.279 Y50.901 E2.80525
G1 X86.689 Y51.829 E2.89114
G1 X89.052 Y52.663 E2.97449
G1 X91.457 Y53.436 E3.05851
G1 X93.906 Y54.149 E3.14334
G1 X96.388 Y54.794 E3.22864
G1 X98.814 Y55.353 E3.31144
G1 X101.381 Y55.868 E3.39852
G1 X103.818 Y56.286 E3.48076
G1 X106.342 Y56.646 E3.56556
G1 X108.882 Y56.934 E3.65058
G1 X111.413 Y57.15 E3.73507
G1 X113.92 Y57.293 E3.81859
G1 X116.479 Y57.365 E3.90373
G1 X119.012 Y57.365 E3.98798
G1 X121.556 Y57.293 E4.07263
G1 X124.08 Y57.151 E4.15671
G1 X126.634 Y56.934 E4.24196
G1 X129.149 Y56.649 E4.32615
G1 X131.657 Y56.291 E4.41041
G1 X134.169 Y55.862 E4.49517
G1 X136.635 Y55.368 E4.57882
G1 X139.132 Y54.794 E4.66403
G1 X141.586 Y54.155 E4.74837
G1 X144.013 Y53.45 E4.83243
G1 X146.453 Y52.665 E4.91769
G1 X148.825 Y51.829 E5.00133
G1 X151.203 Y50.914 E5.08608
G1 X153.534 Y49.94 E5.17011
G1 X155.884 Y48.878 E5.25588
G1 X158.137 Y47.782 E5.33921
G1 X160.405 Y46.6 E5.42427
G1 X162.633 Y45.356 E5.50914
G1 X164.787 Y44.072 E5.59255
G1 X166.948 Y42.702 E5.67765
G1 X169.063 Y41.274 E5.76253
G1 X171.1 Y39.813 E5.84591
G1 X173.135 Y38.264 E5.93097
G1 X175.144 Y36.645 E6.01678
G1 X177.024 Y35.039 E6.09902
G1 X178.922 Y33.322 E6.18415
G1 X180.785 Y31.539 E6.26992
G1 X182.545 Y29.756 E6.35324
G1 X184.278 Y27.899 E6.43773
G1 X185.953 Y25.997 E6.52202
G1 X187.612 Y24.002 E6.60832
G1 X188.5 Y22.889 E6.65568
G1 X189.114 Y22.104 E6.68882
G1 X189.701 Y21.418 E6.71885
G1 X190.347 Y20.787 E6.74889
G1 X191.047 Y20.216 E6.77893
G1 X191.794 Y19.708 E6.80898
G1 X192.583 Y19.269 E6.83901
G1 X193.407 Y18.901 E6.86903
G1 X194.261 Y18.607 E6.89907
G1 X195.138 Y18.391 E6.92911
G1 X196.031 Y18.252 E6.95917
G1 X196.863 Y18.195 E6.9869
G1 X197.47 Y18.182 E7.0071
G1 X216.565 Y18.183 E7.6422
G1 X217.263 Y18.192 E7.66542
G1 X218.164 Y18.243 E7.69543
G1 X219.058 Y18.375 E7.72549
G1 X219.936 Y18.584 E7.75551
G1 X220.793 Y18.871 E7.78557
G1 X221.62 Y19.232 E7.81558
G1 X222.413 Y19.665 E7.84563
G1 X223.164 Y20.166 E7.87566
G1 X223.868 Y20.732 E7.9057
G1 X224.519 Y21.358 E7.93574
G1 X225.112 Y22.039 E7.96577
G1 X225.642 Y22.77 E7.99581
G1 X226.106 Y23.545 E8.02585
G1 X226.5 Y24.358 E8.0559
G1 X226.82 Y25.202 E8.08592
G1 X227.064 Y26.072 E8.11597
G1 X227.23 Y26.96 E8.14602
G1 X227.327 Y28.104 E8.1842
G1 X227.34 Y28.711 E8.2044
G1 X227.339 Y47.82 E8.83997
G1 X227.329 Y48.522 E8.86332
G1 X227.276 Y49.424 E8.89337
G1 X227.144 Y50.317 E8.92339
G1 X226.933 Y51.195 E8.95343
G1 X226.645 Y52.051 E8.98347
G1 X226.283 Y52.879 E9.01352
G1 X225.849 Y53.671 E9.04356
G1 X225.346 Y54.421 E9.0736
G1 X224.602 Y55.32 E9.11241
G1 X223.756 Y56.23 E9.15373
G1 X223.652 Y56.355 E9.15914
G1 X222.59 Y57.503 E9.21116
G1 X220.935 Y59.396 E9.29479
G1 X219.297 Y61.379 E9.38033
G1 X217.747 Y63.368 E9.4642
G1 X216.259 Y65.392 E9.54776
G1 X214.784 Y67.524 E9.63398
G1 X213.414 Y69.626 E9.71744
G1 X212.09 Y71.793 E9.8019
G1 X210.813 Y74.019 E9.88725
G1 X209.625 Y76.234 E9.97085
G1 X208.485 Y78.513 E10.05561
G1 X207.422 Y80.796 E10.13937
G1 X206.399 Y83.168 E10.22528
G1 X205.461 Y85.522 E10.30957
G1 X204.59 Y87.899 E10.39377
G1 X203.792 Y90.29 E10.4776
G1 X203.053 Y92.727 E10.5623
G1 X202.382 Y95.19 E10.64721
G1 X201.783 Y97.66 E10.73174
G1 X201.253 Y100.156 E10.81661
G1 X200.802 Y102.622 E10.89999
G1 X200.412 Y105.149 E10.98503
G1 X200.1 Y107.647 E11.06876
G1 X199.852 Y110.21 E11.15441
G1 X199.681 Y112.717 E11.23798
G1 X199.579 Y115.274 E11.3231
G1 X199.55 Y117.775 E11.40629
G1 X199.594 Y120.348 E11.49188
G1 X199.708 Y122.901 E11.57687
G1 X199.893 Y125.408 E11.66048
G1 X200.151 Y127.935 E11.74497
G1 X200.481 Y130.464 E11.8298
G1 X200.881 Y132.968 E11.91414
G1 X201.35 Y135.457 E11.99838
G1 X201.889 Y137.925 E12.0824
G1 X202.494 Y140.371 E12.16621
G1 X203.191 Y142.875 E12.25265
G1 X203.929 Y145.261 E12.33572
G1 X204.758 Y147.697 E12.42131
G1 X205.646 Y150.082 E12.50595
G1 X206.584 Y152.403 E12.58922
G1 X207.611 Y154.747 E12.67433
G1 X208.698 Y157.05 E12.75903
G1 X209.832 Y159.284 E12.84236
G1 X211.067 Y161.559 E12.92846
G1 X212.33 Y163.734 E13.01211
G1 X213.658 Y165.881 E13.09608
G1 X215.069 Y168.024 E13.18142
G1 X216.519 Y170.095 E13.2655
G1 X218.048 Y172.153 E13.35078
G1 X219.598 Y174.12 E13.43407
G1 X221.246 Y176.092 E13.51955
G1 X222.903 Y177.968 E13.6028
G1 X224.602 Y179.787 E13.68558
G1 X225.389 Y180.607 E13.72339
G1 X225.984 Y181.286 E13.75341
G1 X226.517 Y182.015 E13.78345
G1 X226.984 Y182.788 E13.81349
G1 X227.38 Y183.599 E13.84351
G1 X227.703 Y184.443 E13.87356
G1 X227.95 Y185.311 E13.90358
G1 X228.12 Y186.198 E13.93362
G1 X228.221 Y187.343 E13.97185
G1 X228.236 Y187.982 E13.99311
G1 X228.235 Y207.066 E14.62784
G1 X228.225 Y207.793 E14.65203
G1 X228.173 Y208.695 E14.68208
G1 X228.041 Y209.588 E14.7121
G1 X227.83 Y210.467 E14.74217
G1 X227.543 Y211.323 E14.77219
G1 X227.181 Y212.15 E14.80222
G1 X226.747 Y212.942 E14.83226
G1 X226.245 Y213.693 E14.8623
G1 X225.679 Y214.396 E14.89232
G1 X225.052 Y215.047 E14.92238
G1 X224.371 Y215.639 E14.9524
G1 X223.64 Y216.169 E14.98243
G1 X222.864 Y216.632 E15.01248
G1 X222.051 Y217.025 E15.04252
G1 X221.206 Y217.345 E15.07257
G1 X220.337 Y217.588 E15.10258
G1 X219.449 Y217.753 E15.13262
G1 X218.313 Y217.849 E15.17054
G1 X217.706 Y217.862 E15.19073
G1 X198.598 Y217.861 E15.82627
G1 X197.896 Y217.851 E15.84962
G1 X196.994 Y217.798 E15.87967
G1 X196.101 Y217.666 E15.90969
G1 X195.223 Y217.455 E15.93973
G1 X194.367 Y217.167 E15.96977
G1 X193.539 Y216.805 E15.99982
G1 X192.747 Y216.371 E16.02986
G1 X191.997 Y215.868 E16.0599
G1 X191.294 Y215.302 E16.08992
G1 X190.644 Y214.675 E16.11995
G1 X190.012 Y213.943 E16.15212
G1 X188.267 Y211.716 E16.24622
G1 X186.657 Y209.778 E16.33002
G1 X184.957 Y207.849 E16.41554
G1 X183.243 Y206.01 E16.49915
G1 X181.454 Y204.196 E16.58389
G1 X179.61 Y202.43 E16.66881
G1 X177.742 Y200.739 E16.75262
G1 X175.78 Y199.062 E16.83846
G1 X173.862 Y197.514 E16.92044
G1 X171.793 Y195.939 E17.00692
G1 X169.748 Y194.471 E17.09065
G1 X167.642 Y193.048 E17.17519
G1 X165.487 Y191.679 E17.2601
G1 X163.322 Y190.389 E17.34393
G1 X161.084 Y189.138 E17.4292
G1 X158.861 Y187.978 E17.5126
G1 X156.551 Y186.854 E17.59804
G1 X154.253 Y185.815 E17.68192
G1 X151.908 Y184.835 E17.76646
G1 X149.504 Y183.908 E17.85215
G1 X147.138 Y183.072 E17.93561
G1 X144.735 Y182.299 E18.01957
G1 X142.279 Y181.584 E18.10465
G1 X139.81 Y180.941 E18.18951
G1 X137.379 Y180.381 E18.27248
G1 X134.812 Y179.866 E18.35956
G1 X132.353 Y179.444 E18.44254
G1 X129.844 Y179.086 E18.52684
G1 X127.333 Y178.8 E18.61089
G1 X124.78 Y178.582 E18.69612
G1 X122.274 Y178.439 E18.7796
G1 X119.71 Y178.366 E18.86492
G1 X117.176 Y178.366 E18.9492
G1 X114.642 Y178.437 E19.03351
G1 X112.112 Y178.579 E19.11779
G1 X109.558 Y178.796 E19.20304
G1 X107.023 Y179.084 E19.2879
G1 X104.553 Y179.435 E19.37088
G1 X102.037 Y179.865 E19.45577
G1 X99.544 Y180.363 E19.54033
G1 X97.061 Y180.934 E19.62507
G1 X94.599 Y181.575 E19.70969
G1 X92.173 Y182.279 E19.79371
G1 X89.748 Y183.058 E19.87842
G1 X87.337 Y183.908 E19.96345
G1 X85.023 Y184.797 E20.0459
G1 X82.64 Y185.794 E20.13181
G1 X80.316 Y186.843 E20.21662
G1 X78.05 Y187.944 E20.30041
G1 X75.786 Y189.124 E20.38533
G1 X73.562 Y190.365 E20.47003
G1 X71.397 Y191.655 E20.55386
G1 X69.243 Y193.021 E20.63869
G1 X67.134 Y194.445 E20.72333
G1 X65.052 Y195.937 E20.80852
G1 X63.083 Y197.436 E20.89083
G1 X61.05 Y199.073 E20.97764
G1 X59.159 Y200.688 E21.06035
G1 X57.25 Y202.416 E21.146
G1 X55.418 Y204.168 E21.23031
G1 X53.644 Y205.965 E21.31429
G1 X51.924 Y207.807 E21.39811
G1 X50.215 Y209.747 E21.48411
G1 X48.606 Y211.68 E21.56776
G1 X46.58 Y214.265 E21.67699
G1 X45.993 Y214.95 E21.707
G1 X45.346 Y215.581 E21.73706
G1 X44.647 Y216.152 E21.76708
G1 X43.899 Y216.659 E21.79713
G1 X43.11 Y217.098 E21.82716
G1 X42.285 Y217.465 E21.85719
G1 X41.431 Y217.758 E21.88722
G1 X40.554 Y217.975 E21.91727
G1 X39.661 Y218.112 E21.94732
G1 X38.837 Y218.169 E21.97479
G1 X38.23 Y218.182 E21.99499
G1 X19.135 Y218.181 E22.63009
G1 X18.437 Y218.172 E22.65331
G1 X17.536 Y218.121 E22.68332
G1 X16.642 Y217.989 E22.71338
G1 X15.764 Y217.78 E22.7434
G1 X14.907 Y217.493 E22.77346
G1 X14.08 Y217.132 E22.80347
G1 X13.287 Y216.699 E22.83352
G1 X12.536 Y216.198 E22.86355
G1 X11.832 Y215.632 E22.89359
G1 X11.181 Y215.006 E22.92363
G1 X10.588 Y214.325 E22.95366
G1 X10.058 Y213.594 E22.98369
G1 X9.594 Y212.819 E23.01374
G1 X9.2 Y212.006 E23.04379
G1 X8.88 Y211.162 E23.07381
G1 X8.636 Y210.292 E23.10386
G1 X8.47 Y209.404 E23.13391
G1 X8.373 Y208.249 E23.17246
G1 X8.36 Y207.64 E23.19272
G1 X8.361 Y188.543 E23.82789
G1 X8.371 Y187.842 E23.8512
G1 X8.424 Y186.94 E23.88126
G1 X8.556 Y186.047 E23.91128
G1 X8.767 Y185.168 E23.94135
G1 X9.055 Y184.312 E23.97139
G1 X9.417 Y183.485 E24.00141
G1 X9.851 Y182.693 E24.03145
G1 X10.354 Y181.943 E24.06149
G1 X11.1 Y181.041 E24.10042
G1 X11.571 Y180.536 E24.12339
G1 X12.717 Y179.338 E24.17853
G1 X14.416 Y177.459 E24.26278
G1 X16.061 Y175.531 E24.34708
G1 X17.674 Y173.533 E24.43248
G1 X19.182 Y171.548 E24.5154
G1 X20.689 Y169.448 E24.60137
G1 X22.087 Y167.376 E24.6845
G1 X23.46 Y165.212 E24.76974
G1 X24.755 Y163.037 E24.85393
G1 X25.997 Y160.811 E24.93871
G1 X27.167 Y158.566 E25.02291
G1 X28.282 Y156.271 E25.10778
G1 X29.32 Y153.971 E25.19171
G1 X30.309 Y151.603 E25.27706
G1 X31.22 Y149.235 E25.36145
G1 X32.058 Y146.858 E25.44527
G1 X32.838 Y144.429 E25.53013
G1 X33.541 Y142.01 E25.61391
G1 X34.19 Y139.511 E25.69979
G1 X34.751 Y137.074 E25.78296
G1 X35.255 Y134.554 E25.86844
G1 X35.683 Y132.048 E25.95299
G1 X36.036 Y129.564 E26.03644
G1 X36.32 Y127.06 E26.12026
G1 X36.538 Y124.487 E26.20614
G1 X36.68 Y121.96 E26.29032
G1 X36.751 Y119.425 E26.37467
G1 X36.751 Y116.891 E26.45895
G1 X36.678 Y114.326 E26.5443
G1 X36.535 Y111.831 E26.62742
G1 X36.316 Y109.264 E26.71311
G1 X36.031 Y106.766 E26.79673
G1 X35.674 Y104.262 E26.88086
G1 X35.237 Y101.716 E26.96678
G1 X34.749 Y99.28 E27.04941
G1 X34.168 Y96.76 E27.13542
G1 X33.531 Y94.317 E27.21939
G1 X32.827 Y91.899 E27.30316
G1 X32.044 Y89.466 E27.38817
G1 X31.196 Y87.065 E27.47286
G1 X30.285 Y84.7 E27.55715
G1 X29.304 Y82.357 E27.64163
G1 X28.256 Y80.038 E27.72628
G1 X27.146 Y77.756 E27.81068
G1 X25.983 Y75.528 E27.89427
G1 X24.71 Y73.251 E27.98104
G1 X23.443 Y71.127 E28.06329
G1 X22.061 Y68.951 E28.14903
G1 X20.651 Y66.865 E28.23277
G1 X19.153 Y64.776 E28.31827
G1 X17.647 Y62.8 E28.40091
G1 X16.022 Y60.785 E28.487
G1 X14.383 Y58.868 E28.57089
G1 X12.697 Y57.007 E28.65441
G1 X11.429 Y55.701 E28.71495
G1 X11.267 Y55.518 E28.72308
G1 X10.414 Y54.63 E28.76404
G1 X9.818 Y53.951 E28.79409
G1 X9.285 Y53.223 E28.8241
G1 X8.818 Y52.45 E28.85413
G1 X8.421 Y51.639 E28.88417
G1 X8.097 Y50.795 E28.91424
G1 X7.85 Y49.927 E28.94425
G1 X7.68 Y49.04 E28.97429
G1 X7.578 Y47.874 E29.01322
G1 X7.563 Y47.235 E29.03448
G1 X7.564 Y28.107 E29.67068
G1 X7.573 Y27.442 E29.6928
G1 X7.625 Y26.54 E29.72285
G1 X7.757 Y25.647 E29.75287
G1 X7.967 Y24.769 E29.7829
G1 X8.254 Y23.912 E29.81296
G1 X8.616 Y23.085 E29.84298
G1 X9.049 Y22.293 E29.87301
G1 X9.551 Y21.542 E29.90305
G1 X10.118 Y20.838 E29.93312
G1 X10.744 Y20.188 E29.96313
G1 X11.425 Y19.595 E29.99317
G1 X12.157 Y19.065 E30.02322
G0 F6000 X11.922 Y18.741
G1 F1200 X12.758 Y18.242 E30.05561
G1 X13.603 Y17.835 E30.0868
G1 X14.448 Y17.515 E30.11685
G1 X15.385 Y17.253 E30.14921
G1 X16.313 Y17.081 E30.1806
G1 X17.452 Y16.985 E30.21862
G1 X18.084 Y16.971 E30.23965
G1 X37.061 Y16.971 E30.87083
G1 X37.926 Y16.983 E30.8996
G1 X38.863 Y17.039 E30.93082
G1 X39.756 Y17.171 E30.96084
G1 X40.704 Y17.399 E30.99327
G1 X41.592 Y17.699 E31.02445
G1 X42.42 Y18.061 E31.0545
G1 X43.244 Y18.511 E31.08573
G1 X44.053 Y19.053 E31.11812
G1 X44.783 Y19.643 E31.14934
G1 X45.433 Y20.27 E31.17937
G1 X46.188 Y21.155 E31.21807
G1 X46.64 Y21.747 E31.24284
G1 X48.223 Y23.765 E31.32814
G1 X49.846 Y25.716 E31.41255
G1 X51.511 Y27.605 E31.4963
G1 X53.253 Y29.475 E31.58131
G1 X54.992 Y31.235 E31.6636
G1 X56.85 Y33.016 E31.7492
G1 X58.711 Y34.699 E31.83266
G1 X60.661 Y36.366 E31.91798
G1 X62.594 Y37.927 E32.00062
G1 X64.621 Y39.469 E32.08533
G1 X66.665 Y40.936 E32.16901
G1 X68.774 Y42.36 E32.25365
G1 X70.887 Y43.701 E32.33688
G1 X73.08 Y45.009 E32.42181
G1 X75.278 Y46.236 E32.50554
G1 X77.535 Y47.414 E32.59022
G1 X79.801 Y48.516 E32.67402
G1 X82.093 Y49.553 E32.7577
G1 X84.423 Y50.528 E32.8417
G1 X86.829 Y51.455 E32.92746
G1 X89.174 Y52.282 E33.01016
G1 X91.576 Y53.054 E33.09408
G1 X94.013 Y53.764 E33.1785
G1 X96.478 Y54.404 E33.26321
G1 X98.904 Y54.963 E33.34601
G1 X101.456 Y55.475 E33.43258
G1 X103.874 Y55.89 E33.51418
G1 X106.398 Y56.25 E33.59898
G1 X108.916 Y56.535 E33.68326
G1 X111.447 Y56.752 E33.76775
G1 X113.931 Y56.893 E33.85051
G1 X116.49 Y56.965 E33.93565
G1 X119.001 Y56.965 E34.01917
G1 X121.545 Y56.893 E34.10382
G1 X124.046 Y56.753 E34.18713
G1 X126.6 Y56.536 E34.27238
G1 X129.092 Y56.253 E34.3558
G1 X131.6 Y55.895 E34.44006
G1 X134.088 Y55.47 E34.52401
G1 X136.545 Y54.978 E34.60735
G1 X139.042 Y54.404 E34.69257
G1 X141.479 Y53.77 E34.77632
G1 X143.89 Y53.069 E34.85983
G1 X146.33 Y52.284 E34.94509
G1 X148.685 Y51.455 E35.02812
G1 X151.059 Y50.541 E35.11273
G1 X153.369 Y49.575 E35.19601
G1 X155.719 Y48.513 E35.28178
G1 X157.962 Y47.422 E35.36474
G1 X160.22 Y46.245 E35.44944
G1 X162.428 Y45.012 E35.53355
G1 X164.582 Y43.728 E35.61695
G1 X166.724 Y42.37 E35.70131
G1 X168.839 Y40.942 E35.78619
G1 X170.867 Y39.488 E35.86918
G1 X172.893 Y37.946 E35.95387
G1 X174.884 Y36.341 E36.03892
G1 X176.764 Y34.735 E36.12116
G1 X178.645 Y33.033 E36.20553
G1 X180.508 Y31.25 E36.2913
G1 X182.26 Y29.475 E36.37425
G1 X183.986 Y27.626 E36.45838
G1 X185.645 Y25.741 E36.5419
G1 X187.304 Y23.746 E36.6282
G1 X188.187 Y22.64 E36.67527
G1 X188.81 Y21.844 E36.70889
G1 X189.421 Y21.132 E36.7401
G1 X190.094 Y20.477 E36.77133
G1 X190.822 Y19.885 E36.80254
G1 X191.6 Y19.358 E36.83379
G1 X192.389 Y18.919 E36.86383
G1 X193.277 Y18.523 E36.89616
G1 X194.165 Y18.219 E36.92738
G1 X195.076 Y17.996 E36.95858
G1 X196.004 Y17.853 E36.98981
G1 X196.854 Y17.795 E37.01814
G1 X197.47 Y17.782 E37.03864
G1 X216.57 Y17.783 E37.6739
G1 X217.286 Y17.793 E37.69772
G1 X218.222 Y17.847 E37.7289
G1 X219.116 Y17.979 E37.75896
G1 X220.029 Y18.195 E37.79017
G1 X220.953 Y18.504 E37.82257
G1 X221.78 Y18.865 E37.85258
