;FLAVOR:Marlin
;TIME:14413
;Filament used: 16.593m
;Layer height: 0.32
;MINX:64.326
;MINY:64.325
;MINZ:0.2
;MAXX:235.659
;MAXY:235.665
;MAXZ:31.88
;Generated with Cura_SteamEngine 5.4.0
M140 S60
M105
M190 S60
M104 S200
M105
M109 S200
M82 ;absolute extrusion mode
G28 ; home all axes
;G29 ; auto bed level
M420 S1 Z10 ; turn leveling on
M117 Purge extruder
G92 E0 ; reset extruder
G1 Z1.0 F3000 ; move z up little to prevent scratching of surface
G1 X2 Y20 Z0.3 F5000.0 ; move to start-line position
G1 X2 Y200.0 Z0.3 F1500.0 E15 ; draw 1st line
G1 X2 Y200.0 Z0.4 F5000.0 ; move to side a little
G1 X2 Y20 Z0.4 F1500.0 E30 ; draw 2nd line
G92 E0 ; reset extruder
G1 Z1.0 F3000 ; move z up little to prevent scratching of surface
M150 ; Turn off extruder led
G92 E0
G92 E0
G1 F2100 E-1.5
;LAYER_COUNT:100
;LAYER:0
M107
G1 F300 Z0.4
G0 F6000 X89.612 Y89.223 Z0.4
;TYPE:SKIRT
G1 F300 Z0.2
G1 F2100 E0
G1 F600 X90.961 Y87.913 E0.07505
G1 X91.596 Y87.314 E0.10989
G1 X93.091 Y85.952 E0.19061
G1 X93.881 Y85.259 E0.23255
G1 X95.28 Y84.073 E0.30575
G1 X96.092 Y83.408 E0.34764
G1 X97.599 Y82.214 E0.42438
G1 X98.389 Y81.612 E0.46402
G1 X99.748 Y80.606 E0.53151
G1 X100.73 Y79.905 E0.57966
G1 X102.17 Y78.916 E0.64939
G1 X103.122 Y78.284 E0.69499
G1 X104.776 Y77.23 E0.77327
G1 X105.439 Y76.824 E0.8043
G1 X107.261 Y75.746 E0.8888
G1 X108.134 Y75.249 E0.92889
G1 X109.598 Y74.447 E0.99552
G1 X110.666 Y73.885 E1.04368
G1 X112.229 Y73.099 E1.11351
G1 X113.306 Y72.579 E1.16124
G1 X114.981 Y71.808 E1.23484
G1 X115.941 Y71.385 E1.27671
G1 X117.67 Y70.655 E1.35162
G1 X118.649 Y70.264 E1.39369
G1 X120.42 Y69.593 E1.46928
G1 X121.35 Y69.256 E1.50876
G1 X123.142 Y68.642 E1.58436
G1 X124.098 Y68.334 E1.62445
G1 X125.905 Y67.782 E1.69986
G1 X126.88 Y67.501 E1.74036
G1 X128.768 Y66.995 E1.81837
G1 X129.565 Y66.798 E1.85114
G1 X131.532 Y66.339 E1.93176
G1 X132.564 Y66.117 E1.97389
G1 X134.395 Y65.755 E2.04838
G1 X135.421 Y65.573 E2.08997
G1 X137.114 Y65.299 E2.15842
G1 X138.242 Y65.136 E2.20391
G1 X140.203 Y64.886 E2.28281
G1 X140.981 Y64.8 E2.31405
G1 X143.071 Y64.604 E2.39784
G1 X144.094 Y64.529 E2.43878
G1 X145.944 Y64.419 E2.51274
G1 X146.964 Y64.378 E2.55349
G1 X148.893 Y64.331 E2.6305
G1 X149.849 Y64.325 E2.66866
G1 X151.79 Y64.342 E2.74613
G1 X152.812 Y64.369 E2.78693
G1 X154.675 Y64.452 E2.86136
G1 X155.715 Y64.514 E2.90295
G1 X157.575 Y64.66 E2.97741
G1 X158.434 Y64.741 E3.01185
G1 X160.464 Y64.967 E3.09337
G1 X161.271 Y65.069 E3.12584
G1 X163.394 Y65.378 E3.21146
G1 X164.368 Y65.54 E3.25087
G1 X166.036 Y65.839 E3.31851
G1 X167.282 Y66.088 E3.36922
G1 X168.865 Y66.43 E3.43386
G1 X170.05 Y66.706 E3.48242
G1 X171.722 Y67.126 E3.55123
G1 X172.897 Y67.443 E3.5998
G1 X174.516 Y67.908 E3.66703
G1 X175.667 Y68.263 E3.7151
G1 X177.487 Y68.855 E3.79149
G1 X178.428 Y69.181 E3.83124
G1 X180.06 Y69.774 E3.90054
G1 X181.134 Y70.186 E3.94645
G1 X182.907 Y70.9 E4.02274
G1 X183.683 Y71.226 E4.05633
G1 X185.596 Y72.072 E4.13982
G1 X186.49 Y72.487 E4.17916
G1 X188.22 Y73.325 E4.25588
G1 X189.101 Y73.769 E4.29525
G1 X190.794 Y74.662 E4.37165
G1 X191.708 Y75.165 E4.41329
G1 X193.29 Y76.07 E4.48603
G1 X194.229 Y76.629 E4.52965
G1 X195.779 Y77.586 E4.60235
G1 X196.656 Y78.147 E4.6439
G1 X198.246 Y79.205 E4.72013
G1 X198.919 Y79.668 E4.75273
G1 X200.639 Y80.898 E4.83713
G1 X201.433 Y81.487 E4.87659
G1 X202.898 Y82.61 E4.95026
G1 X203.708 Y83.254 E4.99156
G1 X205.187 Y84.471 E5.06801
G1 X205.955 Y85.129 E5.10837
G1 X207.377 Y86.382 E5.18402
G1 X208.122 Y87.063 E5.2243
G1 X209.486 Y88.349 E5.29912
G1 X210.246 Y89.09 E5.34149
G1 X211.459 Y90.315 E5.41029
G1 X212.163 Y91.052 E5.45097
G1 X213.533 Y92.529 E5.53138
G1 X214.224 Y93.303 E5.57279
G1 X215.381 Y94.642 E5.64342
G1 X216.114 Y95.518 E5.68901
G1 X217.203 Y96.87 E5.7583
G1 X217.945 Y97.82 E5.80641
G1 X219.052 Y99.294 E5.87998
G1 X219.678 Y100.16 E5.92263
G1 X220.639 Y101.531 E5.98946
G1 X221.333 Y102.56 E6.03899
G1 X222.324 Y104.082 E6.11148
G1 X222.889 Y104.986 E6.15403
G1 X223.792 Y106.483 E6.22381
G1 X224.375 Y107.488 E6.27018
G1 X225.198 Y108.96 E6.33749
G1 X225.768 Y110.025 E6.3857
G1 X226.651 Y111.743 E6.4628
G1 X227.079 Y112.615 E6.50156
G1 X227.9 Y114.354 E6.57832
G1 X228.313 Y115.272 E6.61849
G1 X228.991 Y116.846 E6.6869
G1 X229.442 Y117.943 E6.73424
G1 X230.134 Y119.71 E6.80998
G1 X230.426 Y120.494 E6.84337
G1 X231.118 Y122.459 E6.92652
G1 X231.434 Y123.404 E6.96629
G1 X231.951 Y125.045 E7.03496
G1 X232.284 Y126.164 E7.08155
G1 X232.816 Y128.085 E7.16111
G1 X233.061 Y129.031 E7.20011
G1 X233.484 Y130.79 E7.27232
G1 X233.674 Y131.633 E7.30681
G1 X234.107 Y133.73 E7.39227
G1 X234.286 Y134.695 E7.43144
G1 X234.602 Y136.552 E7.50663
G1 X234.758 Y137.559 E7.5473
G1 X235.015 Y139.459 E7.62382
G1 X235.129 Y140.427 E7.66272
G1 X235.321 Y142.341 E7.7395
G1 X235.39 Y143.14 E7.77151
G1 X235.533 Y145.266 E7.85655
G1 X235.583 Y146.247 E7.89576
G1 X235.646 Y148.147 E7.97163
G1 X235.659 Y148.933 E8.00301
G1 X235.659 Y151.076 E8.08854
G1 X235.641 Y152.065 E8.12802
G1 X235.573 Y153.961 E8.20374
G1 X235.522 Y154.953 E8.24338
G1 X235.404 Y156.674 E8.31223
G1 X235.3 Y157.884 E8.36071
G1 X235.11 Y159.746 E8.43541
G1 X235.006 Y160.607 E8.47002
G1 X234.725 Y162.644 E8.55209
G1 X234.574 Y163.618 E8.59143
G1 X234.248 Y165.517 E8.66833
G1 X234.104 Y166.278 E8.69925
G1 X233.665 Y168.396 E8.78558
G1 X233.438 Y169.396 E8.8265
G1 X233.056 Y170.972 E8.89123
G1 X232.735 Y172.201 E8.94193
G1 X232.237 Y173.988 E9.01597
G1 X231.935 Y174.999 E9.05808
G1 X231.373 Y176.769 E9.1322
G1 X231.125 Y177.518 E9.16369
G1 X230.401 Y179.564 E9.25031
G1 X230.045 Y180.513 E9.29077
G1 X229.444 Y182.048 E9.35656
G1 X228.973 Y183.186 E9.40572
G1 X228.233 Y184.893 E9.47997
G1 X227.803 Y185.844 E9.52163
G1 X227.072 Y187.39 E9.58988
G1 X226.569 Y188.409 E9.63524
G1 X225.639 Y190.21 E9.71614
G1 X225.197 Y191.03 E9.75332
G1 X224.256 Y192.713 E9.83028
G1 X223.843 Y193.421 E9.86299
G1 X222.776 Y195.185 E9.94527
G1 X222.232 Y196.048 E9.98599
G1 X221.175 Y197.667 E10.06316
G1 X220.648 Y198.446 E10.1007
G1 X219.531 Y200.033 E10.17815
G1 X218.953 Y200.828 E10.21738
G1 X217.876 Y202.257 E10.2888
G1 X217.197 Y203.127 E10.33285
G1 X215.96 Y204.657 E10.41138
G1 X215.354 Y205.38 E10.44903
G1 X214.071 Y206.861 E10.52724
G1 X213.506 Y207.489 E10.56095
G1 X212.135 Y208.969 E10.64147
G1 X211.41 Y209.723 E10.68322
G1 X210.099 Y211.043 E10.75747
G1 X209.339 Y211.783 E10.79981
G1 X207.98 Y213.059 E10.87421
G1 X207.221 Y213.749 E10.91515
G1 X205.807 Y214.989 E10.99022
G1 X205.185 Y215.519 E11.02283
G1 X203.538 Y216.87 E11.10785
G1 X202.738 Y217.504 E11.14859
G1 X201.414 Y218.517 E11.21513
G1 X200.439 Y219.238 E11.26353
G1 X198.9 Y220.334 E11.33894
G1 X198.083 Y220.894 E11.37847
G1 X196.449 Y221.977 E11.45671
G1 X195.651 Y222.484 E11.49445
G1 X193.967 Y223.519 E11.57334
G1 X193.136 Y224.007 E11.6118
G1 X191.504 Y224.936 E11.68675
G1 X190.605 Y225.427 E11.72764
G1 X189.074 Y226.232 E11.79667
G1 X188.005 Y226.769 E11.84442
G1 X186.316 Y227.584 E11.91927
G1 X185.403 Y228.004 E11.95938
G1 X183.639 Y228.783 E12.03634
G1 X182.709 Y229.171 E12.07656
G1 X181.096 Y229.818 E12.14593
G1 X180.051 Y230.218 E12.19059
G1 X178.375 Y230.827 E12.26176
G1 X177.246 Y231.216 E12.30942
G1 X175.487 Y231.784 E12.38319
G1 X174.464 Y232.095 E12.42587
G1 X172.689 Y232.606 E12.49959
G1 X171.706 Y232.869 E12.5402
G1 X169.998 Y233.295 E12.61046
G1 X168.82 Y233.57 E12.65874
G1 X167.037 Y233.952 E12.73152
G1 X166.019 Y234.151 E12.77292
G1 X164.145 Y234.488 E12.84892
G1 X163.177 Y234.643 E12.88804
G1 X161.241 Y234.923 E12.96612
G1 X160.265 Y235.047 E13.00539
G1 X158.414 Y235.251 E13.07971
G1 X157.519 Y235.335 E13.11559
G1 X155.479 Y235.488 E13.19724
G1 X154.44 Y235.55 E13.23878
G1 X152.796 Y235.619 E13.30445
G1 X151.508 Y235.652 E13.35588
G1 X149.721 Y235.665 E13.4272
G1 X148.644 Y235.655 E13.47019
G1 X146.91 Y235.611 E13.53942
G1 X145.775 Y235.561 E13.58476
G1 X143.823 Y235.444 E13.66281
G1 X143.004 Y235.379 E13.6956
G1 X140.942 Y235.185 E13.77827
G1 X139.934 Y235.071 E13.81875
G1 X138.083 Y234.833 E13.89324
G1 X137.099 Y234.69 E13.93292
G1 X135.136 Y234.366 E14.01233
G1 X134.393 Y234.233 E14.04246
G1 X132.322 Y233.823 E14.12672
G1 X131.514 Y233.647 E14.15973
G1 X129.652 Y233.213 E14.23603
G1 X128.519 Y232.928 E14.28266
G1 X126.855 Y232.479 E14.35145
G1 X125.696 Y232.147 E14.39957
G1 X123.892 Y231.591 E14.47492
G1 X122.963 Y231.288 E14.51392
G1 X121.145 Y230.661 E14.59067
G1 X120.336 Y230.366 E14.62504
G1 X118.589 Y229.699 E14.69967
G1 X117.49 Y229.258 E14.74694
G1 X115.737 Y228.518 E14.82288
G1 X114.776 Y228.09 E14.86487
G1 X113.112 Y227.318 E14.93808
G1 X112.347 Y226.95 E14.97197
G1 X110.475 Y226.005 E15.05566
G1 X109.614 Y225.551 E15.09451
G1 X107.891 Y224.605 E15.17296
G1 X107.194 Y224.208 E15.20498
G1 X105.429 Y223.161 E15.28688
G1 X104.561 Y222.623 E15.32764
G1 X102.942 Y221.587 E15.40436
G1 X102.146 Y221.057 E15.44253
G1 X100.513 Y219.93 E15.52172
G1 X99.723 Y219.362 E15.56055
G1 X98.357 Y218.352 E15.62836
G1 X97.4 Y217.619 E15.67647
G1 X96.066 Y216.561 E15.74442
G1 X95.144 Y215.801 E15.79211
G1 X93.68 Y214.554 E15.86887
G1 X93.043 Y213.994 E15.90272
G1 X91.552 Y212.636 E15.98321
G1 X90.826 Y211.949 E16.02311
G1 X89.422 Y210.579 E16.1014
G1 X88.843 Y209.995 E16.13422
G1 X87.405 Y208.493 E16.21721
G1 X86.746 Y207.779 E16.256
G1 X85.443 Y206.32 E16.33407
G1 X84.938 Y205.735 E16.36491
G1 X83.582 Y204.112 E16.44932
G1 X82.966 Y203.344 E16.48862
G1 X81.894 Y201.972 E16.55811
G1 X81.182 Y201.022 E16.6055
G1 X80.078 Y199.503 E16.68044
G1 X79.587 Y198.802 E16.7146
G1 X78.436 Y197.096 E16.79674
G1 X77.886 Y196.252 E16.83695
G1 X76.861 Y194.615 E16.91403
G1 X76.45 Y193.933 E16.94581
G1 X75.379 Y192.088 E17.03096
G1 X74.902 Y191.232 E17.07007
G1 X74.101 Y189.738 E17.13773
G1 X73.528 Y188.619 E17.18791
G1 X72.808 Y187.162 E17.25277
G1 X72.272 Y186.029 E17.3028
G1 X71.502 Y184.318 E17.37768
G1 X71.092 Y183.363 E17.41916
G1 X70.371 Y181.607 E17.49493
G1 X70 Y180.658 E17.5356
G1 X69.413 Y179.081 E17.60276
G1 X69.022 Y177.967 E17.64988
G1 X68.466 Y176.307 E17.71975
G1 X68.115 Y175.19 E17.76648
G1 X67.576 Y173.371 E17.8422
G1 X67.352 Y172.575 E17.8752
G1 X66.822 Y170.532 E17.95944
G1 X66.594 Y169.575 E17.99871
G1 X66.179 Y167.719 E18.07462
G1 X65.97 Y166.705 E18.11594
G1 X65.631 Y164.896 E18.18939
G1 X65.458 Y163.875 E18.23073
G1 X65.167 Y161.992 E18.30677
G1 X65.055 Y161.171 E18.33984
G1 X64.807 Y159.087 E18.42361
G1 X64.726 Y158.274 E18.45622
G1 X64.549 Y156.194 E18.53953
G1 X64.484 Y155.185 E18.57989
G1 X64.388 Y153.304 E18.65506
G1 X64.355 Y152.296 E18.69532
G1 X64.326 Y150.563 E18.76449
G1 X64.327 Y149.378 E18.81179
G1 X64.361 Y147.47 E18.88795
G1 X64.397 Y146.514 E18.92614
G1 X64.5 Y144.507 E19.00635
G1 X64.57 Y143.526 E19.0456
G1 X64.727 Y141.703 E19.11863
G1 X64.838 Y140.619 E19.16212
G1 X65.054 Y138.833 E19.23392
G1 X65.203 Y137.767 E19.27688
G1 X65.487 Y135.926 E19.35123
G1 X65.665 Y134.888 E19.39326
G1 X66.012 Y133.071 E19.46709
G1 X66.231 Y132.025 E19.50975
G1 X66.638 Y130.226 E19.58336
G1 X66.878 Y129.235 E19.62406
G1 X67.366 Y127.373 E19.70089
G1 X67.585 Y126.587 E19.73345
G1 X68.182 Y124.571 E19.81737
G1 X68.416 Y123.835 E19.84819
G1 X69.096 Y121.803 E19.93372
G1 X69.428 Y120.864 E19.97347
G1 X70.079 Y119.121 E20.04773
G1 X70.47 Y118.13 E20.09025
G1 X71.117 Y116.562 E20.15795
G1 X71.593 Y115.464 E20.20571
G1 X72.37 Y113.75 E20.28082
G1 X72.828 Y112.786 E20.32342
G1 X73.643 Y111.136 E20.39687
G1 X74.017 Y110.412 E20.42939
G1 X75.027 Y108.531 E20.51461
G1 X75.424 Y107.822 E20.54704
G1 X76.461 Y106.039 E20.62936
G1 X76.863 Y105.373 E20.66041
G1 X78.015 Y103.539 E20.74685
G1 X78.59 Y102.659 E20.78881
G1 X79.589 Y101.184 E20.85991
G1 X80.214 Y100.296 E20.90325
G1 X81.215 Y98.918 E20.97123
G1 X81.802 Y98.136 E21.01026
G1 X82.995 Y96.607 E21.08766
G1 X83.746 Y95.678 E21.13534
G1 X84.972 Y94.214 E21.21155
G1 X85.482 Y93.625 E21.24265
G1 X86.898 Y92.043 E21.32739
G1 X87.463 Y91.435 E21.36052
G1 X88.674 Y90.17 E21.43041
G0 F540 X88.725 Y90.116
G0 X89.612 Y89.223
G0 F6000 X89.947 Y89.567
G1 F600 X91.29 Y88.262 E21.50515
G1 X91.919 Y87.669 E21.53965
G1 X93.408 Y86.313 E21.62003
G1 X94.192 Y85.625 E21.66166
G1 X95.584 Y84.444 E21.73452
G1 X96.39 Y83.784 E21.7761
G1 X97.89 Y82.596 E21.85247
G1 X98.674 Y81.998 E21.89183
G1 X100.027 Y80.997 E21.959
G1 X101.002 Y80.301 E22.00681
G1 X102.436 Y79.316 E22.07625
G1 X103.38 Y78.689 E22.12148
G1 X105.027 Y77.639 E22.19944
G1 X105.683 Y77.237 E22.23014
G1 X107.498 Y76.163 E22.31432
G1 X108.364 Y75.67 E22.35409
G1 X109.822 Y74.872 E22.42043
G1 X110.882 Y74.314 E22.46824
G1 X112.438 Y73.531 E22.53776
G1 X113.507 Y73.015 E22.58514
G1 X115.174 Y72.247 E22.65839
G1 X116.128 Y71.827 E22.69999
G1 X117.848 Y71.101 E22.77451
G1 X118.819 Y70.713 E22.81624
G1 X120.583 Y70.044 E22.89154
G1 X121.506 Y69.71 E22.93072
G1 X123.289 Y69.099 E23.00594
G1 X124.238 Y68.793 E23.04574
G1 X126.038 Y68.243 E23.12086
G1 X127.004 Y67.965 E23.16098
G1 X128.883 Y67.461 E23.23863
G1 X129.674 Y67.265 E23.27115
G1 X131.633 Y66.808 E23.35144
G1 X132.657 Y66.588 E23.39324
G1 X134.479 Y66.228 E23.46737
G1 X135.498 Y66.047 E23.50868
G1 X137.183 Y65.774 E23.5768
G1 X138.303 Y65.612 E23.62197
G1 X140.256 Y65.363 E23.70055
G1 X141.026 Y65.278 E23.73147
G1 X143.106 Y65.083 E23.81485
G1 X144.122 Y65.008 E23.85551
G1 X145.963 Y64.899 E23.92912
G1 X146.976 Y64.858 E23.96958
G1 X148.896 Y64.811 E24.04624
G1 X149.845 Y64.805 E24.08411
G1 X151.777 Y64.822 E24.16123
G1 X152.791 Y64.849 E24.20171
G1 X154.646 Y64.931 E24.27582
G1 X155.678 Y64.993 E24.31709
G1 X157.53 Y65.138 E24.39123
G1 X158.381 Y65.218 E24.42534
G1 X160.404 Y65.443 E24.50658
G1 X161.202 Y65.544 E24.53869
G1 X163.315 Y65.851 E24.62391
G1 X164.283 Y66.012 E24.66307
G1 X165.942 Y66.31 E24.73035
G1 X167.181 Y66.557 E24.78077
G1 X168.756 Y66.897 E24.84508
G1 X169.933 Y67.171 E24.89332
G1 X171.597 Y67.59 E24.9618
G1 X172.764 Y67.904 E25.01004
G1 X174.375 Y68.367 E25.07694
G1 X175.519 Y68.719 E25.12471
G1 X177.33 Y69.308 E25.20072
G1 X178.264 Y69.632 E25.24017
G1 X179.888 Y70.222 E25.30914
G1 X180.955 Y70.631 E25.35474
G1 X182.721 Y71.342 E25.43073
G1 X183.489 Y71.665 E25.46398
G1 X185.394 Y72.508 E25.54713
G1 X186.281 Y72.919 E25.58614
G1 X188.004 Y73.754 E25.66256
G1 X188.877 Y74.194 E25.70158
G1 X190.563 Y75.083 E25.77765
G1 X191.47 Y75.582 E25.81897
G1 X193.044 Y76.482 E25.89134
G1 X193.977 Y77.038 E25.93469
G1 X195.52 Y77.99 E26.00705
G1 X196.39 Y78.547 E26.04828
G1 X197.974 Y79.6 E26.12419
G1 X198.64 Y80.059 E26.15648
G1 X200.353 Y81.283 E26.24051
G1 X201.141 Y81.868 E26.27968
G1 X202.599 Y82.986 E26.35301
G1 X203.403 Y83.625 E26.394
G1 X204.875 Y84.836 E26.47008
G1 X205.638 Y85.489 E26.51016
G1 X207.053 Y86.736 E26.58544
G1 X207.793 Y87.412 E26.62544
G1 X209.151 Y88.692 E26.69992
G1 X209.905 Y89.428 E26.74198
G1 X211.112 Y90.647 E26.81044
G1 X211.811 Y91.378 E26.85081
G1 X213.175 Y92.849 E26.93088
G1 X213.861 Y93.617 E26.97198
G1 X215.013 Y94.95 E27.0423
G1 X215.74 Y95.819 E27.08752
G1 X216.825 Y97.166 E27.15655
G1 X217.561 Y98.108 E27.20426
G1 X218.663 Y99.575 E27.27749
G1 X219.285 Y100.435 E27.31985
G1 X220.241 Y101.799 E27.38633
G1 X220.931 Y102.822 E27.43558
G1 X221.917 Y104.337 E27.50773
G1 X222.478 Y105.234 E27.54996
G1 X223.377 Y106.724 E27.61941
G1 X223.956 Y107.722 E27.66546
G1 X224.775 Y109.187 E27.73245
G1 X225.341 Y110.244 E27.7803
G1 X226.22 Y111.954 E27.85704
G1 X226.645 Y112.82 E27.89555
G1 X227.462 Y114.551 E27.97194
G1 X227.872 Y115.462 E28.01181
G1 X228.547 Y117.028 E28.07988
G1 X228.995 Y118.118 E28.12691
G1 X229.684 Y119.878 E28.20235
G1 X229.973 Y120.654 E28.2354
G1 X230.663 Y122.611 E28.31822
G1 X230.976 Y123.548 E28.35765
G1 X231.491 Y125.182 E28.42603
G1 X231.821 Y126.292 E28.47225
G1 X232.351 Y128.205 E28.55147
G1 X232.594 Y129.143 E28.59015
G1 X233.016 Y130.896 E28.66211
G1 X233.204 Y131.73 E28.69623
G1 X233.635 Y133.818 E28.78133
G1 X233.813 Y134.776 E28.82022
G1 X234.128 Y136.625 E28.89508
G1 X234.282 Y137.623 E28.93538
G1 X234.538 Y139.515 E29.01158
G1 X234.651 Y140.475 E29.05016
G1 X234.843 Y142.382 E29.12666
G1 X234.911 Y143.172 E29.15831
G1 X235.054 Y145.29 E29.24304
G1 X235.103 Y146.263 E29.28192
