;FLAVOR:Marlin
;TIME:1384
;Filament used: 0.849858m
;Layer height: 0.2
;MINX:126.895
;MINY:140
;MINZ:0.2
;MAXX:181.763
;MAXY:186.435
;MAXZ:5.2
;Generated with Cura_SteamEngine 5.3.1
M140 S60
M105
M190 S60
M104 S200
M105
M109 S200
M82 ;absolute extrusion mode
G28 ; home all axes
M420 S1
M117 Purge extruder
G92 E0 ; reset extruder
G1 Z1.0 F3000 ; move z up little to prevent scratching of surface
G1 X2 Y20 Z0.3 F5000.0 ; move to start-line position
G1 X2 Y200.0 Z0.3 F1500.0 E15 ; draw 1st line
G1 X2 Y200.0 Z0.4 F5000.0 ; move to side a little
G1 X2 Y20 Z0.4 F1500.0 E30 ; draw 2nd line
G92 E0 ; reset extruder
G1 Z1.0 F3000 ; move z up little to prevent scratching of surface
G92 E0
G92 E0
G1 F1500 E-2
;LAYER_COUNT:25
;LAYER:0
M107
G1 F300 Z0.4
G0 F6000 X130.213 Y145.85 Z0.4
;TYPE:SKIRT
G1 F300 Z0.2
G1 F1500 E0
G1 F1200 X138.753 Y140.921 E0.36075
G1 X140.648 Y140.373 E0.43292
G1 X142.952 Y140.252 E0.51733
G1 X143.469 Y140.345 E0.53655
G1 X145.305 Y140.923 E0.60698
G1 X149.738 Y143.477 E0.79415
G1 X154.601 Y140.669 E0.9996
G1 X156.496 Y140.121 E1.07177
G1 X158.8 Y140 E1.15618
G1 X159.317 Y140.093 E1.1754
G1 X161.153 Y140.671 E1.24583
G1 X169.738 Y145.623 E1.60842
G1 X171.16 Y146.987 E1.68051
G1 X172.249 Y148.64 E1.75294
G1 X172.625 Y149.521 E1.78798
G1 X173.017 Y151.295 E1.85445
G1 X173.017 Y156.291 E2.03724
G1 X178.486 Y159.448 E2.26827
G1 X179.906 Y160.811 E2.34028
G1 X180.995 Y162.464 E2.4127
G1 X181.371 Y163.345 E2.44775
G1 X181.763 Y165.119 E2.51422
G1 X181.763 Y175.021 E2.87649
G1 X181.297 Y176.961 E2.94949
G1 X180.331 Y178.858 E3.02737
G1 X180.061 Y179.253 E3.04488
G1 X178.445 Y180.736 E3.12513
G1 X169.906 Y185.663 E3.48581
G1 X168.004 Y186.213 E3.55825
G1 X166.094 Y186.312 E3.62822
G1 X164.158 Y186.003 E3.69995
G1 X163.377 Y185.668 E3.73104
G1 X158.465 Y182.846 E3.9383
G1 X153.406 Y185.766 E4.15201
G1 X151.511 Y186.314 E4.22418
G1 X149.207 Y186.435 E4.30859
G1 X148.69 Y186.342 E4.32781
G1 X146.854 Y185.764 E4.39823
G1 X138.269 Y180.812 E4.76083
G1 X136.847 Y179.448 E4.83292
G1 X135.758 Y177.795 E4.90534
G1 X135.382 Y176.914 E4.94038
G1 X134.99 Y175.14 E5.00685
G1 X134.993 Y169.921 E5.1978
G1 X130.172 Y167.138 E5.40146
G1 X128.752 Y165.775 E5.47347
G1 X127.663 Y164.122 E5.54589
G1 X127.287 Y163.241 E5.58094
G1 X126.895 Y161.467 E5.64741
G1 X126.895 Y151.565 E6.00968
G1 X127.361 Y149.625 E6.08268
G1 X128.327 Y147.728 E6.16056
G1 X128.597 Y147.333 E6.17807
G1 X130.213 Y145.85 E6.25831
G0 F6000 X130.473 Y146.208
G1 F1200 X138.926 Y141.329 E6.61539
G1 X140.724 Y140.809 E6.68387
G1 X142.921 Y140.694 E6.76436
G1 X143.337 Y140.765 E6.7798
G1 X145.128 Y141.329 E6.8485
G1 X149.738 Y143.985 E7.04315
G1 X154.774 Y141.077 E7.25591
G1 X156.572 Y140.557 E7.32439
G1 X158.769 Y140.442 E7.40488
G1 X159.185 Y140.513 E7.42032
G1 X160.976 Y141.077 E7.48902
G1 X169.47 Y145.976 E7.84776
G1 X170.823 Y147.274 E7.91636
G1 X171.858 Y148.845 E7.98519
G1 X172.204 Y149.656 E8.01745
G1 X172.577 Y151.345 E8.08073
G1 X172.577 Y156.545 E8.27098
G1 X178.22 Y159.802 E8.50936
G1 X179.567 Y161.095 E8.57767
G1 X180.604 Y162.669 E8.64663
G1 X180.95 Y163.48 E8.67889
G1 X181.323 Y165.169 E8.74217
G1 X181.323 Y174.968 E9.10068
G1 X180.881 Y176.808 E9.16991
G1 X179.939 Y178.658 E9.24587
G1 X179.726 Y178.964 E9.25951
G1 X178.185 Y180.378 E9.33602
G1 X169.734 Y185.255 E9.693
G1 X167.928 Y185.777 E9.76178
G1 X166.122 Y185.87 E9.82795
G1 X164.28 Y185.576 E9.89619
G1 X163.596 Y185.286 E9.92337
G1 X158.465 Y182.338 E10.13987
G1 X153.233 Y185.358 E10.36089
G1 X151.435 Y185.878 E10.42937
G1 X149.238 Y185.993 E10.50986
G1 X148.822 Y185.922 E10.5253
G1 X147.031 Y185.358 E10.594
G1 X138.537 Y180.459 E10.95274
G1 X137.184 Y179.161 E11.02134
G1 X136.149 Y177.59 E11.09017
G1 X135.803 Y176.779 E11.12243
G1 X135.43 Y175.09 E11.18571
G1 X135.433 Y169.667 E11.38412
G1 X130.438 Y166.784 E11.59512
G1 X129.091 Y165.491 E11.66343
G1 X128.054 Y163.917 E11.7324
G1 X127.708 Y163.106 E11.76465
G1 X127.335 Y161.417 E11.82794
G1 X127.335 Y151.618 E12.18644
G1 X127.777 Y149.778 E12.25568
G1 X128.719 Y147.928 E12.33163
G1 X128.932 Y147.622 E12.34527
G1 X130.473 Y146.208 E12.42179
G0 F6000 X130.733 Y146.566
G1 F1200 X139.099 Y141.737 E12.7752
G1 X140.8 Y141.245 E12.83998
G1 X142.892 Y141.136 E12.91663
G1 X143.263 Y141.199 E12.93039
G1 X144.949 Y141.733 E12.9951
G1 X149.738 Y144.493 E13.19732
G1 X154.947 Y141.485 E13.41739
G1 X156.648 Y140.993 E13.48218
G1 X158.74 Y140.884 E13.55882
G1 X159.111 Y140.947 E13.57259
G1 X160.797 Y141.481 E13.63729
G1 X169.204 Y146.331 E13.99239
G1 X170.484 Y147.558 E14.05726
G1 X171.467 Y149.05 E14.12263
G1 X171.783 Y149.791 E14.1521
G1 X172.137 Y151.395 E14.2122
G1 X172.137 Y156.799 E14.40991
G1 X177.951 Y160.155 E14.65551
G1 X179.23 Y161.382 E14.72036
G1 X180.213 Y162.874 E14.78573
G1 X180.529 Y163.615 E14.8152
G1 X180.883 Y165.219 E14.8753
G1 X180.883 Y174.915 E15.23003
G1 X180.465 Y176.655 E15.29551
G1 X179.547 Y178.458 E15.36953
G1 X179.392 Y178.674 E15.37926
G1 X177.925 Y180.02 E15.4521
G1 X169.561 Y184.847 E15.80541
G1 X167.852 Y185.341 E15.87049
G1 X166.145 Y185.429 E15.93303
G1 X164.405 Y185.151 E15.99749
G1 X163.815 Y184.904 E16.02089
G1 X158.465 Y181.83 E16.24664
G1 X153.06 Y184.95 E16.47497
G1 X151.359 Y185.442 E16.53975
G1 X149.267 Y185.551 E16.6164
G1 X148.896 Y185.488 E16.63016
G1 X147.21 Y184.954 E16.69487
G1 X138.803 Y180.104 E17.04996
G1 X137.523 Y178.877 E17.11483
G1 X136.54 Y177.385 E17.1802
G1 X136.224 Y176.644 E17.20967
G1 X135.87 Y175.04 E17.26977
G1 X135.873 Y169.413 E17.47564
G1 X130.707 Y166.431 E17.69387
G1 X129.428 Y165.204 E17.75872
G1 X128.445 Y163.712 E17.82409
G1 X128.129 Y162.971 E17.85356
G1 X127.775 Y161.367 E17.91366
G1 X127.775 Y151.671 E18.2684
G1 X128.193 Y149.931 E18.33387
G1 X129.111 Y148.128 E18.40789
G1 X129.266 Y147.912 E18.41762
G1 X130.733 Y146.566 E18.49046
G0 F6000 X130.993 Y146.924
G1 F1200 X139.272 Y142.145 E18.8402
G1 X140.876 Y141.681 E18.90129
G1 X142.865 Y141.578 E18.97415
G1 X143.13 Y141.618 E18.98396
G1 X144.769 Y142.137 E19.04686
G1 X149.738 Y145.001 E19.25669
G1 X155.12 Y141.893 E19.48407
G1 X156.724 Y141.429 E19.54516
G1 X158.713 Y141.326 E19.61803
G1 X158.978 Y141.366 E19.62783
G1 X160.617 Y141.885 E19.69073
G1 X168.936 Y146.684 E20.0421
G1 X170.147 Y147.845 E20.10348
G1 X171.076 Y149.255 E20.16526
G1 X171.362 Y149.926 E20.19195
G1 X171.697 Y151.445 E20.24886
G1 X171.697 Y157.053 E20.45403
G1 X177.682 Y160.508 E20.70687
G1 X178.893 Y161.669 E20.76824
G1 X179.822 Y163.079 E20.83002
G1 X180.108 Y163.75 E20.85671
G1 X180.443 Y165.269 E20.91362
G1 X180.443 Y174.862 E21.26459
G1 X180.049 Y176.502 E21.3263
G1 X179.155 Y178.258 E21.39839
G1 X179.06 Y178.382 E21.4041
G1 X177.665 Y179.662 E21.47337
G1 X169.388 Y184.439 E21.82301
G1 X167.776 Y184.905 E21.8844
G1 X166.168 Y184.988 E21.94331
G1 X164.529 Y184.726 E22.00404
G1 X163.985 Y184.498 E22.02562
G1 X158.464 Y181.323 E22.25863
G1 X152.887 Y184.542 E22.49422
G1 X151.283 Y185.006 E22.55531
G1 X149.294 Y185.109 E22.62817
G1 X149.029 Y185.069 E22.63798
G1 X147.39 Y184.55 E22.70088
G1 X139.071 Y179.751 E23.05225
G1 X137.86 Y178.59 E23.11363
G1 X136.931 Y177.18 E23.17541
G1 X136.645 Y176.509 E23.20209
G1 X136.31 Y174.99 E23.259
G1 X136.313 Y169.159 E23.47234
G1 X130.976 Y166.078 E23.6978
G1 X129.765 Y164.917 E23.75918
G1 X128.836 Y163.507 E23.82095
G1 X128.55 Y162.836 E23.84764
G1 X128.215 Y161.317 E23.90455
G1 X128.215 Y151.724 E24.25552
G1 X128.609 Y150.084 E24.31723
G1 X129.503 Y148.328 E24.38932
G1 X129.598 Y148.204 E24.39503
G1 X130.993 Y146.924 E24.4643
G0 F6000 X131.253 Y147.282
G1 F1200 X139.445 Y142.553 E24.81037
G1 X140.952 Y142.117 E24.86777
G1 X142.841 Y142.019 E24.93697
G1 X142.997 Y142.038 E24.94272
G1 X144.593 Y142.543 E25.00396
G1 X149.738 Y145.509 E25.22124
G1 X155.293 Y142.301 E25.45593
G1 X156.8 Y141.865 E25.51333
G1 X158.689 Y141.767 E25.58253
G1 X158.845 Y141.786 E25.58828
G1 X160.441 Y142.291 E25.64953
G1 X168.67 Y147.038 E25.99709
G1 X169.808 Y148.129 E26.05477
G1 X170.686 Y149.462 E26.11317
G1 X170.94 Y150.059 E26.13691
G1 X171.257 Y151.495 E26.19071
G1 X171.257 Y157.307 E26.40335
G1 X177.416 Y160.862 E26.66353
G1 X178.554 Y161.953 E26.7212
G1 X179.432 Y163.286 E26.7796
G1 X179.686 Y163.883 E26.80334
G1 X180.003 Y165.319 E26.85714
G1 X180.003 Y174.809 E27.20434
G1 X179.633 Y176.349 E27.26229
G1 X178.763 Y178.058 E27.33245
G1 X177.405 Y179.304 E27.39988
G1 X169.215 Y184.031 E27.74585
G1 X167.7 Y184.469 E27.80354
G1 X166.191 Y184.547 E27.85883
G1 X164.653 Y184.301 E27.91581
G1 X164.155 Y184.092 E27.93557
G1 X158.464 Y180.815 E28.17583
G1 X152.714 Y184.134 E28.41873
G1 X151.207 Y184.57 E28.47613
G1 X149.318 Y184.668 E28.54534
G1 X149.162 Y184.649 E28.55108
G1 X147.566 Y184.144 E28.61233
G1 X139.337 Y179.397 E28.9599
G1 X138.199 Y178.306 E29.01758
G1 X137.321 Y176.973 E29.07597
G1 X137.067 Y176.376 E29.09971
G1 X136.75 Y174.94 E29.15351
G1 X136.753 Y168.905 E29.37431
G1 X131.242 Y165.724 E29.60712
G1 X130.104 Y164.633 E29.66479
G1 X129.226 Y163.3 E29.72319
G1 X128.972 Y162.703 E29.74693
G1 X128.655 Y161.267 E29.80073
G1 X128.655 Y151.777 E30.14793
G1 X129.025 Y150.237 E30.20588
G1 X129.895 Y148.528 E30.27604
G1 X131.253 Y147.282 E30.34347
G0 F6000 X131.513 Y147.64
G1 F1200 X139.618 Y142.961 E30.68586
G1 X141.028 Y142.553 E30.73957
G1 X142.864 Y142.458 E30.80683
G1 X144.417 Y142.949 E30.86642
G1 X149.738 Y146.017 E31.09114
G1 X155.466 Y142.709 E31.33314
G1 X156.876 Y142.301 E31.38684
G1 X158.712 Y142.206 E31.4541
G1 X160.265 Y142.697 E31.51369
G1 X168.404 Y147.392 E31.85746
G1 X169.469 Y148.413 E31.91144
G1 X170.296 Y149.669 E31.96646
G1 X170.518 Y150.192 E31.98724
G1 X170.817 Y151.545 E32.03794
G1 X170.817 Y157.561 E32.25804
G1 X177.15 Y161.216 E32.52556
G1 X178.215 Y162.237 E32.57954
G1 X179.042 Y163.493 E32.63456
G1 X179.264 Y164.016 E32.65534
G1 X179.563 Y165.369 E32.70604
G1 X179.563 Y174.756 E33.04947
G1 X179.217 Y176.196 E33.10366
G1 X178.406 Y177.789 E33.16906
G1 X177.145 Y178.946 E33.23167
G1 X169.042 Y183.623 E33.57397
G1 X167.624 Y184.033 E33.62797
G1 X166.219 Y184.105 E33.67944
G1 X164.775 Y183.875 E33.73294
G1 X164.326 Y183.686 E33.75076
G1 X158.464 Y180.307 E33.99831
G1 X152.541 Y183.726 E34.24852
G1 X151.131 Y184.134 E34.30222
G1 X149.295 Y184.229 E34.36948
G1 X147.742 Y183.738 E34.42907
G1 X139.603 Y179.043 E34.77284
G1 X138.538 Y178.022 E34.82682
G1 X137.711 Y176.766 E34.88184
G1 X137.489 Y176.243 E34.90262
G1 X137.19 Y174.89 E34.95332
G1 X137.193 Y168.651 E35.18158
G1 X131.508 Y165.37 E35.42173
G1 X130.443 Y164.349 E35.4757
G1 X129.616 Y163.093 E35.53072
G1 X129.394 Y162.57 E35.55151
G1 X129.095 Y161.217 E35.60221
G1 X129.095 Y151.83 E35.94564
G1 X129.441 Y150.39 E35.99982
G1 X130.252 Y148.797 E36.06522
G1 X131.513 Y147.64 E36.12784
G0 F6000 X131.773 Y147.998
G1 F1200 X139.791 Y143.369 E36.46656
G1 X141.104 Y142.989 E36.51657
G1 X142.805 Y142.901 E36.57889
G1 X144.241 Y143.355 E36.63399
G1 X149.738 Y146.525 E36.86615
G1 X155.639 Y143.117 E37.11546
G1 X156.952 Y142.737 E37.16547
G1 X158.653 Y142.649 E37.22778
G1 X160.089 Y143.103 E37.28289
G1 X168.136 Y147.745 E37.62277
G1 X169.129 Y148.697 E37.6731
G1 X169.907 Y149.88 E37.7249
G1 X170.096 Y150.325 E37.74259
G1 X170.377 Y151.595 E37.79018
G1 X170.377 Y157.815 E38.01774
G1 X176.882 Y161.569 E38.29252
G1 X177.875 Y162.521 E38.34285
G1 X178.653 Y163.704 E38.39465
G1 X178.842 Y164.149 E38.41234
G1 X179.123 Y165.419 E38.45993
G1 X179.123 Y174.703 E38.79959
G1 X178.801 Y176.043 E38.85002
G1 X178.049 Y177.52 E38.91065
G1 X176.885 Y178.588 E38.96845
G1 X168.869 Y183.215 E39.30708
G1 X167.548 Y183.597 E39.35739
G1 X166.247 Y183.663 E39.40505
G1 X164.895 Y183.448 E39.45513
G1 X164.546 Y183.305 E39.46893
G1 X158.464 Y179.799 E39.72577
G1 X152.368 Y183.318 E39.98329
G1 X151.055 Y183.698 E40.0333
G1 X149.354 Y183.786 E40.09562
G1 X147.918 Y183.332 E40.15072
G1 X139.871 Y178.69 E40.4906
G1 X138.878 Y177.738 E40.54093
G1 X138.1 Y176.555 E40.59273
G1 X137.911 Y176.11 E40.61042
G1 X137.63 Y174.84 E40.65801
G1 X137.633 Y168.397 E40.89373
G1 X131.776 Y165.017 E41.14114
G1 X130.783 Y164.065 E41.19147
G1 X130.005 Y162.882 E41.24327
G1 X129.816 Y162.437 E41.26096
G1 X129.535 Y161.167 E41.30855
G1 X129.535 Y151.883 E41.64821
G1 X129.857 Y150.543 E41.69864
G1 X130.609 Y149.066 E41.75927
G1 X131.773 Y147.998 E41.81707
G0 F6000 X132.033 Y148.356
G1 F1200 X139.964 Y143.777 E42.15212
G1 X141.18 Y143.425 E42.19844
G1 X142.746 Y143.344 E42.25581
G1 X144.065 Y143.761 E42.30642
G1 X149.738 Y147.033 E42.54602
G1 X155.812 Y143.525 E42.80265
G1 X157.028 Y143.173 E42.84896
G1 X158.594 Y143.092 E42.90633
G1 X159.913 Y143.509 E42.95694
G1 X167.868 Y148.098 E43.29294
G1 X168.789 Y148.981 E43.33962
G1 X169.518 Y150.091 E43.38821
G1 X169.674 Y150.458 E43.4028
G1 X169.937 Y151.645 E43.44728
G1 X169.937 Y158.069 E43.68231
G1 X176.614 Y161.922 E43.96435
G1 X177.535 Y162.805 E44.01103
G1 X178.264 Y163.915 E44.05961
G1 X178.42 Y164.282 E44.0742
G1 X178.683 Y165.469 E44.11869
G1 X178.683 Y174.65 E44.45458
G1 X178.385 Y175.89 E44.50124
G1 X177.692 Y177.251 E44.55712
G1 X176.625 Y178.23 E44.6101
G1 X168.696 Y182.807 E44.94505
G1 X167.472 Y183.161 E44.99167
G1 X166.27 Y183.222 E45.0357
G1 X165.017 Y183.022 E45.08212
G1 X164.766 Y182.924 E45.09198
G1 X158.464 Y179.291 E45.35812
G1 X152.195 Y182.91 E45.62295
G1 X150.979 Y183.262 E45.66927
G1 X149.413 Y183.343 E45.72664
G1 X148.094 Y182.926 E45.77725
G1 X140.139 Y178.337 E46.11325
G1 X139.218 Y177.454 E46.15993
G1 X138.489 Y176.344 E46.20851
G1 X138.333 Y175.977 E46.2231
G1 X138.07 Y174.79 E46.26758
G1 X138.073 Y168.143 E46.51077
G1 X132.044 Y164.664 E46.76544
G1 X131.123 Y163.781 E46.81212
G1 X130.394 Y162.671 E46.8607
G1 X130.238 Y162.304 E46.87529
G1 X129.975 Y161.117 E46.91978
G1 X129.975 Y151.936 E47.25567
G1 X130.273 Y150.696 E47.30233
G1 X130.966 Y149.335 E47.35821
G1 X132.033 Y148.356 E47.41119
G0 F6000 X132.293 Y148.714
G1 F1200 X140.137 Y144.185 E47.74257
G1 X141.256 Y143.861 E47.78519
G1 X142.687 Y143.787 E47.83762
G1 X143.889 Y144.167 E47.88374
G1 X149.738 Y147.541 E48.13078
G1 X155.985 Y143.933 E48.39472
G1 X157.104 Y143.609 E48.43734
G1 X158.535 Y143.535 E48.48976
G1 X159.737 Y143.915 E48.53588
G1 X167.602 Y148.453 E48.8681
G1 X168.449 Y149.264 E48.911
G1 X169.128 Y150.299 E48.95629
G1 X169.252 Y150.591 E48.9679
G1 X169.497 Y151.695 E49.00927
G1 X169.497 Y158.323 E49.25176
G1 X176.348 Y162.277 E49.54116
G1 X177.195 Y163.088 E49.58407
G1 X177.874 Y164.123 E49.62935
G1 X177.998 Y164.415 E49.64096
G1 X178.243 Y165.519 E49.68234
G1 X178.243 Y174.597 E50.01446
G1 X177.969 Y175.737 E50.05736
G1 X177.335 Y176.982 E50.10848
G1 X176.365 Y177.872 E50.15664
G1 X168.523 Y182.399 E50.48792
G1 X167.396 Y182.725 E50.53085
G1 X166.293 Y182.781 E50.57125
G1 X165.136 Y182.596 E50.61412
G1 X164.986 Y182.543 E50.61994
G1 X158.464 Y178.783 E50.89537
G1 X152.022 Y182.502 E51.16751
G1 X150.903 Y182.826 E51.21013
G1 X149.472 Y182.9 E51.26256
G1 X148.27 Y182.52 E51.30868
G1 X140.405 Y177.982 E51.64089
G1 X139.558 Y177.171 E51.6838
G1 X138.879 Y176.136 E51.72908
G1 X138.755 Y175.844 E51.74069
G1 X138.51 Y174.74 E51.78206
G1 X138.513 Y167.889 E52.03272
G1 X132.31 Y164.309 E52.29474
G1 X131.463 Y163.498 E52.33765
G1 X130.784 Y162.463 E52.38294
G1 X130.66 Y162.171 E52.39454
G1 X130.415 Y161.067 E52.43592
G1 X130.415 Y151.989 E52.76805
G1 X130.689 Y150.849 E52.81094
G1 X131.323 Y149.604 E52.86206
G1 X132.293 Y148.714 E52.91022
G0 F6000 X132.553 Y149.072
G1 F1200 X140.31 Y144.593 E53.23793
G1 X141.332 Y144.297 E53.27686
G1 X142.628 Y144.23 E53.32434
G1 X143.713 Y144.573 E53.36597
G1 X149.738 Y148.049 E53.62046
G1 X156.158 Y144.341 E53.8917
G1 X157.18 Y144.045 E53.93063
G1 X158.476 Y143.978 E53.97811
G1 X159.561 Y144.321 E54.01974
G1 X167.334 Y148.806 E54.34807
G1 X168.11 Y149.55 E54.3874
G1 X168.76 Y150.54 E54.43073
G1 X168.822 Y150.686 E54.43653
G1 X169.057 Y151.745 E54.47622
G1 X169.057 Y158.577 E54.72618
G1 X176.08 Y162.63 E55.02284
G1 X176.856 Y163.374 E55.06217
G1 X177.506 Y164.364 E55.1055
G1 X177.568 Y164.51 E55.1113
G1 X177.803 Y165.569 E55.15099
G1 X177.803 Y174.544 E55.47935
G1 X177.553 Y175.584 E55.51849
G1 X176.978 Y176.713 E55.56484
